;Generated by Cura LulzBot Edition GCodeWriter Version: 2.6.69
;FLAVOR:RepRap
;TIME:2147
;Filament used: 0.789842m
;Layer height: 0.18
;Generated with Cura_SteamEngine 2.6.69
;This G-Code has been generated specifically for the LulzBot TAZ 6 with standard extruder
G26 ; clear potential 'probe fail' condition
G21 ; set units to Millimetres
M107 ; disable fans
G90 ; absolute positioning
M82 ; set extruder to absolute mode
G92 E0 ; set extruder position to 0
M140 S110 ; start bed heating up
G28 XY ; home X and Y
G1 X-19 Y258 F1000 ; move to safe homing position
M109 R175 ; soften filament before homing Z
G28 Z ; home Z
G1 E-30 F100 ; retract filament
M109 R170 ; wait for extruder to reach wiping temp
G1 X-15 Y100 F3000 ; move above wiper pad
G1 Z1 ; push nozzle into wiper
G1 X-17 Y95 F1000 ; slow wipe
G1 X-17 Y90 F1000 ; slow wipe
G1 X-17 Y85 F1000 ; slow wipe
G1 X-15 Y90 F1000 ; slow wipe
G1 X-17 Y80 F1000 ; slow wipe
G1 X-15 Y95 F1000 ; slow wipe
G1 X-17 Y75 F2000 ; fast wipe
G1 X-15 Y65 F2000 ; fast wipe
G1 X-17 Y70 F2000 ; fast wipe
G1 X-15 Y60 F2000 ; fast wipe
G1 X-17 Y55 F2000 ; fast wipe
G1 X-15 Y50 F2000 ; fast wipe
G1 X-17 Y40 F2000 ; fast wipe
G1 X-15 Y45 F2000 ; fast wipe
G1 X-17 Y35 F2000 ; fast wipe
G1 X-15 Y40 F2000 ; fast wipe
G1 X-17 Y70 F2000 ; fast wipe
G1 X-15 Y30 Z2 F2000 ; fast wipe
G1 X-17 Y35 F2000 ; fast wipe
G1 X-15 Y25 F2000 ; fast wipe
G1 X-17 Y30 F2000 ; fast wipe
G1 X-15 Y25 Z1.5 F1000 ; slow wipe
G1 X-17 Y23 F1000 ; slow wipe
G1 Z10 ; raise extruder
M109 R170 ; wait for extruder to reach probe temp
G1 X-9 Y-9 ; move above first probe point
M204 S100 ; set probing acceleration
G29 ; start auto-leveling sequence
M204 S500 ; restore standard acceleration
G1 X0 Y0 Z15 F5000 ; move up off last probe point
G4 S1 ; pause
M400 ; wait for moves to finish
M117 Heating... ; progress indicator message on LCD
M109 R240 ; wait for extruder to reach printing temp
M190 S110 ; wait for bed to reach printing temp
G1 Z2 E0 F75 ; prime tiny bit of filament into the nozzle
M117 TAZ 6 Printing... ; progress indicator message on LCD

M221 S100
;LAYER_COUNT:54
;LAYER:-6
M107
G0 F2625 X123.53 Y111.613 Z0.51
G1 F1350 X123.529 Y111.612 E0.00011
G1 X124.33 Y110.868 E0.08751
G1 X125.132 Y110.227 E0.16959
G1 X126.015 Y109.619 E0.2553
G1 X126.933 Y109.081 E0.34036
G1 X127.881 Y108.614 E0.42484
G1 X128.861 Y108.219 E0.50932
G1 X129.866 Y107.896 E0.59371
G1 X130.902 Y107.644 E0.67895
G1 X131.943 Y107.472 E0.7633
G1 X132.994 Y107.376 E0.84767
G1 X133.824 Y107.353 E0.91405
G1 X146.195 Y107.353 E1.90305
G1 X147.26 Y107.391 E1.98824
G1 X148.318 Y107.509 E2.07335
G1 X149.355 Y107.7 E2.15764
G1 X150.381 Y107.968 E2.24242
G1 X151.391 Y108.312 E2.32772
G1 X152.353 Y108.721 E2.41129
G1 X153.281 Y109.197 E2.49467
G1 X154.209 Y109.764 E2.58161
G1 X155.07 Y110.379 E2.6662
G1 X155.868 Y111.045 E2.74929
G1 X156.467 Y111.61 E2.81512
G1 X156.59 Y111.733 E2.82903
G1 X156.591 Y111.732 E2.82914
G1 X157.335 Y112.533 E2.91654
G1 X157.976 Y113.335 E2.99862
G1 X158.584 Y114.218 E3.08432
G1 X159.122 Y115.136 E3.16939
G1 X159.589 Y116.084 E3.25387
G1 X159.984 Y117.064 E3.33834
G1 X160.307 Y118.069 E3.42273
G1 X160.559 Y119.105 E3.50797
G1 X160.731 Y120.146 E3.59232
G1 X160.827 Y121.197 E3.67669
G1 X160.85 Y122.013 E3.74196
G1 X160.85 Y138.582 E5.06656
G1 X160.837 Y138.913 E5.09304
G1 X160.931 Y139.48 E5.13899
G1 X161.027 Y140.531 E5.22336
G1 X161.05 Y141.347 E5.28862
G1 X161.05 Y158.084 E6.62666
G1 X161.012 Y159.14 E6.71114
G1 X160.894 Y160.198 E6.79624
G1 X160.703 Y161.235 E6.88054
G1 X160.435 Y162.261 E6.96532
G1 X160.091 Y163.271 E7.05062
G1 X159.682 Y164.233 E7.13418
G1 X159.204 Y165.164 E7.21785
G1 X158.639 Y166.089 E7.3045
G1 X158.024 Y166.95 E7.38909
G1 X157.358 Y167.748 E7.47219
G1 X156.793 Y168.347 E7.53802
G1 X156.553 Y168.587 E7.56515
G1 X156.554 Y168.588 E7.56526
G1 X155.753 Y169.332 E7.65266
G1 X154.951 Y169.973 E7.73474
G1 X154.068 Y170.581 E7.82045
G1 X153.15 Y171.119 E7.90551
G1 X152.202 Y171.586 E7.98999
G1 X151.222 Y171.981 E8.07446
G1 X150.217 Y172.304 E8.15886
G1 X149.181 Y172.556 E8.24409
G1 X148.14 Y172.728 E8.32845
G1 X147.089 Y172.824 E8.41282
G1 X146.259 Y172.847 E8.4792
G1 X133.722 Y172.847 E9.48147
G1 X132.657 Y172.809 E9.56666
G1 X131.599 Y172.691 E9.65177
G1 X130.562 Y172.5 E9.73606
G1 X129.536 Y172.232 E9.82084
G1 X128.526 Y171.888 E9.90614
G1 X127.564 Y171.479 E9.98971
G1 X126.633 Y171.001 E10.07337
G1 X125.708 Y170.436 E10.16003
G1 X124.847 Y169.821 E10.24462
G1 X124.049 Y169.155 E10.32771
G1 X123.45 Y168.59 E10.39354
G1 X123.207 Y168.347 E10.42101
G1 X123.206 Y168.348 E10.42113
G1 X122.465 Y167.55 E10.50818
G1 X121.824 Y166.748 E10.59026
G1 X121.216 Y165.865 E10.67597
G1 X120.678 Y164.947 E10.76103
G1 X120.211 Y163.999 E10.84552
G1 X119.816 Y163.019 E10.92999
G1 X119.493 Y162.014 E11.01438
G1 X119.241 Y160.978 E11.09962
G1 X119.069 Y159.937 E11.18397
G1 X118.973 Y158.886 E11.26834
G1 X118.95 Y158.07 E11.3336
G1 X118.95 Y141.333 E12.67164
G1 X118.988 Y140.277 E12.75612
G1 X119.106 Y139.213 E12.8417
G1 X119.158 Y138.926 E12.86502
G1 X119.15 Y138.574 E12.89316
G1 X119.15 Y121.999 E14.21825
G1 X119.188 Y120.943 E14.30273
G1 X119.306 Y119.885 E14.38783
G1 X119.497 Y118.848 E14.47213
G1 X119.765 Y117.822 E14.55691
G1 X120.109 Y116.812 E14.6422
G1 X120.518 Y115.85 E14.72577
G1 X120.996 Y114.919 E14.80944
G1 X121.561 Y113.994 E14.89609
G1 X122.176 Y113.133 E14.98068
G1 X122.842 Y112.335 E15.06378
G1 X123.407 Y111.736 E15.1296
G1 X123.53 Y111.613 E15.14351
G0 F2625 X124 Y111.174
G1 F1350 X124 Y169.108 E19.77504
G0 F2625 X126 Y170.614
G1 F1350 X126 Y109.629 E24.65047
G0 F2625 X128 Y108.566
G1 F1350 X128 Y171.664 E29.69483
G0 F2625 X130 Y172.353
G1 F1350 X130 Y107.863 E34.85048
G0 F2625 X132 Y107.466
G1 F1350 X132 Y172.735 E40.0684
G0 F2625 X134 Y172.847
G1 F1350 X134 Y107.353 E45.30431
G0 F2625 X136 Y107.353
G1 F1350 X136 Y172.847 E50.54022
G0 F2625 X138 Y172.847
G1 F1350 X138 Y107.353 E55.77613
G0 F2625 X140 Y107.353
G1 F1350 X140 Y172.847 E61.01204
G0 F2625 X142 Y172.847
G1 F1350 X142 Y107.353 E66.24795
G0 F2625 X144 Y107.353
G1 F1350 X144 Y172.847 E71.48385
G0 F2625 X146 Y172.847
G1 F1350 X146 Y107.353 E76.71976
G0 F2625 X148 Y107.474
G1 F1350 X148 Y172.741 E81.93753
G0 F2625 X150 Y172.357
G1 F1350 X150 Y107.869 E87.09301
G0 F2625 X152 Y108.571
G1 F1350 X152 Y171.668 E92.13729
G0 F2625 X154 Y170.621
G1 F1350 X154 Y109.637 E97.01265
G0 F2625 X156 Y111.17
G1 F1350 X156 Y169.103 E101.64409
G0 F2625 X158 Y166.979
G1 F1350 X158 Y113.37 E105.92986
G0 F2625 X160 Y117.114
G1 F1350 X160 Y163.486 E109.63706
G0 F2625 X122 Y166.968
G1 F1350 X122 Y113.379 E113.92123
G0 F2625 X120 Y117.132
M104 S240
G1 F1350 X120 Y163.475 E117.62611
G0 F2625 X122.841 Y112.335
;TIME_ELAPSED:73.427772
;LAYER:-5
M140 S110
M221 S100
G0 X122.841 Y112.335 Z0.78
;TYPE:SUPPORT
G1 F1350 X122.69 Y112.516 E117.63609
G1 X161.049 Y150.875 E119.93206
G1 X161.049 Y152.571 E120.00384
G1 X121.939 Y113.461 E122.34476
G1 X121.56 Y113.994 E122.37244
G1 X121.263 Y114.48 E122.39655
G1 X161.049 Y154.266 E124.77793
G1 X161.049 Y155.962 E124.84971
G1 X120.659 Y115.572 E127.26725
G1 X120.517 Y115.85 E127.28046
G1 X120.136 Y116.744 E127.32159
G1 X161.049 Y157.657 E129.77043
G1 X161.049 Y158.083 E129.78846
G1 X161.011 Y159.14 E129.83323
G1 X160.994 Y159.298 E129.83995
G1 X119.712 Y118.016 E132.31088
G1 X119.496 Y118.848 E132.34726
G1 X119.394 Y119.394 E132.37077
G1 X160.785 Y160.785 E134.84822
G1 X160.702 Y161.234 E134.86755
G1 X160.462 Y162.157 E134.90791
G1 X119.194 Y120.889 E137.378
G1 X119.188 Y120.942 E137.38026
G1 X119.15 Y121.998 E137.42498
G1 X119.15 Y122.541 E137.44796
G1 X160.028 Y163.419 E139.89471
G1 X159.681 Y164.232 E139.93212
G1 X159.499 Y164.586 E139.94897
G1 X119.15 Y124.237 E142.36405
G1 X119.15 Y125.932 E142.43579
G1 X158.891 Y165.674 E144.81451
G1 X158.639 Y166.088 E144.83502
G1 X158.21 Y166.689 E144.86627
G1 X119.15 Y127.628 E147.20423
G1 X119.15 Y129.324 E147.27601
G1 X157.456 Y167.63 E149.56881
G1 X157.358 Y167.746 E149.57524
G1 X156.793 Y168.345 E149.61009
G1 X156.634 Y168.504 E149.61961
G1 X119.15 Y131.019 E151.86323
G1 X119.15 Y132.715 E151.93502
G1 X155.759 Y169.324 E154.12624
G1 X155.752 Y169.33 E154.12663
G1 X154.95 Y169.972 E154.17011
G1 X154.808 Y170.069 E154.17739
G1 X119.15 Y134.411 E156.31169
G1 X119.15 Y136.106 E156.38343
G1 X153.787 Y170.743 E158.45662
G1 X153.149 Y171.118 E158.48794
G1 X152.691 Y171.343 E158.50954
G1 X119.15 Y137.802 E160.51713
G1 X119.15 Y138.573 E160.54976
G1 X119.157 Y138.925 E160.56466
G1 X119.106 Y139.212 E160.577
G1 X119.081 Y139.429 E160.58625
G1 X151.514 Y171.862 E162.52752
G1 X151.222 Y171.98 E162.54085
G1 X150.248 Y172.292 E162.58413
G1 X118.961 Y141.004 E164.45684
G1 X118.949 Y141.332 E164.47073
G1 X118.949 Y142.688 E164.52812
G1 X148.867 Y172.606 E166.31886
G1 X148.139 Y172.727 E166.3501
G1 X147.363 Y172.797 E166.38307
G1 X118.949 Y144.384 E168.08376
G1 X118.949 Y146.079 E168.1555
G1 X145.716 Y172.846 E169.75763
G1 X144.02 Y172.846 E169.82941
G1 X118.949 Y147.775 E171.33003
G1 X118.949 Y149.471 E171.40181
G1 X142.325 Y172.846 E172.80095
G1 X140.629 Y172.846 E172.87273
G1 X118.949 Y151.166 E174.17038
G1 X118.949 Y152.862 E174.24216
G1 X138.933 Y172.846 E175.4383
G1 X137.238 Y172.846 E175.51004
G1 X118.949 Y154.557 E176.60473
G1 X118.949 Y156.253 E176.67651
G1 X135.542 Y172.846 E177.66968
G1 X133.846 Y172.846 E177.74146
G1 X118.949 Y157.949 E178.63312
G1 X118.949 Y158.069 E178.6382
G1 X118.972 Y158.884 E178.6727
G1 X119.051 Y159.746 E178.70934
G1 X132.044 Y172.739 E179.48703
G1 X131.598 Y172.69 E179.50602
G1 X130.562 Y172.499 E179.55061
G1 X129.947 Y172.338 E179.57752
G1 X119.451 Y161.842 E180.20575
G1 X119.493 Y162.013 E180.2132
G1 X119.815 Y163.018 E180.25787
G1 X120.21 Y163.997 E180.30255
G1 X120.502 Y164.589 E180.33049
G1 X127.209 Y171.295 E180.7319
G0 F2625 X161.049 Y149.179
G1 F1350 X123.506 Y111.636 E182.97903
G1 X123.406 Y111.736 E182.98502
G1 X122.841 Y112.335 E183.01987
G0 F2625 X124.387 Y110.822
G1 F1350 X161.049 Y147.484 E185.21427
G1 X161.049 Y149.179 E185.28601
G0 F2625 X161.049 Y145.788
G1 F1350 X125.342 Y110.081 E187.42324
G1 X125.131 Y110.226 E187.43408
G1 X124.387 Y110.822 E187.47442
G0 F2625 X126.368 Y109.412
G1 F1350 X161.049 Y144.092 E189.55022
G1 X161.049 Y145.788 E189.622
G0 F2625 X161.049 Y142.397
G1 F1350 X127.469 Y108.817 E191.63193
G1 X126.932 Y109.081 E191.65725
G1 X126.368 Y109.412 E191.68493
G0 F2625 X128.651 Y108.303
G1 F1350 X161.03 Y140.683 E193.623
G1 X161.049 Y141.346 E193.65107
G1 X161.049 Y142.397 E193.69555
G0 F2625 X160.841 Y138.797
G1 F1350 X129.925 Y107.881 E195.54603
G1 X129.865 Y107.896 E195.54864
G1 X128.86 Y108.218 E195.59331
G1 X128.651 Y108.303 E195.60286
G0 F2625 X131.315 Y107.576
G1 F1350 X160.849 Y137.11 E197.37061
G1 X160.849 Y138.582 E197.43291
G1 X160.841 Y138.797 E197.44202
G0 F2625 X160.849 Y135.414
G1 F1350 X132.826 Y107.391 E199.11933
G1 X131.941 Y107.471 E199.15694
G1 X131.315 Y107.576 E199.1838
G0 F2625 X134.483 Y107.352
G1 F1350 X160.849 Y133.718 E200.76193
G1 X160.849 Y135.414 E200.83372
G0 F2625 X160.849 Y132.023
G1 F1350 X136.178 Y107.352 E202.31039
G1 X134.483 Y107.352 E202.38213
G0 F2625 X137.874 Y107.352
G1 F1350 X160.849 Y130.327 E203.7573
G1 X160.849 Y132.023 E203.82908
G0 F2625 X160.849 Y128.631
G1 F1350 X139.57 Y107.352 E205.10273
G1 X137.874 Y107.352 E205.17451
G0 F2625 X141.265 Y107.352
G1 F1350 X160.849 Y126.936 E206.34671
G1 X160.849 Y128.631 E206.41845
G0 F2625 X160.849 Y125.24
G1 F1350 X142.961 Y107.352 E207.48913
G1 X141.265 Y107.352 E207.56091
G0 F2625 X144.657 Y107.352
G1 F1350 X160.849 Y123.544 E208.53008
G1 X160.849 Y125.24 E208.60186
G0 F2625 X160.844 Y121.845
G1 F1350 X146.359 Y107.359 E209.46889
G1 X146.194 Y107.352 E209.47588
G0 F2625 X148.19 Y107.495
G1 F1350 X160.708 Y120.012 E210.22511
G1 X160.73 Y120.146 E210.23086
G1 X160.826 Y121.197 E210.27552
G1 X160.844 Y121.845 E210.30296
G0 F2625 X160.233 Y117.842
G1 F1350 X150.352 Y107.961 E210.89439
G1 X149.354 Y107.7 E210.93805
G1 X148.317 Y107.509 E210.98267
G1 X148.19 Y107.495 E210.98808
G0 F2625 X153.288 Y109.201
G1 F1350 X158.977 Y114.89 E211.3286
G1 X159.12 Y115.136 E211.34064
G1 X159.588 Y116.084 E211.38538
G1 X159.983 Y117.063 E211.43006
G1 X160.233 Y117.842 E211.46469
G0 F2625 X122.813 Y112
;TIME_ELAPSED:176.734727
;LAYER:-4
G0 X122.813 Y112 Z0.959
G1 F1800 X123.229 Y111.558 E211.47321
G1 X123.287 Y111.5 E211.47436
G1 X156.711 Y111.5 E211.94328
G1 X156.643 Y111.432 E211.94463
G1 X156.185 Y111 E211.95346
G1 X123.82 Y111 E212.40753
G1 X124.165 Y110.679 E212.41414
G1 X124.389 Y110.5 E212.41816
G1 X155.606 Y110.5 E212.85612
G1 X155.21 Y110.17 E212.86336
G1 X154.972 Y110 E212.86746
G1 X125.019 Y110 E213.28769
G1 X125.745 Y109.5 E213.30005
G1 X154.26 Y109.5 E213.70011
G1 X153.441 Y109 E213.71357
G1 X126.575 Y109 E214.09048
G1 X126.829 Y108.851 E214.09462
G1 X127.542 Y108.5 E214.10577
G1 X152.473 Y108.5 E214.45554
G0 F2625 X152.471 Y108.499
G1 F1800 X151.484 Y108.08 E214.47058
G1 X151.25 Y108 E214.47405
G1 X128.732 Y108 E214.78997
G1 X128.769 Y107.985 E214.79053
G1 X129.8 Y107.654 E214.80572
G1 X130.432 Y107.5 E214.81484
G1 X149.585 Y107.5 E215.08355
G0 F2625 X152.471 Y108.499
G1 F1800 X152.473 Y108.5 E215.08358
G0 F2625 X157.18 Y112
G1 F1800 X122.813 Y112 E215.56574
G0 F2625 X122.377 Y112.5
G1 F1800 X157.628 Y112.5 E216.06029
G1 X157.522 Y112.368 E216.06267
G1 X157.18 Y112 E216.06971
G0 F2625 X158.029 Y113
G1 F1800 X158.174 Y113.182 E216.07298
G1 X158.393 Y113.5 E216.0784
G1 X121.604 Y113.5 E216.59453
G1 X121.35 Y113.855 E216.60065
G1 X121.262 Y114 E216.60303
G1 X158.738 Y114 E217.1288
G1 X158.795 Y114.084 E217.13023
G1 X159.039 Y114.5 E217.13699
G1 X120.957 Y114.5 E217.67127
G1 X120.779 Y114.79 E217.67604
G1 X120.672 Y115 E217.67935
G1 X159.332 Y115 E218.22173
G1 X159.35 Y115.032 E218.22224
G1 X159.581 Y115.5 E218.22957
G1 X120.415 Y115.5 E218.77905
G1 X120.296 Y115.73 E218.78268
G1 X120.182 Y116 E218.78679
G1 X159.825 Y116 E219.34297
G1 X160.026 Y116.5 E219.35053
G1 X119.969 Y116.5 E219.91251
G1 X119.878 Y116.714 E219.91577
G1 X119.781 Y117 E219.92001
G1 X160.225 Y117 E220.48742
G1 X160.386 Y117.5 E220.49479
G1 X119.611 Y117.5 E221.06684
G1 X119.519 Y117.768 E221.07082
G1 X119.459 Y118 E221.07418
G1 X160.547 Y118 E221.65062
G1 X160.547 Y118.003 E221.65067
G1 X160.669 Y118.5 E221.65785
G1 X119.328 Y118.5 E222.23784
G1 X119.251 Y118.792 E222.24208
G1 X119.213 Y119 E222.24504
G1 X160.791 Y119 E222.82836
G1 X160.8 Y119.04 E222.82894
G1 X160.877 Y119.5 E222.83548
G1 X119.121 Y119.5 E223.4213
G1 X119.056 Y119.852 E223.42632
G1 X119.04 Y120 E223.42841
G1 X160.96 Y120 E224.01653
G1 X160.98 Y120.126 E224.01832
G1 X161.015 Y120.5 E224.02359
G1 X118.985 Y120.5 E224.61325
G1 X118.938 Y120.918 E224.61915
G1 X118.936 Y121 E224.6203
G1 X161.06 Y121 E225.21128
G1 X161.076 Y121.176 E225.21376
G1 X161.085 Y121.5 E225.21831
G1 X118.917 Y121.5 E225.80991
G1 X118.899 Y121.989 E225.81677
G1 X118.899 Y122 E225.81693
G1 X161.099 Y122 E226.40897
G1 X161.099 Y122.012 E226.40914
G1 X161.099 Y122.5 E226.41599
G1 X118.899 Y122.5 E227.00804
G1 X118.899 Y123 E227.01505
G1 X161.099 Y123 E227.6071
G1 X161.099 Y123.5 E227.61411
G1 X118.899 Y123.5 E228.20616
G1 X118.899 Y124 E228.21317
G1 X161.099 Y124 E228.80522
G1 X161.099 Y124.5 E228.81223
G1 X118.899 Y124.5 E229.40428
G1 X118.899 Y125 E229.4113
G1 X161.099 Y125 E230.00334
G1 X161.099 Y125.5 E230.01036
G1 X118.899 Y125.5 E230.6024
G1 X118.899 Y126 E230.60942
G1 X161.099 Y126 E231.20146
G1 X161.099 Y126.5 E231.20848
G1 X118.899 Y126.5 E231.80053
G1 X118.899 Y127 E231.80754
G1 X161.099 Y127 E232.39959
G1 X161.099 Y127.5 E232.4066
G1 X118.899 Y127.5 E232.99865
G1 X118.899 Y128 E233.00566
G1 X161.099 Y128 E233.59771
G1 X161.099 Y128.5 E233.60472
G1 X118.899 Y128.5 E234.19677
G1 X118.899 Y129 E234.20379
G1 X161.099 Y129 E234.79583
G1 X161.099 Y129.5 E234.80285
G1 X118.899 Y129.5 E235.39489
G1 X118.899 Y130 E235.40191
G1 X161.099 Y130 E235.99396
G1 X161.099 Y130.5 E236.00097
G1 X118.899 Y130.5 E236.59302
G1 X118.899 Y131 E236.60003
G1 X161.099 Y131 E237.19208
G1 X161.099 Y131.5 E237.19909
G1 X118.899 Y131.5 E237.79114
