;Generated by Cura LulzBot Edition GCodeWriter Version: 2.6.69
;FLAVOR:RepRap
;TIME:2526
;Filament used: 0.72851m
;Layer height: 0.18
;Generated with Cura_SteamEngine 2.6.69
;This G-Code has been generated specifically for the LulzBot TAZ 6 with standard extruder
G26 ; clear potential 'probe fail' condition
G21 ; set units to Millimetres
M107 ; disable fans
G90 ; absolute positioning
M82 ; set extruder to absolute mode
G92 E0 ; set extruder position to 0
M140 S110 ; start bed heating up
G28 XY ; home X and Y
G1 X-19 Y258 F1000 ; move to safe homing position
M109 R175 ; soften filament before homing Z
G28 Z ; home Z
G1 E-30 F100 ; retract filament
M109 R170 ; wait for extruder to reach wiping temp
G1 X-15 Y100 F3000 ; move above wiper pad
G1 Z1 ; push nozzle into wiper
G1 X-17 Y95 F1000 ; slow wipe
G1 X-17 Y90 F1000 ; slow wipe
G1 X-17 Y85 F1000 ; slow wipe
G1 X-15 Y90 F1000 ; slow wipe
G1 X-17 Y80 F1000 ; slow wipe
G1 X-15 Y95 F1000 ; slow wipe
G1 X-17 Y75 F2000 ; fast wipe
G1 X-15 Y65 F2000 ; fast wipe
G1 X-17 Y70 F2000 ; fast wipe
G1 X-15 Y60 F2000 ; fast wipe
G1 X-17 Y55 F2000 ; fast wipe
G1 X-15 Y50 F2000 ; fast wipe
G1 X-17 Y40 F2000 ; fast wipe
G1 X-15 Y45 F2000 ; fast wipe
G1 X-17 Y35 F2000 ; fast wipe
G1 X-15 Y40 F2000 ; fast wipe
G1 X-17 Y70 F2000 ; fast wipe
G1 X-15 Y30 Z2 F2000 ; fast wipe
G1 X-17 Y35 F2000 ; fast wipe
G1 X-15 Y25 F2000 ; fast wipe
G1 X-17 Y30 F2000 ; fast wipe
G1 X-15 Y25 Z1.5 F1000 ; slow wipe
G1 X-17 Y23 F1000 ; slow wipe
G1 Z10 ; raise extruder
M109 R170 ; wait for extruder to reach probe temp
G1 X-9 Y-9 ; move above first probe point
M204 S100 ; set probing acceleration
G29 ; start auto-leveling sequence
M204 S500 ; restore standard acceleration
G1 X0 Y0 Z15 F5000 ; move up off last probe point
G4 S1 ; pause
M400 ; wait for moves to finish
M117 Heating... ; progress indicator message on LCD
M109 R240 ; wait for extruder to reach printing temp
M190 S110 ; wait for bed to reach printing temp
G1 Z2 E0 F75 ; prime tiny bit of filament into the nozzle
M117 TAZ 6 Printing... ; progress indicator message on LCD

M221 S100
;LAYER_COUNT:54
;LAYER:0
M107
G0 F2625 X117.534 Y118.521 Z0.424
;TYPE:SKIRT
G1 F900 X117.995 Y118.112 E0.02053
G1 X118.504 Y117.766 E0.04103
G1 X119.055 Y117.489 E0.06157
G1 X119.636 Y117.286 E0.08207
G1 X120.239 Y117.16 E0.10259
G1 X120.91 Y117.112 E0.125
G1 X145.091 Y117.113 E0.93048
G1 X145.706 Y117.153 E0.95101
G1 X146.31 Y117.272 E0.97151
G1 X146.894 Y117.469 E0.99205
G1 X147.448 Y117.739 E1.01257
G1 X147.962 Y118.079 E1.0331
G1 X148.428 Y118.482 E1.05362
G1 X148.837 Y118.943 E1.07415
G1 X149.184 Y119.452 E1.09467
G1 X149.461 Y120.002 E1.11519
G1 X149.665 Y120.583 E1.1357
G1 X149.793 Y121.186 E1.15623
G1 X149.841 Y121.86 E1.17874
G1 X149.85 Y135.09 E1.61944
G1 X150.048 Y141.754 E1.84151
G1 X150.05 Y141.898 E1.84631
G1 X150.04 Y158.078 E2.38527
G1 X150 Y158.693 E2.4058
G1 X149.88 Y159.297 E2.42631
G1 X149.683 Y159.881 E2.44684
G1 X149.413 Y160.434 E2.46734
G1 X149.072 Y160.948 E2.48789
G1 X148.681 Y161.401 E2.50782
G1 X148.424 Y161.663 E2.52005
G1 X147.965 Y162.074 E2.54057
G1 X147.457 Y162.422 E2.56108
G1 X146.907 Y162.702 E2.58164
G1 X146.327 Y162.907 E2.60213
G1 X145.724 Y163.036 E2.62267
G1 X145.033 Y163.087 E2.64575
G1 X120.969 Y163.087 E3.44733
G1 X120.354 Y163.047 E3.46786
G1 X119.75 Y162.928 E3.48837
G1 X119.166 Y162.731 E3.5089
G1 X118.612 Y162.461 E3.52943
G1 X118.098 Y162.121 E3.54996
G1 X117.754 Y161.833 E3.5649
G1 X117.667 Y161.753 E3.56884
G1 X117.494 Y161.586 E3.57685
G1 X117.324 Y161.413 E3.58493
G1 X116.922 Y160.947 E3.60543
G1 X116.583 Y160.432 E3.62597
G1 X116.314 Y159.878 E3.64648
G1 X116.119 Y159.293 E3.66702
G1 X116.001 Y158.689 E3.68752
G1 X115.962 Y158.088 E3.70758
G1 X115.95 Y142.044 E4.24201
G1 X115.953 Y141.876 E4.24761
G1 X116.14 Y136.458 E4.42819
G1 X116.16 Y121.856 E4.91459
G1 X116.201 Y121.241 E4.93512
G1 X116.321 Y120.636 E4.95567
G1 X116.518 Y120.053 E4.97617
G1 X116.789 Y119.5 E4.99668
G1 X117.13 Y118.986 E5.01723
G1 X117.534 Y118.521 E5.03775
G0 F2625 X118.025 Y118.741
G1 F900 X118.479 Y118.376 E5.05715
G1 X118.979 Y118.076 E5.07657
G1 X119.515 Y117.847 E5.09599
G1 X120.077 Y117.694 E5.11539
G1 X120.91 Y117.612 E5.14327
G1 X145.091 Y117.613 E5.94875
G1 X145.673 Y117.653 E5.96818
G1 X146.243 Y117.772 E5.98758
G1 X146.792 Y117.968 E6.007
G1 X147.309 Y118.237 E6.02641
G1 X147.784 Y118.575 E6.04583
G1 X148.208 Y118.974 E6.06522
G1 X148.574 Y119.428 E6.08465
G1 X148.874 Y119.927 E6.10404
G1 X149.104 Y120.463 E6.12347
G1 X149.258 Y121.025 E6.14288
G1 X149.341 Y121.86 E6.17083
G1 X149.35 Y135.105 E6.61203
G1 X149.548 Y141.769 E6.83411
G1 X149.55 Y141.898 E6.83841
G1 X149.54 Y158.078 E7.37737
G1 X149.5 Y158.659 E7.39677
G1 X149.38 Y159.229 E7.41617
G1 X149.184 Y159.778 E7.43559
G1 X148.914 Y160.295 E7.45502
G1 X148.577 Y160.77 E7.47442
G1 X148.324 Y161.051 E7.48701
G1 X148.067 Y161.313 E7.49924
G1 X147.631 Y161.7 E7.51866
G1 X147.147 Y162.024 E7.53806
G1 X146.623 Y162.279 E7.55747
G1 X146.069 Y162.459 E7.57687
G1 X145.495 Y162.562 E7.5963
G1 X145.033 Y162.587 E7.61171
G1 X120.969 Y162.587 E8.41329
G1 X120.388 Y162.547 E8.43269
G1 X119.817 Y162.428 E8.45212
G1 X119.268 Y162.232 E8.47154
G1 X118.752 Y161.963 E8.49092
G1 X118.092 Y161.465 E8.51846
G1 X118.005 Y161.385 E8.5224
G1 X117.851 Y161.236 E8.52953
G1 X117.681 Y161.063 E8.53761
G1 X117.302 Y160.62 E8.55703
G1 X116.987 Y160.13 E8.57644
G1 X116.742 Y159.601 E8.59586
G1 X116.572 Y159.044 E8.61526
G1 X116.479 Y158.468 E8.63469
G1 X116.462 Y158.087 E8.6474
G1 X116.45 Y142.043 E9.18183
G1 X116.453 Y141.893 E9.18682
G1 X116.64 Y136.476 E9.36737
G1 X116.66 Y121.856 E9.85437
G1 X116.701 Y121.275 E9.87377
G1 X116.821 Y120.705 E9.89318
G1 X117.017 Y120.156 E9.91259
G1 X117.287 Y119.64 E9.93199
G1 X117.625 Y119.165 E9.95141
G1 X118.025 Y118.741 E9.97083
G0 F2625 X118.515 Y118.977
G1 F900 X118.96 Y118.659 E9.98905
G1 X119.447 Y118.409 E10.00728
G1 X119.966 Y118.233 E10.02554
G1 X120.504 Y118.134 E10.04376
G1 X120.91 Y118.112 E10.0573
G1 X145.091 Y118.113 E10.86278
G1 X145.637 Y118.153 E10.88102
G1 X146.171 Y118.272 E10.89924
G1 X146.683 Y118.467 E10.91749
G1 X147.16 Y118.735 E10.93572
G1 X147.593 Y119.07 E10.95395
G1 X147.973 Y119.464 E10.97219
G1 X148.292 Y119.909 E10.99043
G1 X148.542 Y120.396 E11.00866
G1 X148.719 Y120.914 E11.02689
G1 X148.818 Y121.452 E11.04512
G1 X148.841 Y121.86 E11.05873
G1 X148.85 Y135.12 E11.50042
G1 X149.048 Y141.784 E11.7225
G1 X149.05 Y141.897 E11.72627
G1 X149.04 Y158.077 E12.26523
G1 X149 Y158.623 E12.28346
G1 X148.88 Y159.157 E12.3017
G1 X148.685 Y159.669 E12.31995
G1 X148.416 Y160.146 E12.33819
G1 X147.967 Y160.701 E12.36197
G1 X147.71 Y160.963 E12.37419
G1 X147.299 Y161.325 E12.39244
G1 X146.84 Y161.623 E12.41067
G1 X146.343 Y161.851 E12.42888
G1 X145.817 Y162.004 E12.44713
G1 X145.033 Y162.087 E12.47339
G1 X120.969 Y162.087 E13.27497
G1 X120.423 Y162.047 E13.2932
G1 X119.889 Y161.928 E13.31143
G1 X119.378 Y161.733 E13.32965
G1 X118.9 Y161.465 E13.3479
G1 X118.431 Y161.097 E13.36776
G1 X118.344 Y161.017 E13.3717
G1 X118.207 Y160.885 E13.37803
G1 X118.037 Y160.712 E13.38611
G1 X117.683 Y160.295 E13.40433
G1 X117.394 Y159.831 E13.42254
G1 X117.175 Y159.329 E13.44079
G1 X117.031 Y158.801 E13.45902
G1 X116.962 Y158.087 E13.48291
G1 X116.95 Y142.043 E14.01734
G1 X116.952 Y141.911 E14.02174
G1 X117.14 Y136.464 E14.20329
G1 X117.16 Y121.857 E14.68985
G1 X117.201 Y121.311 E14.70809
G1 X117.32 Y120.777 E14.72632
G1 X117.517 Y120.266 E14.74456
G1 X117.785 Y119.789 E14.76279
G1 X118.12 Y119.356 E14.78102
G1 X118.515 Y118.977 E14.79926
G0 F2625 X119.001 Y119.232
G1 F900 X119.436 Y118.966 E14.81624
G1 X119.906 Y118.771 E14.83319
G1 X120.402 Y118.652 E14.85018
G1 X120.91 Y118.612 E14.86715
G1 X145.091 Y118.613 E15.67263
G1 X145.599 Y118.653 E15.68961
G1 X146.095 Y118.772 E15.7066
G1 X146.565 Y118.967 E15.72355
G1 X147 Y119.233 E15.74053
G1 X147.388 Y119.563 E15.7575
G1 X147.719 Y119.95 E15.77446
G1 X147.985 Y120.385 E15.79145
G1 X148.181 Y120.855 E15.80841
G1 X148.3 Y121.35 E15.82537
G1 X148.341 Y121.861 E15.84244
G1 X148.35 Y135.1 E16.28344
G1 X148.549 Y141.798 E16.50665
G1 X148.55 Y141.897 E16.50995
G1 X148.54 Y158.077 E17.04891
G1 X148.5 Y158.585 E17.06588
G1 X148.381 Y159.08 E17.08284
G1 X148.186 Y159.551 E17.09982
G1 X147.919 Y159.985 E17.1168
G1 X147.61 Y160.351 E17.13275
G1 X147.353 Y160.613 E17.14498
G1 X146.969 Y160.947 E17.16193
G1 X146.537 Y161.218 E17.17892
G1 X146.068 Y161.418 E17.1959
G1 X145.574 Y161.542 E17.21287
G1 X145.033 Y161.587 E17.23095
G1 X120.969 Y161.587 E18.03253
G1 X120.461 Y161.547 E18.0495
G1 X119.966 Y161.428 E18.06646
G1 X119.495 Y161.233 E18.08344
G1 X119.06 Y160.967 E18.10043
G1 X118.769 Y160.729 E18.11295
G1 X118.682 Y160.649 E18.11689
G1 X118.564 Y160.535 E18.12235
G1 X118.394 Y160.362 E18.13043
G1 X118.066 Y159.972 E18.14741
G1 X117.804 Y159.535 E18.16438
G1 X117.613 Y159.063 E18.18134
G1 X117.498 Y158.566 E18.19833
G1 X117.462 Y158.086 E18.21437
G1 X117.45 Y142.042 E18.7488
G1 X117.452 Y141.928 E18.7526
G1 X117.64 Y136.482 E18.93411
G1 X117.66 Y121.858 E19.42124
G1 X117.701 Y121.35 E19.43822
G1 X117.82 Y120.854 E19.45521
G1 X118.016 Y120.384 E19.47217
G1 X118.282 Y119.95 E19.48913
G1 X118.613 Y119.562 E19.50612
G1 X119.001 Y119.232 E19.52309
G1 F600 E18.52309
G0 F2625 X120.239 Y138.858
G0 X120.772 Y139.391
G0 X122.828 Y140.821
;TYPE:SUPPORT
G1 F600 E19.52309
G1 F900 X122.828 Y140.48 E19.53444
G1 X124.969 Y140.48 E19.60576
G1 X124.969 Y140.821 E19.61712
G1 X125.468 Y141.32 E19.64063
G1 X130.933 Y141.32 E19.82267
G1 X131.05 Y141.437 E19.82818
G1 X131.05 Y157.98 E20.37923
G1 X130.933 Y158.097 E20.38474
G1 X121.067 Y158.097 E20.71338
G1 X120.95 Y157.98 E20.7189
G1 X120.95 Y141.437 E21.26995
G1 X121.067 Y141.32 E21.27546
G1 X122.329 Y141.32 E21.3175
G1 X122.828 Y140.821 E21.34101
G0 F2625 X123.284 Y140.73
G1 F900 X123.284 Y157.847 E21.91118
G0 F2625 X124.95 Y157.847
G1 F900 X124.95 Y141.155 E22.4672
G0 F2625 X126.616 Y141.57
G1 F900 X126.616 Y157.847 E23.00939
G0 F2625 X128.282 Y157.847
G1 F900 X128.282 Y141.57 E23.55158
G0 F2625 X129.948 Y141.57
G1 F900 X129.948 Y157.847 E24.09377
G0 F2625 X130.799 Y156.604
G1 F900 X121.199 Y156.604 E24.41355
G0 F2625 X121.618 Y157.847
G1 F900 X121.618 Y141.57 E24.95575
G0 F2625 X121.199 Y141.61
G1 F900 X130.799 Y141.61 E25.27553
G0 F2625 X130.799 Y143.276
G1 F900 X121.199 Y143.276 E25.59531
G0 F2625 X121.199 Y144.942
G1 F900 X130.799 Y144.942 E25.91508
G0 F2625 X130.799 Y146.608
G1 F900 X121.199 Y146.608 E26.23486
G0 F2625 X121.199 Y148.274
G1 F900 X130.799 Y148.274 E26.55464
G0 F2625 X130.799 Y149.94
G1 F900 X121.199 Y149.94 E26.87442
G0 F2625 X121.199 Y151.606
G1 F900 X130.799 Y151.606 E27.1942
G0 F2625 X130.799 Y153.272
G1 F900 X121.199 Y153.272 E27.51398
G0 F2625 X121.199 Y154.938
G1 F900 X130.799 Y154.938 E27.83376
G0 F2625 X134.95 Y157.98
G1 F900 X134.95 Y141.437 E28.38481
G1 X135.067 Y141.32 E28.39033
G1 X140.532 Y141.32 E28.57237
G1 X141.031 Y140.821 E28.59587
G1 X141.031 Y140.48 E28.60723
G1 X143.172 Y140.48 E28.67855
G1 X143.172 Y140.821 E28.68991
G1 X143.671 Y141.32 E28.71342
G1 X144.933 Y141.32 E28.75545
G1 X145.05 Y141.437 E28.76097
G1 X145.05 Y157.98 E29.31202
G1 X144.933 Y158.097 E29.31753
G1 X135.067 Y158.097 E29.64617
G1 X134.95 Y157.98 E29.65168
G0 F2625 X135.2 Y156.604
G1 F900 X144.8 Y156.604 E29.97146
G0 F2625 X144.8 Y154.938
G1 F900 X135.2 Y154.938 E30.29124
G0 F2625 X135.2 Y153.272
G1 F900 X144.8 Y153.272 E30.61102
G0 F2625 X144.8 Y151.606
G1 F900 X135.2 Y151.606 E30.9308
G0 F2625 X135.2 Y149.94
G1 F900 X144.8 Y149.94 E31.25058
G0 F2625 X144.8 Y148.274
G1 F900 X135.2 Y148.274 E31.57036
G0 F2625 X135.2 Y146.608
G1 F900 X144.8 Y146.608 E31.89014
G0 F2625 X144.8 Y144.942
G1 F900 X135.2 Y144.942 E32.20992
G0 F2625 X135.2 Y143.276
G1 F900 X144.8 Y143.276 E32.5297
G0 F2625 X144.8 Y141.61
G1 F900 X135.2 Y141.61 E32.84948
G0 F2625 X136.612 Y141.57
G1 F900 X136.612 Y157.847 E33.39167
G0 F2625 X138.278 Y157.847
G1 F900 X138.278 Y141.57 E33.93386
G0 F2625 X139.944 Y141.57
G1 F900 X139.944 Y157.847 E34.47606
G0 F2625 X141.61 Y157.847
G1 F900 X141.61 Y140.73 E35.04623
G0 F2625 X143.276 Y141.278
G1 F900 X143.276 Y157.847 E35.59815
G1 F600 E34.59815
G0 F2625 X130.336 Y139.395
G0 X130.336 Y137.966
G0 X130.28 Y137.91
G0 X130.35 Y137.98
;TYPE:WALL-INNER
G1 F600 E35.59815
G1 F900 X121.65 Y137.98 E35.88795
G1 X121.65 Y122.603 E36.40016
G1 X130.35 Y122.603 E36.68996
G1 X130.35 Y127.658 E36.85835
G1 X130.35 Y127.81 E36.86341
G1 X130.35 Y128.163 E36.87517
G1 X130.35 Y128.537 E36.88763
G1 X130.35 Y128.921 E36.90042
G1 X130.35 Y129.299 E36.91301
G1 X130.35 Y129.664 E36.92517
G1 X130.35 Y130.011 E36.93672
G1 X130.35 Y137.98 E37.20218
G0 F2625 X130.28 Y137.91
G0 X128.707 Y131.042
G0 X128.674 Y130.948
G1 F900 X129.024 Y130.791 E37.21495
G1 X129.341 Y130.576 E37.22771
G1 X129.616 Y130.313 E37.24039
G1 X129.843 Y130.005 E37.25313
G1 X129.859 Y129.973 E37.25432
G1 X130.016 Y129.664 E37.26296
G1 X130.126 Y129.299 E37.26363
G1 X130.176 Y128.921
G1 X130.16 Y128.537
G1 X130.079 Y128.163
G1 X129.936 Y127.81 E37.27163
G1 X129.857 Y127.681 E37.27626
G1 X129.737 Y127.485 E37.28391
G1 X129.485 Y127.198 E37.29663
G1 X129.187 Y126.957 E37.3094
G1 X128.853 Y126.771 E37.32213
G1 X128.492 Y126.643 E37.33489
G1 X128.115 Y126.579 E37.34763
G1 X127.735 Y126.579 E37.36029
G1 X127.358 Y126.643 E37.37303
G1 X126.997 Y126.771 E37.38579
G1 X126.663 Y126.957 E37.39852
G1 X126.365 Y127.198 E37.41129
G1 X126.113 Y127.485 E37.42401
G1 X125.914 Y127.81 E37.4367
G1 X125.771 Y128.163 E37.44939
G1 X125.69 Y128.537 E37.46214
G1 X125.674 Y128.921 E37.47494
G1 X125.724 Y129.299 E37.48764
G1 X125.834 Y129.664 E37.50034
G1 X126.007 Y130.005 E37.51307
G1 X126.234 Y130.313 E37.52582
G1 X126.509 Y130.576 E37.53849
G1 X126.826 Y130.791 E37.55125
G1 X127.176 Y130.948 E37.56403
G1 X127.543 Y131.043 E37.57666
G1 X127.925 Y131.077 E37.58943
G1 X128.307 Y131.043 E37.60221
G1 X128.674 Y130.948 E37.61484
G0 F2625 X128.508 Y130.475
;TYPE:WALL-OUTER
G1 F900 X128.779 Y130.353 E37.62474
G1 X129.025 Y130.186 E37.63464
G1 X129.239 Y129.981 E37.64451
G1 X129.416 Y129.742 E37.65442
G1 X129.55 Y129.477 E37.66431
G1 X129.636 Y129.193 E37.67419
G1 X129.675 Y128.899 E37.68407
G1 X129.662 Y128.601 E37.69401
G1 X129.599 Y128.311 E37.7039
G1 X129.488 Y128.036 E37.71377
G1 X129.333 Y127.783 E37.72366
G1 X129.137 Y127.56 E37.73355
G1 X128.906 Y127.373 E37.74345
G1 X128.646 Y127.228 E37.75336
G1 X128.366 Y127.129 E37.76326
G1 X128.073 Y127.079 E37.77316
G1 X127.777 Y127.079 E37.78302
G1 X127.484 Y127.129 E37.79292
G1 X127.204 Y127.228 E37.80281
G1 X126.944 Y127.373 E37.81273
G1 X126.713 Y127.56 E37.82263
G1 X126.517 Y127.783 E37.83252
G1 X126.362 Y128.036 E37.8424
G1 X126.251 Y128.311 E37.85228
G1 X126.188 Y128.601 E37.86216
G1 X126.175 Y128.899 E37.8721
G1 X126.214 Y129.193 E37.88198
G1 X126.3 Y129.477 E37.89186
G1 X126.434 Y129.742 E37.90175
G1 X126.611 Y129.981 E37.91166
G1 X126.825 Y130.186 E37.92153
G1 X127.071 Y130.353 E37.93144
G1 X127.342 Y130.475 E37.94134
G1 X127.628 Y130.549 E37.95118
G1 X127.925 Y130.575 E37.96111
G1 X128.222 Y130.549 E37.97104
G1 X128.508 Y130.475 E37.98088
G0 F2625 X128.736 Y130.373
G0 X128.98 Y130.92
G0 X130.28 Y137.91
G0 X130.85 Y138.48
G1 F900 X121.15 Y138.48 E38.30399
G1 X121.15 Y122.103 E38.84951
G1 X130.85 Y122.103 E39.17262
G1 X130.85 Y138.48 E39.71815
G0 F2625 X130.6 Y138.48
G0 X129.976 Y137.754
;TYPE:SKIN
G1 F900 X121.875 Y129.653 E40.09977
G1 X121.787 Y129.565
G0 F2625 X121.875 Y128.946
G1 F900 X130.124 Y137.195 E40.48836
G1 X130.212 Y137.283
G0 F2625 X130.124 Y136.488
G1 F900 X121.875 Y128.239 E40.87696
G1 X121.787 Y128.151
G0 F2625 X121.875 Y127.532
G1 F900 X130.124 Y135.781 E41.26555
G1 X130.212 Y135.869
G0 F2625 X130.124 Y135.074
G1 F900 X121.875 Y126.825 E41.65414
G1 X121.787 Y126.737
G0 F2625 X121.875 Y126.118
G1 F900 X125.746 Y129.989 E41.8365
G1 X125.834 Y130.077
G0 F2625 X125.456 Y128.991
G1 F900 X121.875 Y125.411 E42.00517
G1 X121.787 Y125.323
G0 F2625 X121.875 Y124.703
G1 F900 X125.504 Y128.332 E42.17612
G1 X125.592 Y128.42
G0 F2625 X125.676 Y127.797
G1 F900 X121.875 Y123.996 E42.35518
G1 X121.787 Y123.908
