;Generated by Cura LulzBot Edition GCodeWriter Version: 2.6.69
;FLAVOR:RepRap
;TIME:2980
;Filament used: 1.11195m
;Layer height: 0.18
;Generated with Cura_SteamEngine 2.6.69
;This G-Code has been generated specifically for the LulzBot TAZ 6 with standard extruder
G26 ; clear potential 'probe fail' condition
G21 ; set units to Millimetres
M107 ; disable fans
G90 ; absolute positioning
M82 ; set extruder to absolute mode
G92 E0 ; set extruder position to 0
M140 S110 ; start bed heating up
G28 XY ; home X and Y
G1 X-19 Y258 F1000 ; move to safe homing position
M109 R175 ; soften filament before homing Z
G28 Z ; home Z
G1 E-30 F100 ; retract filament
M109 R170 ; wait for extruder to reach wiping temp
G1 X-15 Y100 F3000 ; move above wiper pad
G1 Z1 ; push nozzle into wiper
G1 X-17 Y95 F1000 ; slow wipe
G1 X-17 Y90 F1000 ; slow wipe
G1 X-17 Y85 F1000 ; slow wipe
G1 X-15 Y90 F1000 ; slow wipe
G1 X-17 Y80 F1000 ; slow wipe
G1 X-15 Y95 F1000 ; slow wipe
G1 X-17 Y75 F2000 ; fast wipe
G1 X-15 Y65 F2000 ; fast wipe
G1 X-17 Y70 F2000 ; fast wipe
G1 X-15 Y60 F2000 ; fast wipe
G1 X-17 Y55 F2000 ; fast wipe
G1 X-15 Y50 F2000 ; fast wipe
G1 X-17 Y40 F2000 ; fast wipe
G1 X-15 Y45 F2000 ; fast wipe
G1 X-17 Y35 F2000 ; fast wipe
G1 X-15 Y40 F2000 ; fast wipe
G1 X-17 Y70 F2000 ; fast wipe
G1 X-15 Y30 Z2 F2000 ; fast wipe
G1 X-17 Y35 F2000 ; fast wipe
G1 X-15 Y25 F2000 ; fast wipe
G1 X-17 Y30 F2000 ; fast wipe
G1 X-15 Y25 Z1.5 F1000 ; slow wipe
G1 X-17 Y23 F1000 ; slow wipe
G1 Z10 ; raise extruder
M109 R170 ; wait for extruder to reach probe temp
G1 X-9 Y-9 ; move above first probe point
M204 S100 ; set probing acceleration
G29 ; start auto-leveling sequence
M204 S500 ; restore standard acceleration
G1 X0 Y0 Z15 F5000 ; move up off last probe point
G4 S1 ; pause
M400 ; wait for moves to finish
M117 Heating... ; progress indicator message on LCD
M109 R240 ; wait for extruder to reach printing temp
M190 S110 ; wait for bed to reach printing temp
G1 Z2 E0 F75 ; prime tiny bit of filament into the nozzle
M117 TAZ 6 Printing... ; progress indicator message on LCD

M221 S100
;LAYER_COUNT:50
;LAYER:-6
M107
G0 F2625 X110.78 Y111.613 Z0.51
G1 F1350 X110.779 Y111.612 E0.00011
G1 X111.58 Y110.868 E0.08751
G1 X112.382 Y110.227 E0.16959
G1 X113.265 Y109.619 E0.2553
G1 X114.183 Y109.081 E0.34036
G1 X115.131 Y108.614 E0.42484
G1 X116.111 Y108.219 E0.50932
G1 X117.116 Y107.896 E0.59371
G1 X118.152 Y107.644 E0.67895
G1 X119.193 Y107.472 E0.7633
G1 X120.244 Y107.376 E0.84767
G1 X121.074 Y107.353 E0.91405
G1 X130.945 Y107.353 E1.70318
G1 X132.01 Y107.391 E1.78838
G1 X133.019 Y107.503 E1.86954
G1 X133.192 Y107.473 E1.88358
G1 X134.247 Y107.376 E1.96827
G1 X135.074 Y107.353 E2.03441
G1 X144.945 Y107.353 E2.82355
G1 X146.01 Y107.391 E2.90874
G1 X147.068 Y107.509 E2.99385
G1 X148.105 Y107.7 E3.07815
G1 X149.131 Y107.968 E3.16292
G1 X150.141 Y108.312 E3.24822
G1 X151.103 Y108.721 E3.33179
G1 X152.031 Y109.197 E3.41517
G1 X152.959 Y109.764 E3.50211
G1 X153.82 Y110.379 E3.5867
G1 X154.618 Y111.045 E3.66979
G1 X155.217 Y111.61 E3.73562
G1 X155.34 Y111.733 E3.74953
G1 X155.341 Y111.732 E3.74964
G1 X156.085 Y112.533 E3.83704
G1 X156.726 Y113.335 E3.91912
G1 X157.334 Y114.218 E4.00483
G1 X157.872 Y115.136 E4.08989
G1 X158.339 Y116.084 E4.17437
G1 X158.734 Y117.064 E4.25884
G1 X159.057 Y118.069 E4.34324
G1 X159.309 Y119.105 E4.42847
G1 X159.481 Y120.146 E4.51283
G1 X159.577 Y121.197 E4.5972
G1 X159.6 Y122.013 E4.66246
G1 X159.6 Y138.582 E5.98707
G1 X159.588 Y138.9 E6.01251
G1 X159.685 Y139.496 E6.06078
G1 X159.779 Y140.541 E6.14466
G1 X159.8 Y141.332 E6.20792
G1 X159.795 Y158.067 E7.5458
G1 X159.757 Y159.125 E7.63043
G1 X159.64 Y160.177 E7.71505
G1 X159.447 Y161.217 E7.79961
G1 X159.179 Y162.242 E7.88431
G1 X158.835 Y163.253 E7.96969
G1 X158.425 Y164.215 E8.05329
G1 X157.942 Y165.155 E8.13778
G1 X157.386 Y166.065 E8.22303
G1 X156.764 Y166.934 E8.30846
G1 X156.092 Y167.741 E8.39242
G1 X155.539 Y168.327 E8.45683
G1 X155.538 Y168.326 E8.45695
G1 X155.277 Y168.587 E8.48645
G1 X155.278 Y168.588 E8.48657
G1 X154.477 Y169.332 E8.57397
G1 X153.675 Y169.973 E8.65604
G1 X152.792 Y170.581 E8.74175
G1 X151.874 Y171.119 E8.82682
G1 X150.926 Y171.586 E8.9113
G1 X149.946 Y171.981 E8.99577
G1 X148.941 Y172.304 E9.08016
G1 X147.905 Y172.556 E9.1654
G1 X146.864 Y172.728 E9.24975
G1 X145.813 Y172.824 E9.33412
G1 X144.983 Y172.847 E9.4005
G1 X134.972 Y172.847 E10.20083
G1 X133.905 Y172.809 E10.28619
G1 X133.046 Y172.713 E10.35529
G1 X131.836 Y172.824 E10.45243
G1 X131.009 Y172.847 E10.51857
G1 X120.998 Y172.847 E11.31889
G1 X119.933 Y172.809 E11.40409
G1 X118.875 Y172.691 E11.4892
G1 X117.838 Y172.5 E11.57349
G1 X116.812 Y172.232 E11.65827
G1 X115.802 Y171.888 E11.74357
G1 X114.84 Y171.479 E11.82714
G1 X113.909 Y171.001 E11.9108
G1 X112.984 Y170.436 E11.99745
G1 X112.123 Y169.821 E12.08204
G1 X111.325 Y169.155 E12.16514
G1 X110.726 Y168.59 E12.23097
G1 X110.462 Y168.326 E12.26081
G1 X110.461 Y168.327 E12.26093
G1 X109.72 Y167.529 E12.34799
G1 X109.079 Y166.727 E12.43006
G1 X108.471 Y165.844 E12.51577
G1 X107.933 Y164.926 E12.60084
G1 X107.466 Y163.978 E12.68532
G1 X107.071 Y162.998 E12.76979
G1 X106.748 Y161.993 E12.85418
G1 X106.496 Y160.957 E12.93942
G1 X106.324 Y159.916 E13.02377
G1 X106.228 Y158.865 E13.10814
G1 X106.205 Y158.053 E13.17308
G1 X106.2 Y141.32 E14.5108
G1 X106.24 Y140.258 E14.59576
G1 X106.353 Y139.211 E14.67995
G1 X106.408 Y138.915 E14.70402
G1 X106.4 Y138.573 E14.73137
G1 X106.4 Y121.999 E16.05638
G1 X106.438 Y120.943 E16.14085
G1 X106.556 Y119.885 E16.22596
G1 X106.747 Y118.848 E16.31026
G1 X107.015 Y117.822 E16.39503
G1 X107.359 Y116.812 E16.48033
G1 X107.768 Y115.85 E16.5639
G1 X108.246 Y114.919 E16.64756
G1 X108.811 Y113.994 E16.73422
G1 X109.426 Y113.133 E16.81881
G1 X110.092 Y112.335 E16.9019
G1 X110.657 Y111.736 E16.96773
G1 X110.78 Y111.613 E16.98164
G0 F2625 X110 Y112.445
G1 F1350 X110 Y167.83 E21.40938
G0 F2625 X112 Y169.718
G1 F1350 X112 Y110.532 E26.141
G0 F2625 X114 Y109.188
G1 F1350 X114 Y171.047 E31.08631
G0 F2625 X116 Y171.955
G1 F1350 X116 Y108.263 E36.17816
G0 F2625 X118 Y107.68
G1 F1350 X118 Y172.529 E41.3625
G0 F2625 X120 Y172.811
G1 F1350 X120 Y107.398 E46.59193
G0 F2625 X122 Y107.353
G1 F1350 X122 Y172.847 E51.82784
G0 F2625 X124 Y172.847
G1 F1350 X124 Y107.353 E57.06375
G0 F2625 X126 Y107.353
G1 F1350 X126 Y172.847 E62.29966
G0 F2625 X128 Y172.847
G1 F1350 X128 Y107.353 E67.53557
G0 F2625 X130 Y107.353
G1 F1350 X130 Y172.847 E72.77148
G0 F2625 X132 Y172.809
G1 F1350 X132 Y107.391 E78.00131
G0 F2625 X134 Y107.398
G1 F1350 X134 Y172.812 E83.23083
G0 F2625 X136 Y172.847
G1 F1350 X136 Y107.353 E88.46673
G0 F2625 X138 Y107.353
G1 F1350 X138 Y172.847 E93.70264
G0 F2625 X140 Y172.847
G1 F1350 X140 Y107.353 E98.93855
G0 F2625 X142 Y107.353
G1 F1350 X142 Y172.847 E104.17446
G0 F2625 X144 Y172.847
G1 F1350 X144 Y107.353 E109.41037
G0 F2625 X146 Y107.391
G1 F1350 X146 Y172.807 E114.64004
G0 F2625 X148 Y172.533
G1 F1350 X148 Y107.681 E119.82463
G0 F2625 X150 Y108.264
G1 F1350 X150 Y171.96 E124.9168
G0 F2625 X152 Y171.046
G1 F1350 X152 Y109.182 E129.86251
G0 F2625 X154 Y110.53
G1 F1350 X154 Y169.714 E134.59396
G0 F2625 X156 Y167.839
G1 F1350 X156 Y112.442 E139.02267
G0 F2625 X158 Y115.396
G1 F1350 X158 Y165.043 E142.99169
G0 F2625 X108 Y165.04
M104 S240
G1 F1350 X108 Y115.398 E146.96031
G0 F2625 X110.356 Y112.052
;TIME_ELAPSED:89.137850
;LAYER:-5
M140 S110
M221 S100
G0 X110.356 Y112.052 Z0.78
;TYPE:SUPPORT
G1 F1350 X110.091 Y112.334 E146.97669
G1 X109.568 Y112.959 E147.01118
G1 X159.095 Y162.486 E149.97561
G1 X158.835 Y163.251 E150.00981
G1 X158.635 Y163.722 E150.03147
G1 X108.849 Y113.936 E153.0114
G1 X108.811 Y113.992 E153.01426
G1 X108.246 Y114.918 E153.06018
G1 X108.208 Y114.991 E153.06366
G1 X158.088 Y164.871 E156.04922
G1 X157.942 Y165.154 E156.0627
G1 X157.462 Y165.94 E156.10167
G1 X107.649 Y116.127 E159.08322
G1 X107.358 Y116.811 E159.11468
G1 X107.175 Y117.349 E159.13873
G1 X156.762 Y166.936 E162.10676
G1 X156.091 Y167.74 E162.15108
G1 X155.984 Y167.854 E162.1577
G1 X106.794 Y118.663 E165.10198
G1 X106.746 Y118.846 E165.10999
G1 X106.555 Y119.884 E165.15466
G1 X106.531 Y120.096 E165.16369
G1 X155.144 Y168.71 E168.07344
G1 X154.476 Y169.331 E168.11205
G1 X154.25 Y169.511 E168.12427
G1 X106.411 Y121.671 E170.9877
G1 X106.399 Y121.998 E171.00155
G1 X106.399 Y123.356 E171.05902
G1 X153.284 Y170.24 E173.86529
G1 X152.792 Y170.58 E173.8906
G1 X152.247 Y170.899 E173.91733
G1 X106.399 Y125.051 E176.66155
G1 X106.399 Y126.747 E176.73333
G1 X151.134 Y171.481 E179.41091
G1 X150.926 Y171.585 E179.42075
G1 X149.945 Y171.98 E179.46551
G0 F2625 X149.938 Y171.981
G1 F1350 X106.399 Y128.443 E182.0715
G1 X106.399 Y130.138 E182.14324
G1 X148.638 Y172.377 E184.67144
G1 X147.905 Y172.555 E184.70337
G1 X147.231 Y172.666 E184.73228
G1 X106.399 Y131.834 E187.17627
G1 X106.399 Y133.53 E187.24805
G1 X145.695 Y172.826 E189.60011
G1 X144.983 Y172.845 E189.63025
G1 X144.019 Y172.845 E189.67105
G1 X106.399 Y135.225 E191.92279
G1 X106.399 Y136.921 E191.99457
G1 X142.324 Y172.845 E194.14483
G1 X140.628 Y172.845 E194.21661
G1 X106.401 Y138.618 E196.26526
G1 X106.408 Y138.913 E196.27775
G1 X106.352 Y139.21 E196.29054
G1 X106.249 Y140.162 E196.33107
G1 X138.933 Y172.845 E198.28733
G1 X137.237 Y172.845 E198.35911
G1 X106.2 Y141.808 E200.21683
G1 X106.2 Y143.504 E200.28861
G1 X135.541 Y172.845 E202.04481
G1 X134.971 Y172.845 E202.06893
G1 X133.904 Y172.808 E202.11412
G1 X133.795 Y172.795 E202.11877
G1 X106.201 Y145.2 E203.77043
G1 X106.201 Y146.897 E203.84225
G1 X132.103 Y172.798 E205.39258
G1 X131.836 Y172.823 E205.40393
G1 X131.009 Y172.845 E205.43895
G1 X130.454 Y172.845 E205.46244
G1 X106.201 Y148.592 E206.9141
G1 X106.202 Y150.289 E206.98592
G1 X128.759 Y172.845 E208.33603
G1 X127.063 Y172.845 E208.40782
G1 X106.202 Y151.984 E209.65645
G1 X106.203 Y153.681 E209.72827
G1 X125.367 Y172.845 E210.87533
G1 X123.672 Y172.845 E210.94707
G1 X106.203 Y155.377 E211.99264
G1 X106.203 Y157.073 E212.06442
G1 X121.976 Y172.845 E213.00848
G1 X120.997 Y172.845 E213.04992
G1 X120.254 Y172.819 E213.08138
G1 X106.225 Y158.79 E213.92109
G1 X106.228 Y158.864 E213.92422
G1 X106.324 Y159.915 E213.96889
G1 X106.456 Y160.716 E214.00325
G1 X118.328 Y172.589 E214.71387
G1 X117.837 Y172.498 E214.73501
G1 X116.811 Y172.23 E214.77989
G1 X115.996 Y171.952 E214.81634
G1 X107.09 Y163.046 E215.3494
G1 X107.465 Y163.977 E215.39188
G1 X107.932 Y164.925 E215.43661
G1 X108.47 Y165.842 E215.48161
G1 X109.078 Y166.726 E215.52702
G1 X109.095 Y166.747 E215.52816
G1 X112.281 Y169.933 E215.71886
G0 F2625 X149.938 Y171.981
G1 F1350 X149.945 Y171.98 E215.71916
G0 F2625 X159.458 Y161.154
G1 F1350 X110.356 Y112.052 E218.65815
G0 F2625 X111.21 Y111.21
G1 F1350 X159.693 Y159.693 E221.56009
G1 X159.639 Y160.175 E221.58062
G1 X159.458 Y161.154 E221.62275
G0 F2625 X159.793 Y158.097
G1 F1350 X112.126 Y110.43 E224.47585
G1 X111.579 Y110.867 E224.50549
G1 X111.21 Y111.21 E224.52681
G0 F2625 X113.113 Y109.722
G1 F1350 X159.794 Y156.403 E227.32089
G1 X159.794 Y158.067 E227.39132
G1 X159.793 Y158.097 E227.39259
G0 F2625 X159.795 Y154.708
G1 F1350 X114.173 Y109.086 E230.12329
G1 X113.264 Y109.618 E230.16786
G1 X113.113 Y109.722 E230.17562
G0 F2625 X115.32 Y108.538
G1 F1350 X159.796 Y153.013 E232.8377
G1 X159.795 Y154.708 E232.90943
G0 F2625 X159.796 Y151.318
G1 F1350 X116.555 Y108.077 E235.49762
G1 X116.11 Y108.219 E235.51739
G1 X115.32 Y108.538 E235.55345
G0 F2625 X117.883 Y107.709
G1 F1350 X159.796 Y149.623 E238.06217
G1 X159.796 Y151.318 E238.13391
G0 F2625 X159.797 Y147.928
G1 F1350 X119.329 Y107.46 E240.55611
G1 X119.192 Y107.472 E240.56193
G1 X118.151 Y107.643 E240.60658
G1 X117.883 Y107.709 E240.61827
G0 F2625 X120.922 Y107.357
G1 F1350 X159.797 Y146.232 E242.94512
G1 X159.797 Y147.928 E243.0169
G0 F2625 X159.798 Y144.537
G1 F1350 X122.613 Y107.352 E245.2426
G1 X121.073 Y107.352 E245.30778
G1 X120.922 Y107.357 E245.31418
G0 F2625 X124.309 Y107.352
G1 F1350 X159.799 Y142.842 E247.43843
G1 X159.798 Y144.537 E247.51016
G0 F2625 X159.794 Y141.142
G1 F1350 X126.005 Y107.352 E249.53263
G1 X124.309 Y107.352 E249.60441
G0 F2625 X127.7 Y107.352
G1 F1350 X159.653 Y139.305 E251.51695
G1 X159.683 Y139.495 E251.52509
G1 X159.778 Y140.541 E251.56955
G1 X159.794 Y141.142 E251.59499
G0 F2625 X159.599 Y137.556
G1 F1350 X129.396 Y107.352 E253.40282
G1 X127.7 Y107.352 E253.4746
G0 F2625 X131.097 Y107.358
G1 F1350 X159.599 Y135.86 E255.18058
G1 X159.599 Y137.556 E255.25236
G0 F2625 X159.599 Y134.165
G1 F1350 X132.927 Y107.492 E256.84884
G1 X132.009 Y107.391 E256.88793
G1 X131.097 Y107.358 E256.92655
G0 F2625 X134.499 Y107.369
G1 F1350 X159.599 Y132.469 E258.42891
G1 X159.599 Y134.165 E258.50069
G0 F2625 X159.599 Y130.773
G1 F1350 X136.178 Y107.352 E259.90255
G1 X135.072 Y107.352 E259.94936
G1 X134.499 Y107.369 E259.97362
G0 F2625 X137.874 Y107.352
G1 F1350 X159.599 Y129.078 E261.274
G1 X159.599 Y130.773 E261.34573
G0 F2625 X159.599 Y127.382
G1 F1350 X139.57 Y107.352 E262.5446
G1 X137.874 Y107.352 E262.61638
G0 F2625 X141.265 Y107.352
G1 F1350 X159.599 Y125.686 E263.71376
G1 X159.599 Y127.382 E263.78554
G0 F2625 X159.599 Y123.991
G1 F1350 X142.961 Y107.352 E264.78143
G1 X141.265 Y107.352 E264.85321
G0 F2625 X144.657 Y107.352
G1 F1350 X159.599 Y122.295 E265.74759
G1 X159.599 Y123.991 E265.81937
G0 F2625 X159.514 Y120.515
G1 F1350 X146.438 Y107.439 E266.60204
G1 X146.009 Y107.391 E266.62031
G1 X144.944 Y107.352 E266.66541
G1 X144.657 Y107.352 E266.67756
G0 F2625 X148.498 Y107.803
G1 F1350 X159.149 Y118.454 E267.31507
G1 X159.308 Y119.105 E267.34343
G1 X159.48 Y120.145 E267.38805
G1 X159.514 Y120.515 E267.40378
G0 F2625 X158.205 Y115.814
G1 F1350 X151.122 Y108.731 E267.82773
G1 X151.102 Y108.721 E267.82867
G1 X150.139 Y108.311 E267.87297
G1 X149.13 Y107.968 E267.91808
G1 X148.498 Y107.803 E267.94572
G0 F2625 X110.537 Y111.5
;TIME_ELAPSED:222.103463
;LAYER:-4
G0 X110.537 Y111.5 Z0.959
G1 F1800 X110.479 Y111.558 E267.94687
G1 X110.063 Y112 E267.95539
G1 X155.93 Y112 E268.59888
G1 X156.272 Y112.368 E268.60593
G1 X156.378 Y112.5 E268.6083
G1 X109.627 Y112.5 E269.2642
G1 X109.217 Y112.991 E269.27317
G1 X109.211 Y113 E269.27332
G1 X156.779 Y113 E269.94068
G1 X156.924 Y113.182 E269.94395
G1 X157.143 Y113.5 E269.94936
G1 X108.854 Y113.5 E270.62684
G1 X108.6 Y113.855 E270.63296
G1 X108.512 Y114 E270.63534
G1 X157.488 Y114 E271.32245
G1 X157.545 Y114.084 E271.32387
G1 X157.789 Y114.5 E271.33064
G1 X108.207 Y114.5 E272.02625
G1 X108.029 Y114.79 E272.03103
G1 X107.922 Y115 E272.03433
G1 X158.082 Y115 E272.73806
G1 X158.1 Y115.032 E272.73857
G1 X158.331 Y115.5 E272.74589
G1 X107.665 Y115.5 E273.45671
G1 X107.546 Y115.73 E273.46035
G1 X107.432 Y116 E273.46446
G1 X158.575 Y116 E274.18197
G1 X158.776 Y116.5 E274.18953
G1 X107.219 Y116.5 E274.91285
G1 X107.128 Y116.714 E274.91611
G1 X107.031 Y117 E274.92035
G1 X158.975 Y117 E275.6491
G1 X159.136 Y117.5 E275.65647
G1 X106.861 Y117.5 E276.38987
G1 X106.769 Y117.768 E276.39384
G1 X106.709 Y118 E276.3972
G1 X159.297 Y118 E277.13499
G1 X159.297 Y118.003 E277.13503
G1 X159.419 Y118.5 E277.14221
G1 X106.578 Y118.5 E277.88355
G1 X106.501 Y118.792 E277.88778
G1 X106.463 Y119 E277.89075
G1 X159.541 Y119 E278.63541
G1 X159.55 Y119.04 E278.63598
G1 X159.627 Y119.5 E278.64253
G1 X106.371 Y119.5 E279.38968
G1 X106.306 Y119.852 E279.39471
G1 X106.29 Y120 E279.39679
G1 X159.71 Y120 E280.14625
G1 X159.73 Y120.126 E280.14804
G1 X159.765 Y120.5 E280.15331
G1 X106.235 Y120.5 E280.90431
G1 X106.188 Y120.918 E280.91021
G1 X106.186 Y121 E280.91137
G1 X159.81 Y121 E281.66369
G1 X159.826 Y121.176 E281.66617
G1 X159.835 Y121.5 E281.67071
G1 X106.167 Y121.5 E282.42365
G1 X106.149 Y121.989 E282.43051
G1 X106.149 Y122 E282.43067
G1 X159.849 Y122 E283.18406
G1 X159.849 Y122.012 E283.18422
G1 X159.849 Y122.5 E283.19107
G1 X106.149 Y122.5 E283.94446
G1 X106.149 Y123 E283.95147
G1 X159.849 Y123 E284.70486
G1 X159.849 Y123.5 E284.71187
G1 X106.149 Y123.5 E285.46526
G1 X106.149 Y124 E285.47227
G1 X159.849 Y124 E286.22566
G1 X159.849 Y124.5 E286.23267
G1 X106.149 Y124.5 E286.98606
G1 X106.149 Y125 E286.99308
