;Generated by Cura LulzBot Edition GCodeWriter Version: 2.6.69
;FLAVOR:RepRap
;TIME:5597
;Filament used: 2.18676m
;Layer height: 0.18
;Generated with Cura_SteamEngine 2.6.69
;This G-Code has been generated specifically for the LulzBot TAZ 6 with standard extruder
G26 ; clear potential 'probe fail' condition
G21 ; set units to Millimetres
M107 ; disable fans
G90 ; absolute positioning
M82 ; set extruder to absolute mode
G92 E0 ; set extruder position to 0
M140 S110 ; start bed heating up
G28 XY ; home X and Y
G1 X-19 Y258 F1000 ; move to safe homing position
M109 R175 ; soften filament before homing Z
G28 Z ; home Z
G1 E-30 F100 ; retract filament
M109 R170 ; wait for extruder to reach wiping temp
G1 X-15 Y100 F3000 ; move above wiper pad
G1 Z1 ; push nozzle into wiper
G1 X-17 Y95 F1000 ; slow wipe
G1 X-17 Y90 F1000 ; slow wipe
G1 X-17 Y85 F1000 ; slow wipe
G1 X-15 Y90 F1000 ; slow wipe
G1 X-17 Y80 F1000 ; slow wipe
G1 X-15 Y95 F1000 ; slow wipe
G1 X-17 Y75 F2000 ; fast wipe
G1 X-15 Y65 F2000 ; fast wipe
G1 X-17 Y70 F2000 ; fast wipe
G1 X-15 Y60 F2000 ; fast wipe
G1 X-17 Y55 F2000 ; fast wipe
G1 X-15 Y50 F2000 ; fast wipe
G1 X-17 Y40 F2000 ; fast wipe
G1 X-15 Y45 F2000 ; fast wipe
G1 X-17 Y35 F2000 ; fast wipe
G1 X-15 Y40 F2000 ; fast wipe
G1 X-17 Y70 F2000 ; fast wipe
G1 X-15 Y30 Z2 F2000 ; fast wipe
G1 X-17 Y35 F2000 ; fast wipe
G1 X-15 Y25 F2000 ; fast wipe
G1 X-17 Y30 F2000 ; fast wipe
G1 X-15 Y25 Z1.5 F1000 ; slow wipe
G1 X-17 Y23 F1000 ; slow wipe
G1 Z10 ; raise extruder
M109 R170 ; wait for extruder to reach probe temp
G1 X-9 Y-9 ; move above first probe point
M204 S100 ; set probing acceleration
G29 ; start auto-leveling sequence
M204 S500 ; restore standard acceleration
G1 X0 Y0 Z15 F5000 ; move up off last probe point
G4 S1 ; pause
M400 ; wait for moves to finish
M117 Heating... ; progress indicator message on LCD
M109 R240 ; wait for extruder to reach printing temp
M190 S110 ; wait for bed to reach printing temp
G1 Z2 E0 F75 ; prime tiny bit of filament into the nozzle
M117 TAZ 6 Printing... ; progress indicator message on LCD

M221 S100
;LAYER_COUNT:39
;LAYER:-6
M107
G0 F2625 X101.703 Y97.944 Z0.51
G1 F1350 X102.437 Y97.182 E0.08458
G1 X103.229 Y96.473 E0.16956
G1 X104.079 Y95.817 E0.2554
G1 X104.951 Y95.238 E0.33908
G1 X105.868 Y94.724 E0.42312
G1 X106.842 Y94.266 E0.50917
G1 X107.818 Y93.893 E0.5927
G1 X108.832 Y93.588 E0.67735
G1 X109.869 Y93.356 E0.7623
G1 X110.918 Y93.201 E0.84707
G1 X111.971 Y93.124 E0.93148
G1 X112.529 Y93.113 E0.9761
G1 X122.185 Y93.113 E1.74805
G1 X122.757 Y91.431 E1.89008
G1 X123.166 Y90.469 E1.97364
G1 X123.644 Y89.538 E2.05731
G1 X124.209 Y88.613 E2.14396
G1 X124.824 Y87.752 E2.22855
G1 X125.492 Y86.949 E2.31206
G1 X126.226 Y86.187 E2.39664
G1 X127.018 Y85.478 E2.48162
G1 X127.868 Y84.822 E2.56746
G1 X128.74 Y84.243 E2.65114
G1 X129.657 Y83.729 E2.73518
G1 X130.631 Y83.271 E2.82122
G1 X131.607 Y82.898 E2.90475
G1 X132.621 Y82.593 E2.9894
G1 X133.658 Y82.361 E3.07436
G1 X134.707 Y82.206 E3.15913
G1 X135.76 Y82.129 E3.24354
G1 X136.318 Y82.118 E3.28815
G1 X155.289 Y82.118 E4.80479
G1 X156.354 Y82.156 E4.88998
G1 X157.412 Y82.274 E4.97509
G1 X158.449 Y82.465 E5.05939
G1 X159.475 Y82.733 E5.14416
G1 X160.485 Y83.077 E5.22946
G1 X161.447 Y83.486 E5.31303
G1 X162.378 Y83.964 E5.3967
G1 X163.303 Y84.529 E5.48335
G1 X164.164 Y85.144 E5.56794
G1 X164.967 Y85.812 E5.65144
G1 X165.729 Y86.546 E5.73602
G1 X166.438 Y87.338 E5.821
G1 X167.094 Y88.188 E5.90684
G1 X167.673 Y89.06 E5.99052
G1 X168.187 Y89.977 E6.07456
G1 X168.645 Y90.951 E6.16061
G1 X169.018 Y91.927 E6.24414
G1 X169.323 Y92.941 E6.32879
G1 X169.555 Y93.978 E6.41374
G1 X169.71 Y95.027 E6.49851
G1 X169.787 Y96.08 E6.58292
G1 X169.788 Y96.089 E6.58364
G1 X169.798 Y96.609 E6.62522
G1 X169.798 Y122.018 E8.65654
G1 X169.76 Y123.074 E8.74102
G1 X169.642 Y124.129 E8.82589
G1 X169.492 Y124.943 E8.89206
G1 X169.555 Y125.236 E8.91602
G1 X169.71 Y126.287 E9.00095
G1 X169.788 Y127.349 E9.08608
G1 X169.798 Y127.869 E9.12766
G1 X169.798 Y153.278 E11.15898
G1 X169.76 Y154.334 E11.24345
G1 X169.642 Y155.392 E11.32856
G1 X169.451 Y156.429 E11.41286
G1 X169.183 Y157.455 E11.49763
G1 X168.839 Y158.465 E11.58293
G1 X168.43 Y159.427 E11.6665
G1 X167.952 Y160.358 E11.75017
G1 X167.387 Y161.283 E11.83682
G1 X166.772 Y162.144 E11.92141
G1 X166.104 Y162.947 E12.00491
G1 X165.37 Y163.709 E12.08949
G1 X164.578 Y164.418 E12.17447
G1 X163.728 Y165.074 E12.26031
G1 X162.856 Y165.653 E12.34399
G1 X161.939 Y166.167 E12.42803
G1 X160.965 Y166.625 E12.51408
G1 X159.989 Y166.998 E12.59761
G1 X158.975 Y167.303 E12.68226
G1 X157.938 Y167.535 E12.76721
G1 X156.889 Y167.69 E12.85198
G1 X155.836 Y167.767 E12.93639
G1 X155.278 Y167.778 E12.98101
G1 X145.622 Y167.778 E13.75296
G1 X145.05 Y169.46 E13.89499
G1 X144.641 Y170.422 E13.97856
G1 X144.164 Y171.351 E14.06204
G1 X143.603 Y172.272 E14.14826
G1 X142.983 Y173.139 E14.23347
G1 X142.315 Y173.942 E14.31697
G1 X141.581 Y174.704 E14.40155
G1 X140.789 Y175.413 E14.48653
G1 X139.939 Y176.069 E14.57237
G1 X139.067 Y176.648 E14.65605
G1 X138.15 Y177.162 E14.74009
G1 X137.176 Y177.62 E14.82614
G1 X136.2 Y177.993 E14.90967
G1 X135.186 Y178.298 E14.99432
G1 X134.149 Y178.53 E15.07927
G1 X133.1 Y178.685 E15.16404
G1 X132.047 Y178.762 E15.24845
G1 X131.489 Y178.773 E15.29307
G1 X112.518 Y178.773 E16.8097
G1 X111.453 Y178.735 E16.8949
G1 X110.395 Y178.617 E16.98
G1 X109.358 Y178.426 E17.0643
G1 X108.332 Y178.158 E17.14908
G1 X107.322 Y177.814 E17.23438
G1 X106.36 Y177.405 E17.31795
G1 X105.429 Y176.927 E17.40161
G1 X104.504 Y176.362 E17.48826
G1 X103.643 Y175.747 E17.57285
G1 X102.84 Y175.079 E17.65636
G1 X102.078 Y174.345 E17.74094
G1 X101.369 Y173.553 E17.82592
G1 X100.713 Y172.703 E17.91176
G1 X100.134 Y171.831 E17.99544
G1 X99.62 Y170.914 E18.07948
G1 X99.162 Y169.94 E18.16552
G1 X98.789 Y168.964 E18.24905
G1 X98.484 Y167.95 E18.3337
G1 X98.252 Y166.913 E18.41866
G1 X98.097 Y165.865 E18.50335
G1 X98.018 Y164.792 E18.58936
G1 X98.009 Y164.282 E18.63014
G1 X98.009 Y138.873 E20.66146
G1 X98.047 Y137.817 E20.74594
G1 X98.165 Y136.762 E20.83081
G1 X98.315 Y135.948 E20.89698
G1 X98.252 Y135.655 E20.92094
G1 X98.097 Y134.604 E21.00587
G1 X98.019 Y133.542 E21.091
G1 X98.009 Y133.022 E21.13258
G1 X98.009 Y107.613 E23.16389
G1 X98.047 Y106.557 E23.24837
G1 X98.165 Y105.499 E23.33348
G1 X98.356 Y104.462 E23.41777
G1 X98.624 Y103.436 E23.50255
G1 X98.968 Y102.426 E23.58785
G1 X99.377 Y101.464 E23.67142
G1 X99.855 Y100.533 E23.75508
G1 X100.42 Y99.608 E23.84174
G1 X101.035 Y98.747 E23.92632
G1 X101.703 Y97.944 E24.00983
G0 F2625 X102 Y97.635
G1 F1350 X102 Y174.257 E30.13536
G0 F2625 X104 Y176.002
G1 F1350 X104 Y95.877 E36.54095
G0 F2625 X106 Y94.661
G1 F1350 X106 Y177.22 E43.14111
G0 F2625 X108 Y178.044
G1 F1350 X108 Y93.838 E49.87295
G0 F2625 X110 Y93.336
G1 F1350 X110 Y178.544 E56.68489
G0 F2625 X112 Y178.754
G1 F1350 X112 Y93.123 E63.53065
G0 F2625 X114 Y93.113
G1 F1350 X114 Y178.773 E70.37873
G0 F2625 X116 Y178.773
G1 F1350 X116 Y93.113 E77.22681
G0 F2625 X118 Y93.113
G1 F1350 X118 Y178.773 E84.07488
G0 F2625 X120 Y178.773
G1 F1350 X120 Y93.113 E90.92296
G0 F2625 X122 Y93.113
G1 F1350 X122 Y178.773 E97.77104
G0 F2625 X124 Y178.773
G1 F1350 X124 Y88.955 E104.95153
G0 F2625 X126 Y86.421
G1 F1350 X126 Y178.773 E112.33459
G0 F2625 X128 Y178.773
G1 F1350 X128 Y84.734 E119.85253
G0 F2625 X130 Y83.567
G1 F1350 X130 Y178.773 E127.46376
G0 F2625 X132 Y178.763
G1 F1350 X132 Y82.779 E135.13719
G0 F2625 X134 Y82.31
G1 F1350 X134 Y178.553 E142.83132
G0 F2625 X136 Y178.054
G1 F1350 X136 Y82.124 E150.50043
G0 F2625 X138 Y82.118
G1 F1350 X138 Y177.233 E158.10439
G0 F2625 X140 Y176.022
G1 F1350 X140 Y82.118 E165.61153
G0 F2625 X142 Y82.118
G1 F1350 X142 Y174.27 E172.97861
G0 F2625 X144 Y171.621
G1 F1350 X144 Y82.118 E180.13392
G0 F2625 X146 Y82.118
G1 F1350 X146 Y167.778 E186.98199
G0 F2625 X148 Y167.778
G1 F1350 X148 Y82.118 E193.83007
G0 F2625 X150 Y82.118
G1 F1350 X150 Y167.778 E200.67815
G0 F2625 X152 Y167.778
G1 F1350 X152 Y82.118 E207.52622
G0 F2625 X154 Y82.118
G1 F1350 X154 Y167.778 E214.3743
G0 F2625 X156 Y167.756
G1 F1350 X156 Y82.144 E221.21854
G0 F2625 X158 Y82.383
G1 F1350 X158 Y167.522 E228.02497
G0 F2625 X160 Y166.994
G1 F1350 X160 Y82.912 E234.74689
G0 F2625 X162 Y83.77
G1 F1350 X162 Y166.133 E241.33139
G0 F2625 X164 Y164.865
G1 F1350 X164 Y85.027 E247.71403
G0 F2625 X166 Y86.849
G1 F1350 X166 Y163.055 E253.80631
G0 F2625 X168 Y160.265
G1 F1350 X168 Y89.644 E259.45209
G0 F2625 X100 Y100.295
M104 S240
G1 F1350 X100 Y171.591 E265.15184
G0 F2625 X101.702 Y97.943
;TIME_ELAPSED:157.370438
;LAYER:-5
M140 S110
M221 S100
G0 X101.702 Y97.943 Z0.78
;TYPE:SUPPORT
G1 F1350 X101.534 Y98.143 E265.1629
G1 X166.21 Y162.819 E269.03407
G1 X166.103 Y162.947 E269.04113
G1 X165.386 Y163.69 E269.08483
G1 X100.787 Y99.091 E272.95139
G1 X100.419 Y99.608 E272.97825
G1 X100.111 Y100.111 E273.00321
G1 X164.487 Y164.487 E276.85643
G1 X163.728 Y165.073 E276.89701
G1 X163.517 Y165.212 E276.90771
G1 X99.509 Y101.205 E280.73886
G1 X99.377 Y101.463 E280.75113
G1 X98.987 Y102.379 E280.79327
G1 X162.474 Y165.865 E284.59324
G1 X161.938 Y166.165 E284.61924
G1 X161.353 Y166.44 E284.64659
G1 X98.566 Y103.653 E288.4047
G1 X98.355 Y104.46 E288.44
G1 X98.25 Y105.032 E288.46462
G1 X160.151 Y166.934 E292.16972
G1 X159.988 Y166.997 E292.17712
G1 X158.975 Y167.302 E292.22189
G1 X158.851 Y167.329 E292.22726
G1 X98.049 Y106.527 E295.86655
G1 X98.046 Y106.556 E295.86779
G1 X98.008 Y107.612 E295.91251
G1 X98.008 Y108.182 E295.93664
G1 X157.434 Y167.608 E299.49357
G1 X156.889 Y167.689 E299.51689
G1 X155.892 Y167.761 E299.5592
G1 X98.008 Y109.878 E303.0238
G1 X98.008 Y111.573 E303.09554
G1 X154.212 Y167.777 E306.45962
G1 X152.516 Y167.777 E306.5314
G1 X98.008 Y113.269 E309.79397
G1 X98.008 Y114.964 E309.86571
G1 X150.82 Y167.777 E313.02679
G1 X149.125 Y167.777 E313.09853
G1 X98.008 Y116.66 E316.15813
G1 X98.008 Y118.356 E316.22991
G1 X147.429 Y167.777 E319.188
G1 X145.734 Y167.777 E319.25973
G1 X98.008 Y120.051 E322.11637
G1 X98.008 Y121.747 E322.18815
G1 X145.22 Y168.959 E325.01401
G1 X145.05 Y169.459 E325.03636
G1 X144.744 Y170.179 E325.06947
G1 X98.008 Y123.443 E327.86685
G1 X98.008 Y125.138 E327.93859
G1 X144.183 Y171.313 E330.70239
G1 X144.163 Y171.35 E330.70417
G1 X143.602 Y172.271 E330.74981
G1 X143.537 Y172.363 E330.75458
G1 X98.008 Y126.834 E333.47971
G1 X98.008 Y128.53 E333.55149
G1 X142.817 Y173.338 E336.23349
G1 X142.315 Y173.941 E336.2667
G1 X142.025 Y174.242 E336.28439
G1 X98.008 Y130.225 E338.91902
G1 X98.008 Y131.921 E338.9908
G1 X141.163 Y175.076 E341.57384
G1 X140.789 Y175.411 E341.59509
G1 X140.232 Y175.841 E341.62487
G1 X98.025 Y133.633 E344.15119
G1 X98.096 Y134.603 E344.19235
G1 X98.235 Y135.539 E344.2324
G1 X139.232 Y176.536 E346.68627
G1 X139.067 Y176.647 E346.69469
G1 X138.157 Y177.157 E346.73884
G1 X98.123 Y137.123 E349.13507
G1 X98.047 Y137.816 E349.16457
G1 X98.014 Y138.709 E349.20239
G1 X136.993 Y177.688 E351.53548
G1 X136.2 Y177.992 E351.57142
G1 X135.739 Y178.13 E351.59179
G1 X98.008 Y140.399 E353.85017
G1 X98.008 Y142.095 E353.92195
G1 X134.388 Y178.475 E356.09947
G1 X134.148 Y178.529 E356.10988
G1 X133.1 Y178.684 E356.15472
G1 X132.915 Y178.697 E356.16257
G1 X98.008 Y143.79 E358.25192
G1 X98.008 Y145.486 E358.3237
G1 X131.294 Y178.772 E360.31603
G1 X129.598 Y178.772 E360.38781
G1 X98.008 Y147.182 E362.27862
G1 X98.008 Y148.877 E362.35036
G1 X127.902 Y178.772 E364.13969
G1 X126.207 Y178.772 E364.21143
G1 X98.008 Y150.573 E365.89928
G1 X98.008 Y152.269 E365.97106
G1 X124.511 Y178.772 E367.55739
G1 X122.815 Y178.772 E367.62917
G1 X98.008 Y153.964 E369.11402
G1 X98.008 Y155.66 E369.1858
G1 X121.12 Y178.772 E370.56917
G1 X119.424 Y178.772 E370.64095
G1 X98.008 Y157.356 E371.9228
G1 X98.008 Y159.051 E371.99454
G1 X117.729 Y178.772 E373.17493
G1 X116.033 Y178.772 E373.24671
G1 X98.008 Y160.747 E374.3256
G1 X98.008 Y162.442 E374.39734
G1 X114.337 Y178.772 E375.37474
G1 X112.642 Y178.772 E375.44647
G1 X98.008 Y164.138 E376.32239
G1 X98.008 Y164.281 E376.32844
G1 X98.017 Y164.791 E376.35003
G1 X98.096 Y165.864 E376.39557
G1 X98.106 Y165.932 E376.39848
G1 X110.839 Y178.665 E377.16061
G1 X110.394 Y178.616 E377.17956
G1 X109.358 Y178.425 E377.22414
G1 X108.743 Y178.265 E377.25104
G1 X98.508 Y168.029 E377.86368
G1 X98.788 Y168.963 E377.90495
G1 X99.161 Y169.938 E377.94913
G1 X99.552 Y170.769 E377.988
G1 X106.004 Y177.221 E378.37419
G0 F2625 X166.962 Y161.875
G1 F1350 X102.353 Y97.266 E382.24135
G1 X101.702 Y97.943 E382.2811
G0 F2625 X103.243 Y96.461
G1 F1350 X167.644 Y160.861 E386.13578
G1 X167.386 Y161.282 E386.15668
G1 X166.962 Y161.875 E386.18753
G0 F2625 X168.251 Y159.773
G1 F1350 X104.208 Y95.73 E390.02081
G1 X104.078 Y95.816 E390.02741
G1 X103.243 Y96.461 E390.07207
G0 F2625 X105.245 Y95.071
G1 F1350 X168.778 Y158.604 E393.87482
G1 X168.429 Y159.426 E393.91262
G1 X168.251 Y159.773 E393.92912
G0 F2625 X169.211 Y157.341
G1 F1350 X106.361 Y94.492 E397.69097
G1 X105.866 Y94.724 E397.71411
G1 X105.245 Y95.071 E397.74421
G0 F2625 X107.558 Y93.992
G1 F1350 X169.535 Y155.97 E401.45387
G1 X169.449 Y156.428 E401.47359
G1 X169.211 Y157.341 E401.51352
G0 F2625 X169.743 Y154.482
G1 F1350 X108.845 Y93.584 E405.15856
G1 X108.831 Y93.587 E405.15917
G1 X107.817 Y93.893 E405.204
G1 X107.558 Y93.992 E405.21573
G0 F2625 X110.255 Y93.299
G1 F1350 X169.797 Y152.841 E408.77961
G1 X169.797 Y153.278 E408.7981
G1 X169.759 Y154.334 E408.84283
G1 X169.743 Y154.482 E408.84913
G0 F2625 X169.797 Y151.145
G1 F1350 X111.79 Y93.137 E412.32115
G1 X110.916 Y93.2 E412.35824
G1 X110.255 Y93.299 E412.38653
G0 F2625 X113.46 Y93.112
G1 F1350 X169.797 Y149.449 E415.75857
G1 X169.797 Y151.145 E415.83035
G0 F2625 X169.797 Y147.754
G1 F1350 X115.155 Y93.112 E419.10094
G1 X113.46 Y93.112 E419.17268
G0 F2625 X116.851 Y93.112
G1 F1350 X169.797 Y146.058 E422.34175
G1 X169.797 Y147.754 E422.41353
G0 F2625 X169.797 Y144.362
G1 F1350 X118.547 Y93.112 E425.48109
G1 X116.851 Y93.112 E425.55287
G0 F2625 X120.242 Y93.112
G1 F1350 X169.797 Y142.667 E428.51898
G1 X169.797 Y144.362 E428.59072
G0 F2625 X169.797 Y140.971
G1 F1350 X121.938 Y93.112 E431.45531
G1 X120.242 Y93.112 E431.52709
G0 F2625 X121.778 Y92.545
G0 X122.551 Y92.029
G1 F1350 X169.797 Y139.275 E434.35499
G1 X169.797 Y140.971 E434.42677
G0 F2625 X169.797 Y137.58
G1 F1350 X123.021 Y90.804 E437.22654
G1 X122.755 Y91.431 E437.25537
G1 X122.551 Y92.029 E437.28211
G0 F2625 X123.577 Y89.664
G1 F1350 X169.797 Y135.884 E440.0486
G1 X169.797 Y137.58 E440.12038
G0 F2625 X169.797 Y134.189
G1 F1350 X124.213 Y88.604 E442.84883
G1 X124.208 Y88.612 E442.84923
G1 X123.643 Y89.538 E442.89514
G1 X123.577 Y89.664 E442.90116
G0 F2625 X124.928 Y87.623
G1 F1350 X169.797 Y132.493 E445.58682
G1 X169.797 Y134.189 E445.6586
G0 F2625 X169.797 Y130.797
G1 F1350 X125.715 Y86.715 E448.29712
G1 X125.491 Y86.948 E448.3108
G1 X124.928 Y87.623 E448.348
G0 F2625 X126.572 Y85.876
G1 F1350 X169.797 Y129.102 E450.93526
G1 X169.797 Y130.797 E451.007
G0 F2625 X169.788 Y127.397
G1 F1350 X127.498 Y85.107 E453.53826
G1 X127.017 Y85.477 E453.56394
G1 X126.572 Y85.876 E453.58924
G0 F2625 X128.493 Y84.406
G1 F1350 X169.594 Y125.507 E456.04933
G1 X169.709 Y126.287 E456.0827
G1 X169.786 Y127.349 E456.12777
G1 X169.788 Y127.397 E456.1298
G0 F2625 X169.668 Y123.886
G1 F1350 X129.563 Y83.78 E458.53031
G1 X128.739 Y84.242 E458.57029
G1 X128.493 Y84.406 E458.5828
G0 F2625 X130.716 Y83.238
G1 F1350 X169.786 Y122.308 E460.92133
G1 X169.758 Y123.074 E460.95377
G1 X169.668 Y123.886 E460.98835
G0 F2625 X169.797 Y120.623
G1 F1350 X131.964 Y82.79 E463.25284
G1 X131.606 Y82.897 E463.26865
G1 X130.716 Y83.238 E463.30899
G0 F2625 X133.308 Y82.439
G1 F1350 X169.797 Y118.928 E465.49303
G1 X169.797 Y120.623 E465.56477
G0 F2625 X169.797 Y117.232
G1 F1350 X134.766 Y82.201 E467.66154
G1 X134.705 Y82.206 E467.66414
G1 X133.657 Y82.36 E467.70897
G1 X133.308 Y82.439 E467.72411
G0 F2625 X136.378 Y82.118
G1 F1350 X169.797 Y115.537 E469.7244
G1 X169.797 Y117.232 E469.79614
G0 F2625 X169.797 Y113.841
G1 F1350 X138.074 Y82.118 E471.69491
G1 X136.378 Y82.118 E471.76669
G0 F2625 X139.77 Y82.118
