;Generated by Cura LulzBot Edition GCodeWriter Version: 2.6.69
;FLAVOR:RepRap
;TIME:3716
;Filament used: 1.37963m
;Layer height: 0.18
;Generated with Cura_SteamEngine 2.6.69
;This G-Code has been generated specifically for the LulzBot TAZ 6 with standard extruder
G26 ; clear potential 'probe fail' condition
G21 ; set units to Millimetres
M107 ; disable fans
G90 ; absolute positioning
M82 ; set extruder to absolute mode
G92 E0 ; set extruder position to 0
M140 S110 ; start bed heating up
G28 XY ; home X and Y
G1 X-19 Y258 F1000 ; move to safe homing position
M109 R175 ; soften filament before homing Z
G28 Z ; home Z
G1 E-30 F100 ; retract filament
M109 R170 ; wait for extruder to reach wiping temp
G1 X-15 Y100 F3000 ; move above wiper pad
G1 Z1 ; push nozzle into wiper
G1 X-17 Y95 F1000 ; slow wipe
G1 X-17 Y90 F1000 ; slow wipe
G1 X-17 Y85 F1000 ; slow wipe
G1 X-15 Y90 F1000 ; slow wipe
G1 X-17 Y80 F1000 ; slow wipe
G1 X-15 Y95 F1000 ; slow wipe
G1 X-17 Y75 F2000 ; fast wipe
G1 X-15 Y65 F2000 ; fast wipe
G1 X-17 Y70 F2000 ; fast wipe
G1 X-15 Y60 F2000 ; fast wipe
G1 X-17 Y55 F2000 ; fast wipe
G1 X-15 Y50 F2000 ; fast wipe
G1 X-17 Y40 F2000 ; fast wipe
G1 X-15 Y45 F2000 ; fast wipe
G1 X-17 Y35 F2000 ; fast wipe
G1 X-15 Y40 F2000 ; fast wipe
G1 X-17 Y70 F2000 ; fast wipe
G1 X-15 Y30 Z2 F2000 ; fast wipe
G1 X-17 Y35 F2000 ; fast wipe
G1 X-15 Y25 F2000 ; fast wipe
G1 X-17 Y30 F2000 ; fast wipe
G1 X-15 Y25 Z1.5 F1000 ; slow wipe
G1 X-17 Y23 F1000 ; slow wipe
G1 Z10 ; raise extruder
M109 R170 ; wait for extruder to reach probe temp
G1 X-9 Y-9 ; move above first probe point
M204 S100 ; set probing acceleration
G29 ; start auto-leveling sequence
M204 S500 ; restore standard acceleration
G1 X0 Y0 Z15 F5000 ; move up off last probe point
G4 S1 ; pause
M400 ; wait for moves to finish
M117 Heating... ; progress indicator message on LCD
M109 R240 ; wait for extruder to reach printing temp
M190 S110 ; wait for bed to reach printing temp
G1 Z2 E0 F75 ; prime tiny bit of filament into the nozzle
M117 TAZ 6 Printing... ; progress indicator message on LCD

M221 S100
;LAYER_COUNT:54
;LAYER:-6
M107
G0 F2625 X123.53 Y111.613 Z0.51
G1 F1350 X123.529 Y111.612 E0.00011
G1 X124.33 Y110.868 E0.08751
G1 X125.132 Y110.227 E0.16959
G1 X126.015 Y109.619 E0.2553
G1 X126.933 Y109.081 E0.34036
G1 X127.881 Y108.614 E0.42484
G1 X128.861 Y108.219 E0.50932
G1 X129.866 Y107.896 E0.59371
G1 X130.902 Y107.644 E0.67895
G1 X131.943 Y107.472 E0.7633
G1 X132.994 Y107.376 E0.84767
G1 X133.824 Y107.353 E0.91405
G1 X146.195 Y107.353 E1.90305
G1 X147.26 Y107.391 E1.98824
G1 X148.309 Y107.507 E2.07261
G1 X148.98 Y107.632 E2.12718
G1 X149.938 Y107.474 E2.2048
G1 X150.997 Y107.376 E2.28983
G1 X151.824 Y107.353 E2.35597
G1 X164.195 Y107.353 E3.34496
G1 X165.26 Y107.391 E3.43016
G1 X166.318 Y107.509 E3.51526
G1 X167.355 Y107.7 E3.59956
G1 X168.381 Y107.968 E3.68434
G1 X169.391 Y108.312 E3.76964
G1 X170.353 Y108.721 E3.85321
G1 X171.281 Y109.197 E3.93659
G1 X172.209 Y109.764 E4.02353
G1 X173.07 Y110.379 E4.10811
G1 X173.868 Y111.045 E4.19121
G1 X174.467 Y111.61 E4.25704
G1 X174.59 Y111.733 E4.27094
G1 X174.591 Y111.732 E4.27106
G1 X175.335 Y112.533 E4.35845
G1 X175.976 Y113.335 E4.44053
G1 X176.584 Y114.218 E4.52624
G1 X177.122 Y115.136 E4.6113
G1 X177.589 Y116.084 E4.69579
G1 X177.984 Y117.064 E4.78026
G1 X178.307 Y118.069 E4.86465
G1 X178.559 Y119.105 E4.94989
G1 X178.731 Y120.146 E5.03424
G1 X178.827 Y121.197 E5.11861
G1 X178.85 Y122.013 E5.18387
G1 X178.85 Y138.582 E6.50848
G1 X178.837 Y138.913 E6.53496
G1 X178.931 Y139.48 E6.58091
G1 X179.027 Y140.531 E6.66528
G1 X179.05 Y141.347 E6.73054
G1 X179.05 Y158.084 E8.06858
G1 X179.012 Y159.14 E8.15306
G1 X178.894 Y160.198 E8.23816
G1 X178.703 Y161.235 E8.32246
G1 X178.435 Y162.261 E8.40723
G1 X178.091 Y163.271 E8.49253
G1 X177.682 Y164.233 E8.5761
G1 X177.204 Y165.164 E8.65977
G1 X176.639 Y166.089 E8.74642
G1 X176.024 Y166.95 E8.83101
G1 X175.358 Y167.748 E8.9141
G1 X174.793 Y168.347 E8.97993
G1 X174.553 Y168.587 E9.00707
G1 X174.554 Y168.588 E9.00718
G1 X173.753 Y169.332 E9.09458
G1 X172.951 Y169.973 E9.17666
G1 X172.068 Y170.581 E9.26236
G1 X171.15 Y171.119 E9.34743
G1 X170.202 Y171.586 E9.43191
G1 X169.222 Y171.981 E9.51638
G1 X168.217 Y172.304 E9.60077
G1 X167.181 Y172.556 E9.68601
G1 X166.14 Y172.728 E9.77036
G1 X165.089 Y172.824 E9.85474
G1 X164.259 Y172.847 E9.92111
G1 X151.722 Y172.847 E10.92338
G1 X150.657 Y172.809 E11.00858
G1 X149.611 Y172.693 E11.09271
G1 X149.013 Y172.583 E11.14132
G1 X148.139 Y172.728 E11.21215
G1 X147.088 Y172.824 E11.29652
G1 X146.259 Y172.847 E11.36282
G1 X133.722 Y172.847 E12.36509
G1 X132.657 Y172.809 E12.45029
G1 X131.599 Y172.691 E12.53539
G1 X130.562 Y172.5 E12.61969
G1 X129.536 Y172.232 E12.70446
G1 X128.526 Y171.888 E12.78976
G1 X127.564 Y171.479 E12.87333
G1 X126.633 Y171.001 E12.957
G1 X125.708 Y170.436 E13.04365
G1 X124.847 Y169.821 E13.12824
G1 X124.049 Y169.155 E13.21133
G1 X123.45 Y168.59 E13.27716
G1 X123.207 Y168.347 E13.30464
G1 X123.206 Y168.348 E13.30475
G1 X122.465 Y167.55 E13.39181
G1 X121.824 Y166.748 E13.47389
G1 X121.216 Y165.865 E13.55959
G1 X120.678 Y164.947 E13.64466
G1 X120.211 Y163.999 E13.72914
G1 X119.816 Y163.019 E13.81361
G1 X119.493 Y162.014 E13.898
G1 X119.241 Y160.978 E13.98324
G1 X119.069 Y159.937 E14.06759
G1 X118.973 Y158.886 E14.15197
G1 X118.95 Y158.07 E14.21723
G1 X118.95 Y141.333 E15.55526
G1 X118.988 Y140.277 E15.63974
G1 X119.106 Y139.213 E15.72532
G1 X119.158 Y138.926 E15.74864
G1 X119.15 Y138.574 E15.77679
G1 X119.15 Y121.999 E17.10187
G1 X119.188 Y120.943 E17.18635
G1 X119.306 Y119.885 E17.27146
G1 X119.497 Y118.848 E17.35575
G1 X119.765 Y117.822 E17.44053
G1 X120.109 Y116.812 E17.52583
G1 X120.518 Y115.85 E17.6094
G1 X120.996 Y114.919 E17.69306
G1 X121.561 Y113.994 E17.77972
G1 X122.176 Y113.133 E17.86431
G1 X122.842 Y112.335 E17.9474
G1 X123.407 Y111.736 E18.01323
G1 X123.53 Y111.613 E18.02713
G0 F2625 X124 Y111.174
G1 F1350 X124 Y169.108 E22.65866
G0 F2625 X126 Y170.614
G1 F1350 X126 Y109.629 E27.5341
G0 F2625 X128 Y108.566
G1 F1350 X128 Y171.664 E32.57846
G0 F2625 X130 Y172.353
G1 F1350 X130 Y107.863 E37.7341
G0 F2625 X132 Y107.466
G1 F1350 X132 Y172.735 E42.95203
G0 F2625 X134 Y172.847
G1 F1350 X134 Y107.353 E48.18793
G0 F2625 X136 Y107.353
G1 F1350 X136 Y172.847 E53.42384
G0 F2625 X138 Y172.847
G1 F1350 X138 Y107.353 E58.65975
G0 F2625 X140 Y107.353
G1 F1350 X140 Y172.847 E63.89566
G0 F2625 X142 Y172.847
G1 F1350 X142 Y107.353 E69.13157
G0 F2625 X144 Y107.353
G1 F1350 X144 Y172.847 E74.36748
G0 F2625 X146 Y172.847
G1 F1350 X146 Y107.353 E79.60339
G0 F2625 X148 Y107.473
G1 F1350 X148 Y172.741 E84.82123
G0 F2625 X150 Y172.736
G1 F1350 X150 Y107.468 E90.03907
G0 F2625 X152 Y107.353
G1 F1350 X152 Y172.847 E95.27498
G0 F2625 X154 Y172.847
G1 F1350 X154 Y107.353 E100.51089
G0 F2625 X156 Y107.353
G1 F1350 X156 Y172.847 E105.7468
G0 F2625 X158 Y172.847
G1 F1350 X158 Y107.353 E110.98271
G0 F2625 X160 Y107.353
G1 F1350 X160 Y172.847 E116.21862
G0 F2625 X162 Y172.847
G1 F1350 X162 Y107.353 E121.45453
G0 F2625 X164 Y107.353
G1 F1350 X164 Y172.847 E126.69043
G0 F2625 X166 Y172.741
G1 F1350 X166 Y107.474 E131.9082
G0 F2625 X168 Y107.869
G1 F1350 X168 Y172.357 E137.06368
G0 F2625 X170 Y171.668
G1 F1350 X170 Y108.571 E142.10796
G0 F2625 X172 Y109.637
G1 F1350 X172 Y170.621 E146.98332
G0 F2625 X174 Y169.103
G1 F1350 X174 Y111.17 E151.61476
G0 F2625 X176 Y113.37
G1 F1350 X176 Y166.979 E155.90053
G0 F2625 X178 Y163.486
G1 F1350 X178 Y117.114 E159.60773
G0 F2625 X122 Y113.379
G1 F1350 X122 Y166.968 E163.8919
G0 F2625 X120 Y163.475
M104 S240
G1 F1350 X120 Y117.132 E167.59678
G0 F2625 X122.841 Y112.335
;TIME_ELAPSED:101.395434
;LAYER:-5
M140 S110
M221 S100
G0 X122.841 Y112.335 Z0.78
;TYPE:SUPPORT
G1 F1350 X122.69 Y112.516 E167.60676
G1 X176.482 Y166.308 E170.82647
G1 X176.023 Y166.95 E170.85987
G1 X175.752 Y167.274 E170.87775
G1 X121.939 Y113.461 E174.09872
G1 X121.56 Y113.994 E174.1264
G1 X121.263 Y114.48 E174.1505
G1 X174.956 Y168.174 E177.36432
G1 X174.792 Y168.346 E177.37438
G1 X174.552 Y168.586 E177.38874
G1 X174.553 Y168.588 E177.38884
G1 X174.097 Y169.01 E177.41513
G1 X120.659 Y115.572 E180.61365
G1 X120.517 Y115.85 E180.62687
G1 X120.136 Y116.744 E180.668
G1 X173.179 Y169.788 E183.84291
G1 X172.949 Y169.972 E183.85537
G1 X172.191 Y170.495 E183.89435
G1 X119.712 Y118.016 E187.03547
G1 X119.496 Y118.848 E187.07185
G1 X119.394 Y119.394 E187.09536
G1 X171.128 Y171.128 E190.19189
G1 X170.202 Y171.585 E190.23559
G1 X169.978 Y171.674 E190.2458
G1 X119.194 Y120.889 E193.28549
G1 X119.188 Y120.942 E193.28775
G1 X119.15 Y121.998 E193.33247
G1 X119.15 Y122.541 E193.35545
G1 X168.742 Y172.133 E196.32378
G1 X168.217 Y172.302 E196.34712
G1 X167.411 Y172.498 E196.38223
G1 X119.15 Y124.237 E199.27088
G1 X119.15 Y125.932 E199.34262
G1 X165.96 Y172.743 E202.14445
G1 X165.088 Y172.823 E202.18151
G1 X164.364 Y172.842 E202.21217
G1 X119.15 Y127.628 E204.91844
G1 X119.15 Y129.324 E204.99022
G1 X162.672 Y172.845 E207.59519
G1 X160.976 Y172.845 E207.66698
G1 X119.15 Y131.019 E210.17046
G1 X119.15 Y132.715 E210.24224
G1 X159.28 Y172.845 E212.64422
G1 X157.585 Y172.845 E212.71596
G1 X119.15 Y134.411 E215.01645
G1 X119.15 Y136.106 E215.08819
G1 X155.889 Y172.845 E217.28719
G1 X154.193 Y172.845 E217.35897
G1 X119.15 Y137.802 E219.45647
G1 X119.15 Y138.573 E219.4891
G1 X119.157 Y138.925 E219.504
G1 X119.106 Y139.212 E219.51634
G1 X119.081 Y139.429 E219.52558
G1 X152.498 Y172.845 E221.52572
G1 X151.721 Y172.845 E221.55861
G1 X150.768 Y172.811 E221.59897
G1 X118.961 Y141.004 E223.50277
G1 X118.949 Y141.332 E223.51666
G1 X118.949 Y142.688 E223.57405
G1 X148.867 Y172.606 E225.36479
G1 X148.138 Y172.727 E225.39606
G1 X147.363 Y172.797 E225.429
G1 X118.949 Y144.384 E227.12968
G1 X118.949 Y146.079 E227.20142
G1 X145.716 Y172.846 E228.80356
G1 X144.02 Y172.846 E228.87534
G1 X118.949 Y147.775 E230.37596
G1 X118.949 Y149.471 E230.44774
G1 X142.325 Y172.846 E231.84688
G1 X140.629 Y172.846 E231.91866
G1 X118.949 Y151.166 E233.21631
G1 X118.949 Y152.862 E233.28809
G1 X138.933 Y172.846 E234.48423
G1 X137.238 Y172.846 E234.55597
G1 X118.949 Y154.557 E235.65065
G1 X118.949 Y156.253 E235.72243
G1 X135.542 Y172.846 E236.7156
G1 X133.846 Y172.846 E236.78739
G1 X118.949 Y157.949 E237.67904
G1 X118.949 Y158.069 E237.68412
G1 X118.972 Y158.884 E237.71863
G1 X119.051 Y159.746 E237.75527
G1 X132.044 Y172.739 E238.53296
G1 X131.598 Y172.69 E238.55195
G1 X130.562 Y172.499 E238.59654
G1 X129.947 Y172.338 E238.62344
G1 X119.451 Y161.842 E239.25168
G1 X119.493 Y162.013 E239.25913
G1 X119.815 Y163.018 E239.3038
G1 X120.21 Y163.997 E239.34848
G1 X120.502 Y164.589 E239.37641
G1 X127.209 Y171.295 E239.77783
G0 F2625 X177.139 Y165.269
G1 F1350 X177.203 Y165.163 E239.78307
G1 X177.681 Y164.233 E239.82733
G1 X177.716 Y164.151 E239.8311
G1 X124.387 Y110.822 E243.0231
G1 X125.131 Y110.226 E243.06344
G1 X125.342 Y110.081 E243.07428
G1 X178.202 Y162.942 E246.23824
G1 X178.434 Y162.261 E246.26869
G1 X178.596 Y161.64 E246.29585
G1 X126.368 Y109.412 E249.42195
G1 X126.932 Y109.081 E249.44962
G1 X127.469 Y108.817 E249.47495
G1 X178.887 Y160.235 E252.55256
G1 X178.893 Y160.197 E252.55419
G1 X179.011 Y159.14 E252.59921
G1 X179.028 Y158.68 E252.61869
G1 X128.651 Y108.303 E255.634
G1 X128.86 Y108.218 E255.64355
G1 X129.865 Y107.896 E255.68821
G1 X129.925 Y107.881 E255.69083
G1 X179.049 Y157.005 E258.63114
G1 X179.049 Y155.31 E258.70288
G1 X131.315 Y107.576 E261.55999
G1 X131.941 Y107.471 E261.58685
G1 X132.826 Y107.391 E261.62446
G1 X179.049 Y153.614 E264.39113
G1 X179.049 Y151.919 E264.46287
G1 X134.483 Y107.352 E267.13039
G1 X136.178 Y107.352 E267.20213
G1 X179.049 Y150.223 E269.76816
G1 X179.049 Y148.527 E269.83994
G1 X137.874 Y107.352 E272.30447
G1 X139.57 Y107.352 E272.37625
G1 X179.049 Y146.832 E274.73929
G1 X179.049 Y145.136 E274.81107
G1 X141.265 Y107.352 E277.07262
G1 X142.961 Y107.352 E277.1444
G1 X179.049 Y143.44 E279.30444
G1 X179.049 Y141.745 E279.37618
G1 X144.657 Y107.352 E281.43474
G0 F2625 X146.194 Y107.352
G1 F1350 X146.359 Y107.359 E281.44173
G1 X178.975 Y139.976 E283.39398
G1 X178.93 Y139.479 E283.4151
G1 X178.836 Y138.913 E283.43939
G1 X178.849 Y138.582 E283.45341
G1 X178.849 Y138.153 E283.47157
G1 X148.189 Y107.494 E285.30668
G1 X148.308 Y107.507 E285.31175
G1 X148.979 Y107.632 E285.34064
G1 X149.875 Y107.484 E285.37907
G1 X178.849 Y136.458 E287.11331
G1 X178.849 Y134.762 E287.18509
G1 X151.45 Y107.363 E288.82505
G1 X151.822 Y107.352 E288.8408
G1 X153.135 Y107.352 E288.89637
G1 X178.849 Y133.066 E290.43548
G1 X178.849 Y131.371 E290.50722
G1 X154.83 Y107.352 E291.94487
G1 X156.526 Y107.352 E292.01665
G1 X178.849 Y129.675 E293.35279
G1 X178.849 Y127.979 E293.42457
G1 X158.222 Y107.352 E294.6592
G1 X159.917 Y107.352 E294.73094
G1 X178.849 Y126.284 E295.86411
G1 X178.849 Y124.588 E295.93589
G1 X161.613 Y107.352 E296.96755
G1 X163.309 Y107.352 E297.03933
G1 X178.849 Y122.893 E297.9695
G1 X178.849 Y122.013 E298.00675
G1 X178.826 Y121.197 E298.0413
G1 X178.824 Y121.172 E298.04236
G1 X165.035 Y107.383 E298.8677
G1 X165.259 Y107.391 E298.87718
G1 X166.317 Y107.508 E298.92224
G1 X166.978 Y107.63 E298.95068
G1 X178.579 Y119.232 E299.64509
G1 X178.558 Y119.105 E299.65054
G1 X178.306 Y118.069 E299.69566
G1 X177.983 Y117.064 E299.74034
G1 X177.899 Y116.856 E299.74984
G1 X169.337 Y108.294 E300.26231
G1 X169.39 Y108.311 E300.26467
G1 X170.352 Y108.721 E300.30893
G1 X171.28 Y109.196 E300.35305
G1 X172.208 Y109.764 E300.3991
G1 X173.069 Y110.378 E300.44386
G1 X173.361 Y110.622 E300.45996
G1 X175.581 Y112.842 E300.59284
G0 F2625 X123.506 Y111.636
G1 F1350 X123.406 Y111.736 E300.59883
G1 X122.841 Y112.335 E300.63368
G0 F2625 X123.506 Y111.636
G1 F1350 X177.139 Y165.269 E303.84387
G0 F2625 X122.813 Y112
;TIME_ELAPSED:249.672298
;LAYER:-4
G0 X122.813 Y112 Z0.959
G1 F1800 X123.229 Y111.558 E303.85239
G1 X123.287 Y111.5 E303.85354
G1 X174.711 Y111.5 E304.57499
G1 X174.643 Y111.432 E304.57634
G1 X174.185 Y111 E304.58517
G1 X123.82 Y111 E305.29177
G1 X124.165 Y110.679 E305.29838
G1 X124.389 Y110.5 E305.30241
G1 X173.606 Y110.5 E305.9929
G1 X173.21 Y110.17 E306.00013
G1 X172.972 Y110 E306.00423
G1 X125.019 Y110 E306.67699
G1 X125.745 Y109.5 E306.68936
G1 X172.26 Y109.5 E307.34194
G1 X171.441 Y109 E307.35541
G1 X126.575 Y109 E307.98485
G1 X126.829 Y108.851 E307.98899
G1 X127.542 Y108.5 E308.00014
G1 X170.473 Y108.5 E308.60244
G0 F2625 X170.471 Y108.499
G1 F1800 X169.484 Y108.08 E308.61748
G1 X169.25 Y108 E308.62095
G1 X128.732 Y108 E309.1894
G1 X128.769 Y107.985 E309.18996
G1 X129.8 Y107.654 E309.20515
G1 X130.432 Y107.5 E309.21428
G1 X167.585 Y107.5 E309.73552
G0 F2625 X170.471 Y108.499
G1 F1800 X170.473 Y108.5 E309.73555
G0 F2625 X175.18 Y112
G1 F1800 X122.813 Y112 E310.47023
G0 F2625 X122.377 Y112.5
G1 F1800 X175.628 Y112.5 E311.21732
G1 X175.522 Y112.368 E311.2197
G1 X175.18 Y112 E311.22674
G0 F2625 X176.029 Y113
G1 F1800 X176.174 Y113.182 E311.23001
G1 X176.393 Y113.5 E311.23543
G1 X121.604 Y113.5 E312.00409
G1 X121.35 Y113.855 E312.01021
G1 X121.262 Y114 E312.01259
G1 X176.738 Y114 E312.7909
G1 X176.795 Y114.084 E312.79232
G1 X177.039 Y114.5 E312.79909
G1 X120.957 Y114.5 E313.58589
G1 X120.779 Y114.79 E313.59066
G1 X120.672 Y115 E313.59397
G1 X177.332 Y115 E314.38889
G1 X177.35 Y115.032 E314.3894
G1 X177.581 Y115.5 E314.39672
G1 X120.415 Y115.5 E315.19873
G1 X120.296 Y115.73 E315.20237
G1 X120.182 Y116 E315.20648
G1 X177.825 Y116 E316.01518
G1 X178.026 Y116.5 E316.02274
G1 X119.969 Y116.5 E316.83726
G1 X119.878 Y116.714 E316.84052
G1 X119.781 Y117 E316.84476
G1 X178.225 Y117 E317.6647
G1 X178.386 Y117.5 E317.67207
G1 X119.611 Y117.5 E318.49666
G1 X119.519 Y117.768 E318.50063
G1 X119.459 Y118 E318.50399
G1 X178.547 Y118 E319.33297
G1 X178.547 Y118.003 E319.33301
G1 X178.669 Y118.5 E319.34019
G1 X119.328 Y118.5 E320.17272
G1 X119.251 Y118.792 E320.17696
G1 X119.213 Y119 E320.17992
G1 X178.791 Y119 E321.01577
G1 X178.8 Y119.04 E321.01635
G1 X178.877 Y119.5 E321.02289
G1 X119.121 Y119.5 E321.86124
G1 X119.056 Y119.852 E321.86626
G1 X119.04 Y120 E321.86835
G1 X178.96 Y120 E322.709
