;Generated by Cura LulzBot Edition GCodeWriter Version: 2.6.69
;FLAVOR:RepRap
;TIME:2414
;Filament used: 2.15064m
;Layer height: 0.38
;Generated with Cura_SteamEngine 2.6.69
;This G-Code has been generated specifically for the LulzBot TAZ 6 with standard extruder
G26 ; clear potential 'probe fail' condition
G21 ; set units to Millimetres
M107 ; disable fans
G90 ; absolute positioning
M82 ; set extruder to absolute mode
G92 E0 ; set extruder position to 0
M140 S110 ; start bed heating up
G28 XY ; home X and Y
G1 X-19 Y258 F1000 ; move to safe homing position
M109 R175 ; soften filament before homing Z
G28 Z ; home Z
G1 E-30 F100 ; retract filament
M109 R170 ; wait for extruder to reach wiping temp
G1 X-15 Y100 F3000 ; move above wiper pad
G1 Z1 ; push nozzle into wiper
G1 X-17 Y95 F1000 ; slow wipe
G1 X-17 Y90 F1000 ; slow wipe
G1 X-17 Y85 F1000 ; slow wipe
G1 X-15 Y90 F1000 ; slow wipe
G1 X-17 Y80 F1000 ; slow wipe
G1 X-15 Y95 F1000 ; slow wipe
G1 X-17 Y75 F2000 ; fast wipe
G1 X-15 Y65 F2000 ; fast wipe
G1 X-17 Y70 F2000 ; fast wipe
G1 X-15 Y60 F2000 ; fast wipe
G1 X-17 Y55 F2000 ; fast wipe
G1 X-15 Y50 F2000 ; fast wipe
G1 X-17 Y40 F2000 ; fast wipe
G1 X-15 Y45 F2000 ; fast wipe
G1 X-17 Y35 F2000 ; fast wipe
G1 X-15 Y40 F2000 ; fast wipe
G1 X-17 Y70 F2000 ; fast wipe
G1 X-15 Y30 Z2 F2000 ; fast wipe
G1 X-17 Y35 F2000 ; fast wipe
G1 X-15 Y25 F2000 ; fast wipe
G1 X-17 Y30 F2000 ; fast wipe
G1 X-15 Y25 Z1.5 F1000 ; slow wipe
G1 X-17 Y23 F1000 ; slow wipe
G1 Z10 ; raise extruder
M109 R170 ; wait for extruder to reach probe temp
G1 X-9 Y-9 ; move above first probe point
M204 S100 ; set probing acceleration
G29 ; start auto-leveling sequence
M204 S500 ; restore standard acceleration
G1 X0 Y0 Z15 F5000 ; move up off last probe point
G4 S1 ; pause
M400 ; wait for moves to finish
M117 Heating... ; progress indicator message on LCD
M109 R240 ; wait for extruder to reach printing temp
M190 S110 ; wait for bed to reach printing temp
G1 Z2 E0 F75 ; prime tiny bit of filament into the nozzle
M117 TAZ 6 Printing... ; progress indicator message on LCD

M221 S100
;LAYER_COUNT:24
;LAYER:-5
M107
G0 F2625 X100.087 Y120.563 Z0.51
G1 F1350 X101.057 Y119.874 E0.09512
G1 X101.664 Y119.478 E0.15306
G1 X102.576 Y118.93 E0.23812
G1 X103.651 Y118.39 E0.33429
G1 X104.301 Y118.097 E0.39129
G1 X105.333 Y117.678 E0.48034
G1 X128.687 Y109.177 E2.46721
G1 X129.491 Y108.91 E2.53494
G1 X130.015 Y108.753 E2.57867
G1 X131.078 Y108.476 E2.66649
G1 X131.684 Y108.356 E2.71588
G1 X132.264 Y108.253 E2.76297
G1 X133.306 Y108.107 E2.84709
G1 X133.937 Y108.058 E2.89768
G1 X134.479 Y108.027 E2.94109
G1 X135.386 Y108 E3.01363
G1 X144.614 Y108 E3.75136
G1 X145.521 Y108.027 E3.8239
G1 X146.037 Y108.057 E3.86522
G1 X147.153 Y108.163 E3.95484
G1 X147.741 Y108.254 E4.00241
G1 X148.301 Y108.353 E4.04787
G1 X149.348 Y108.577 E4.13347
G1 X149.982 Y108.752 E4.18605
G1 X150.509 Y108.91 E4.23003
G1 X151.313 Y109.177 E4.29776
G1 X174.667 Y117.678 E6.28464
G1 X175.699 Y118.097 E6.37368
G1 X176.35 Y118.391 E6.43079
G1 X177.32 Y118.872 E6.51734
G1 X178.347 Y119.485 E6.61296
G1 X178.962 Y119.886 E6.67166
G1 X179.84 Y120.507 E6.75763
G1 X180.723 Y121.237 E6.84922
G1 X181.275 Y121.731 E6.90844
G1 X182.048 Y122.477 E6.99432
G1 X182.83 Y123.356 E7.08838
G1 X183.307 Y123.936 E7.14841
G1 X183.938 Y124.766 E7.23177
G1 X184.603 Y125.794 E7.32965
G1 X184.961 Y126.401 E7.38598
G1 X185.473 Y127.346 E7.47191
G1 X185.933 Y128.374 E7.56194
G1 X186.226 Y129.101 E7.62461
G1 X186.578 Y130.074 E7.70733
G1 X186.885 Y131.188 E7.7997
G1 X187.063 Y131.949 E7.86218
G1 X187.265 Y132.983 E7.94641
G1 X187.399 Y134.12 E8.03794
G1 X187.458 Y134.885 E8.09928
G1 X187.5 Y136.001 E8.18856
G1 X187.5 Y152.485 E9.50637
G1 X187.454 Y153.646 E9.59926
G1 X187.392 Y154.425 E9.66173
G1 X187.272 Y155.473 E9.74606
G1 X187.032 Y156.689 E9.84515
G1 X186.86 Y157.408 E9.90425
G1 X186.572 Y158.441 E9.98998
G1 X186.147 Y159.604 E10.08897
G1 X185.867 Y160.281 E10.14754
G1 X185.411 Y161.28 E10.23533
G1 X184.815 Y162.353 E10.33346
G1 X184.419 Y162.996 E10.39383
G1 X183.819 Y163.899 E10.4805
G1 X183.07 Y164.857 E10.57772
G1 X182.581 Y165.431 E10.638
G1 X181.858 Y166.218 E10.72344
G1 X180.936 Y167.075 E10.82407
G1 X180.335 Y167.588 E10.88724
G1 X179.526 Y168.228 E10.96971
G1 X178.496 Y168.92 E11.06891
G1 X177.858 Y169.311 E11.12873
G1 X177.858 Y169.31 E11.12881
G1 X176.917 Y169.841 E11.21519
G1 X175.806 Y170.356 E11.31309
G1 X175.106 Y170.646 E11.37366
G1 X174.092 Y171.024 E11.46018
G1 X172.906 Y171.36 E11.55872
G1 X172.181 Y171.535 E11.61835
G1 X171.129 Y171.747 E11.70414
G1 X169.914 Y171.894 E11.80198
G1 X169.157 Y171.954 E11.86269
G1 X169.157 Y171.953 E11.86277
G1 X167.985 Y172 E11.95654
G1 X161.7 Y172 E12.45899
G1 X161.7 Y176.439 E12.81387
G1 X161.662 Y177.495 E12.89834
G1 X161.544 Y178.553 E12.98345
G1 X161.353 Y179.59 E13.06775
G1 X161.085 Y180.616 E13.15252
G1 X160.741 Y181.626 E13.23782
G1 X160.332 Y182.588 E13.32139
G1 X159.855 Y183.517 E13.40488
G1 X159.294 Y184.438 E13.49109
G1 X158.674 Y185.305 E13.5763
G1 X158.006 Y186.108 E13.65981
G1 X157.272 Y186.87 E13.74439
G1 X156.48 Y187.579 E13.82937
G1 X155.63 Y188.235 E13.91521
G1 X154.758 Y188.814 E13.99889
G1 X153.841 Y189.328 E14.08293
G1 X152.867 Y189.786 E14.16897
G1 X151.891 Y190.159 E14.2525
G1 X150.877 Y190.464 E14.33716
G1 X149.84 Y190.696 E14.42211
G1 X148.791 Y190.851 E14.50688
G1 X147.738 Y190.928 E14.59129
G1 X147.18 Y190.939 E14.6359
G1 X124.809 Y190.939 E16.42435
G1 X123.744 Y190.901 E16.50955
G1 X122.686 Y190.783 E16.59465
G1 X121.649 Y190.592 E16.67895
G1 X120.623 Y190.324 E16.76373
G1 X119.613 Y189.98 E16.84903
G1 X118.651 Y189.571 E16.93259
G1 X117.72 Y189.093 E17.01626
G1 X116.795 Y188.528 E17.10291
G1 X115.934 Y187.913 E17.1875
G1 X115.131 Y187.245 E17.27101
G1 X114.369 Y186.511 E17.35559
G1 X113.66 Y185.719 E17.44057
G1 X113.004 Y184.869 E17.52641
G1 X112.425 Y183.997 E17.61009
G1 X111.911 Y183.08 E17.69413
G1 X111.453 Y182.106 E17.78017
G1 X111.08 Y181.13 E17.8637
G1 X110.775 Y180.116 E17.94835
G1 X110.543 Y179.079 E18.03331
G1 X110.388 Y178.03 E18.11808
G1 X110.31 Y176.968 E18.20321
G1 X110.3 Y176.448 E18.24479
G1 X110.3 Y171.913 E18.60734
G1 X109.019 Y171.77 E18.71038
G1 X107.81 Y171.532 E18.80889
G1 X107.092 Y171.36 E18.86792
G1 X106.059 Y171.072 E18.95365
G1 X104.902 Y170.649 E19.05213
G1 X104.202 Y170.359 E19.11271
G1 X103.22 Y169.911 E19.199
G1 X102.14 Y169.31 E19.2978
G1 X101.504 Y168.919 E19.35749
G1 X100.601 Y168.319 E19.44416
G1 X99.621 Y167.552 E19.54365
G1 X99.078 Y167.089 E19.6007
G1 X98.281 Y166.358 E19.68716
G1 X97.405 Y165.415 E19.79005
G1 X96.921 Y164.847 E19.84971
G1 X96.272 Y164.026 E19.93338
G1 X95.58 Y162.996 E20.03258
G1 X95.189 Y162.358 E20.0924
G1 X95.19 Y162.358 E20.09248
G1 X94.659 Y161.417 E20.17886
G1 X94.14 Y160.298 E20.27747
G1 X93.853 Y159.604 E20.33751
G1 X93.477 Y158.595 E20.42359
G1 X93.134 Y157.386 E20.52406
G1 X92.967 Y156.687 E20.58152
G1 X92.753 Y155.629 E20.66781
G1 X92.605 Y154.406 E20.7663
G1 X92.545 Y153.646 E20.82724
G1 X92.546 Y153.646 E20.82732
G1 X92.5 Y152.485 E20.92021
G1 X92.5 Y136.001 E22.23802
G1 X92.541 Y134.904 E22.32578
G1 X92.598 Y134.157 E22.38568
G1 X92.721 Y133.076 E22.47265
G1 X92.937 Y131.948 E22.56447
G1 X93.109 Y131.206 E22.62536
G1 X93.384 Y130.195 E22.70912
G1 X93.78 Y129.084 E22.80342
G1 X94.065 Y128.376 E22.86443
G1 X94.5 Y127.399 E22.94993
G1 X95.03 Y126.416 E23.03921
G1 X95.408 Y125.777 E23.09856
G1 X95.997 Y124.858 E23.18583
G1 X96.693 Y123.936 E23.27818
G1 X97.178 Y123.346 E23.33924
G1 X97.877 Y122.556 E23.42357
G1 X98.727 Y121.73 E23.51832
G1 X99.265 Y121.247 E23.57612
G1 X100.087 Y120.563 E23.66161
G0 F2625 X100 Y120.635
G1 F1350 X100 Y167.848 E27.43605
G0 F2625 X102 Y169.223
G1 F1350 X102 Y119.276 E31.42905
G0 F2625 X104 Y118.232
G1 F1350 X104 Y170.266 E35.58891
G0 F2625 X106 Y171.05
G1 F1350 X106 Y117.435 E39.87515
G0 F2625 X108 Y116.707
G1 F1350 X108 Y171.569 E44.26108
G0 F2625 X110 Y171.879
G1 F1350 X110 Y115.979 E48.73
G0 F2625 X112 Y115.251
G1 F1350 X112 Y183.238 E54.16521
G0 F2625 X114 Y186.098
G1 F1350 X114 Y114.523 E59.88727
G0 F2625 X116 Y113.795
G1 F1350 X116 Y187.96 E65.81638
G0 F2625 X118 Y189.236
G1 F1350 X118 Y113.067 E71.9057
G0 F2625 X120 Y112.339
G1 F1350 X120 Y190.111 E78.12317
G0 F2625 X122 Y190.656
G1 F1350 X122 Y111.611 E84.44241
G0 F2625 X124 Y110.883
G1 F1350 X124 Y190.91 E90.84016
G0 F2625 X126 Y190.939
G1 F1350 X126 Y110.155 E97.29843
G0 F2625 X128 Y109.427
G1 F1350 X128 Y190.939 E103.81489
G0 F2625 X130 Y190.939
G1 F1350 X130 Y108.757 E110.38492
G0 F2625 X132 Y108.299
G1 F1350 X132 Y190.939 E116.99156
G0 F2625 X134 Y190.939
G1 F1350 X134 Y108.054 E123.6178
G0 F2625 X136 Y108
G1 F1350 X136 Y190.939 E130.24834
G0 F2625 X138 Y190.939
G1 F1350 X138 Y108 E136.87889
G0 F2625 X140 Y108
G1 F1350 X140 Y190.939 E143.50944
G0 F2625 X142 Y190.939
G1 F1350 X142 Y108 E150.13998
G0 F2625 X144 Y108
G1 F1350 X144 Y190.939 E156.77053
G0 F2625 X146 Y190.939
G1 F1350 X146 Y108.055 E163.39668
G0 F2625 X148 Y108.3
G1 F1350 X148 Y190.909 E170.00085
G0 F2625 X150 Y190.661
G1 F1350 X150 Y108.758 E176.54857
G0 F2625 X152 Y109.428
G1 F1350 X152 Y190.118 E182.99932
G0 F2625 X154 Y189.239
G1 F1350 X154 Y110.156 E189.3216
G0 F2625 X156 Y110.884
G1 F1350 X156 Y187.95 E195.48263
G0 F2625 X158 Y186.115
G1 F1350 X158 Y111.612 E201.43877
G0 F2625 X160 Y112.34
G1 F1350 X160 Y183.235 E207.10646
G0 F2625 X162 Y172
G1 F1350 X162 Y113.068 E211.81777
G0 F2625 X164 Y113.796
G1 F1350 X164 Y172 E216.47088
G0 F2625 X166 Y172
G1 F1350 X166 Y114.524 E221.06579
G0 F2625 X168 Y115.252
G1 F1350 X168 Y172 E225.6025
G0 F2625 X170 Y171.884
G1 F1350 X170 Y115.98 E230.07174
G0 F2625 X172 Y116.708
G1 F1350 X172 Y171.572 E234.45783
G0 F2625 X174 Y171.051
G1 F1350 X174 Y117.436 E238.74408
G0 F2625 X176 Y118.233
G1 F1350 X176 Y170.267 E242.90393
G0 F2625 X178 Y169.224
G1 F1350 X178 Y119.278 E246.89685
G0 F2625 X180 Y120.64
G1 F1350 X180 Y167.854 E250.67137
G0 F2625 X182 Y166.064
G1 F1350 X182 Y122.431 E254.15961
G0 F2625 X184 Y124.862
G1 F1350 X184 Y163.627 E257.25867
G0 F2625 X186 Y159.96
G1 F1350 X186 Y128.541 E259.77046
G0 F2625 X98 Y122.436
G1 F1350 X98 Y166.055 E263.25757
G0 F2625 X96 Y163.621
G1 F1350 X96 Y124.854 E266.35679
G0 F2625 X94 Y128.537
M104 S240
G1 F1350 X94 Y159.959 E268.86882
G0 F2625 X99.232 Y121.275
;TIME_ELAPSED:160.914280
;LAYER:-4
M140 S110
M221 S100
G0 X99.232 Y121.275 Z1.08
;TYPE:SUPPORT
G1 F1350 X98.726 Y121.729 E268.92956
G1 X98.353 Y122.092 E268.97607
G1 X159.825 Y183.564 E276.74368
G1 X159.294 Y184.437 E276.83498
G1 X159.173 Y184.607 E276.85362
G1 X97.522 Y122.956 E284.64386
G1 X97.178 Y123.345 E284.69025
G1 X96.743 Y123.873 E284.75138
G1 X158.447 Y185.577 E292.54831
G1 X158.005 Y186.107 E292.60997
G1 X157.65 Y186.476 E292.65572
G1 X96.011 Y124.837 E300.44444
G1 X95.997 Y124.857 E300.44662
G1 X95.407 Y125.776 E300.5442
G1 X95.35 Y125.872 E300.55417
G1 X156.783 Y187.305 E308.31686
G1 X156.479 Y187.578 E308.35336
G1 X155.848 Y188.065 E308.42458
G1 X94.738 Y126.955 E316.14645
G1 X94.499 Y127.398 E316.19143
G1 X94.187 Y128.1 E316.26007
G1 X154.843 Y188.756 E323.92457
G1 X154.758 Y188.813 E323.93372
G1 X153.84 Y189.327 E324.02772
G1 X153.757 Y189.366 E324.03592
G1 X93.699 Y129.307 E331.62492
G1 X93.384 Y130.194 E331.70902
G1 X93.277 Y130.582 E331.74498
G1 X152.587 Y189.891 E339.23934
G1 X151.89 Y190.157 E339.306
G1 X151.327 Y190.326 E339.35852
G1 X92.938 Y131.938 E346.73651
G1 X92.937 Y131.946 E346.73723
G1 X92.72 Y133.075 E346.83995
G1 X92.685 Y133.38 E346.86738
G1 X149.97 Y190.665 E354.10592
G1 X149.84 Y190.695 E354.11784
G1 X148.791 Y190.85 E354.21259
G1 X148.481 Y190.872 E354.24036
G1 X92.539 Y134.93 E361.3092
G1 X92.5 Y135.999 E361.40478
G1 X92.5 Y136.586 E361.45723
G1 X146.851 Y190.937 E368.32503
G1 X145.155 Y190.937 E368.47657
G1 X92.5 Y138.282 E375.13006
G1 X92.5 Y139.978 E375.2816
G1 X143.459 Y190.937 E381.72079
G1 X141.764 Y190.937 E381.87224
G1 X92.5 Y141.673 E388.09725
G1 X92.5 Y143.369 E388.24878
G1 X140.068 Y190.937 E394.25948
G1 X138.373 Y190.937 E394.41093
G1 X92.5 Y145.065 E400.20739
G1 X92.5 Y146.76 E400.35884
G1 X136.677 Y190.937 E405.94105
G1 X134.981 Y190.937 E406.09259
G1 X92.5 Y148.456 E411.4605
G1 X92.5 Y150.152 E411.61204
G1 X133.286 Y190.937 E416.7657
G1 X131.59 Y190.937 E416.91724
G1 X92.5 Y151.847 E421.85666
G1 X92.5 Y152.484 E421.91357
G1 X92.543 Y153.586 E422.01211
G1 X129.894 Y190.937 E426.73179
G1 X128.199 Y190.937 E426.88324
G1 X110.3 Y173.038 E429.14496
G1 X110.3 Y174.734 E429.2965
G1 X126.503 Y190.937 E431.34391
G1 X124.809 Y190.937 E431.49527
G0 F2625 X124.807 Y190.937
G1 F1350 X110.3 Y176.43 E433.32838
G1 X110.3 Y176.447 E433.3299
G1 X110.31 Y176.967 E433.37637
G1 X110.387 Y178.029 E433.47151
G1 X110.419 Y178.245 E433.49102
G1 X122.99 Y190.816 E435.07949
G1 X122.686 Y190.782 E435.10682
G1 X121.648 Y190.591 E435.20112
G1 X120.865 Y190.386 E435.27344
G1 X110.852 Y180.373 E436.53869
G1 X111.08 Y181.128 E436.60916
G1 X111.452 Y182.105 E436.70257
G1 X111.91 Y183.079 E436.79873
G1 X111.971 Y183.188 E436.80989
G1 X118.039 Y189.256 E437.57665
G0 F2625 X124.807 Y190.937
G1 F1350 X124.809 Y190.937 E437.57683
G0 F2625 X109.729 Y172.423
G0 X109.031 Y171.77
G1 F1350 X92.733 Y155.472 E439.63625
G1 X92.752 Y155.628 E439.65029
G1 X92.967 Y156.686 E439.74675
G1 X93.133 Y157.385 E439.81094
G1 X93.205 Y157.64 E439.83462
G1 X106.86 Y171.294 E441.56
G1 X106.058 Y171.071 E441.63438
G1 X104.901 Y170.648 E441.74445
G1 X104.246 Y170.376 E441.80782
G1 X94.12 Y160.25 E443.08735
G1 X94.139 Y160.296 E443.09179
G1 X94.658 Y161.416 E443.20209
G1 X95.19 Y162.356 E443.29859
G1 X95.189 Y162.357 E443.29872
G1 X95.579 Y162.995 E443.36553
G1 X96.271 Y164.025 E443.47641
G1 X96.544 Y164.37 E443.51571
G1 X100.1 Y167.926 E443.96505
G0 F2625 X99.232 Y121.275
G1 F1350 X160.395 Y182.439 E451.69368
G1 X160.741 Y181.625 E451.77271
G1 X160.878 Y181.225 E451.81049
G1 X100.162 Y120.51 E459.48251
G1 X101.056 Y119.872 E459.58065
G1 X101.156 Y119.808 E459.59125
G1 X161.267 Y179.919 E467.18689
G1 X161.353 Y179.589 E467.21736
G1 X161.543 Y178.552 E467.31156
G1 X161.549 Y178.505 E467.31579
G1 X102.199 Y119.155 E474.81527
G1 X102.575 Y118.929 E474.85447
G1 X103.303 Y118.564 E474.92723
G1 X161.682 Y176.942 E482.30395
G1 X161.699 Y176.438 E482.34901
G1 X161.699 Y175.264 E482.45391
G1 X104.465 Y118.03 E489.686
G1 X105.332 Y117.677 E489.76965
G1 X105.681 Y117.55 E489.80283
G1 X161.699 Y173.569 E496.88134
G1 X161.699 Y171.999 E497.02162
G1 X161.825 Y171.999 E497.03287
G1 X106.924 Y117.098 E503.97018
G1 X108.167 Y116.645 E504.08838
G1 X163.521 Y171.999 E511.08292
G1 X165.216 Y171.999 E511.23437
G1 X109.41 Y116.193 E518.28603
G1 X110.654 Y115.741 E518.40429
G1 X166.912 Y171.999 E525.51306
G1 X167.984 Y171.999 E525.60885
G1 X168.584 Y171.975 E525.6625
G1 X111.897 Y115.288 E532.82548
G1 X113.14 Y114.836 E532.94366
G1 X170.166 Y171.862 E540.14947
G1 X171.129 Y171.745 E540.23615
G1 X171.642 Y171.642 E540.2829
G1 X114.383 Y114.383 E547.51816
G1 X115.626 Y113.931 E547.63633
G1 X173.021 Y171.326 E554.88878
G1 X174.091 Y171.023 E554.98814
G1 X174.326 Y170.935 E555.01056
G1 X116.869 Y113.478 E562.27084
G1 X118.112 Y113.026 E562.38902
G1 X175.548 Y170.461 E569.64658
G1 X175.805 Y170.356 E569.67138
G1 X176.715 Y169.933 E569.76105
G1 X119.356 Y112.573 E577.009
G1 X120.599 Y112.12 E577.12721
G1 X177.812 Y169.334 E584.35672
G1 X177.857 Y169.309 E584.36132
G1 X177.857 Y169.311 E584.3615
G1 X178.495 Y168.92 E584.42836
G1 X178.853 Y168.679 E584.46692
G1 X121.842 Y111.668 E591.67084
G1 X123.086 Y111.216 E591.7891
G1 X179.844 Y167.975 E598.96111
G1 X180.334 Y167.587 E599.01696
G1 X180.775 Y167.21 E599.0688
G1 X124.329 Y110.764 E606.20133
G1 X125.572 Y110.311 E606.31953
G1 X181.66 Y166.399 E613.40682
G1 X181.857 Y166.217 E613.43079
G1 X182.487 Y165.531 E613.51401
G1 X126.815 Y109.858 E620.54879
G1 X128.058 Y109.406 E620.66697
G1 X183.262 Y164.61 E627.64256
G1 X183.818 Y163.898 E627.72328
G1 X183.989 Y163.642 E627.75078
G1 X129.315 Y108.967 E634.65946
G1 X129.489 Y108.91 E634.67582
G1 X130.014 Y108.753 E634.72478
G1 X130.635 Y108.591 E634.78213
G1 X184.655 Y162.611 E641.60811
G1 X184.814 Y162.352 E641.63526
