;Generated by Cura LulzBot Edition GCodeWriter Version: 2.6.69
;FLAVOR:RepRap
;TIME:1092
;Filament used: 1.00331m
;Layer height: 0.38
;Generated with Cura_SteamEngine 2.6.69
;This G-Code has been generated specifically for the LulzBot TAZ 6 with standard extruder
G26 ; clear potential 'probe fail' condition
G21 ; set units to Millimetres
M107 ; disable fans
G90 ; absolute positioning
M82 ; set extruder to absolute mode
G92 E0 ; set extruder position to 0
M140 S110 ; start bed heating up
G28 XY ; home X and Y
G1 X-19 Y258 F1000 ; move to safe homing position
M109 R175 ; soften filament before homing Z
G28 Z ; home Z
G1 E-30 F100 ; retract filament
M109 R170 ; wait for extruder to reach wiping temp
G1 X-15 Y100 F3000 ; move above wiper pad
G1 Z1 ; push nozzle into wiper
G1 X-17 Y95 F1000 ; slow wipe
G1 X-17 Y90 F1000 ; slow wipe
G1 X-17 Y85 F1000 ; slow wipe
G1 X-15 Y90 F1000 ; slow wipe
G1 X-17 Y80 F1000 ; slow wipe
G1 X-15 Y95 F1000 ; slow wipe
G1 X-17 Y75 F2000 ; fast wipe
G1 X-15 Y65 F2000 ; fast wipe
G1 X-17 Y70 F2000 ; fast wipe
G1 X-15 Y60 F2000 ; fast wipe
G1 X-17 Y55 F2000 ; fast wipe
G1 X-15 Y50 F2000 ; fast wipe
G1 X-17 Y40 F2000 ; fast wipe
G1 X-15 Y45 F2000 ; fast wipe
G1 X-17 Y35 F2000 ; fast wipe
G1 X-15 Y40 F2000 ; fast wipe
G1 X-17 Y70 F2000 ; fast wipe
G1 X-15 Y30 Z2 F2000 ; fast wipe
G1 X-17 Y35 F2000 ; fast wipe
G1 X-15 Y25 F2000 ; fast wipe
G1 X-17 Y30 F2000 ; fast wipe
G1 X-15 Y25 Z1.5 F1000 ; slow wipe
G1 X-17 Y23 F1000 ; slow wipe
G1 Z10 ; raise extruder
M109 R170 ; wait for extruder to reach probe temp
G1 X-9 Y-9 ; move above first probe point
M204 S100 ; set probing acceleration
G29 ; start auto-leveling sequence
M204 S500 ; restore standard acceleration
G1 X0 Y0 Z15 F5000 ; move up off last probe point
G4 S1 ; pause
M400 ; wait for moves to finish
M117 Heating... ; progress indicator message on LCD
M109 R240 ; wait for extruder to reach printing temp
M190 S110 ; wait for bed to reach printing temp
G1 Z2 E0 F75 ; prime tiny bit of filament into the nozzle
M117 TAZ 6 Printing... ; progress indicator message on LCD

M221 S100
;LAYER_COUNT:6
;LAYER:-5
M107
G0 F2625 X106.061 Y120.526 Z0.51
G1 F1350 X106.624 Y120.046 E0.05915
G1 X107.236 Y119.602 E0.11959
G1 X107.863 Y119.218 E0.17837
G1 X108.524 Y118.88 E0.23772
G1 X109.214 Y118.595 E0.29741
G1 X109.929 Y118.363 E0.3575
G1 X110.642 Y118.192 E0.41612
G1 X111.391 Y118.074 E0.47673
G1 X112.131 Y118.015 E0.53608
G1 X112.131 Y118.016 E0.53616
G1 X112.518 Y118 E0.56713
G1 X167.482 Y118 E4.96122
G1 X167.869 Y118.016 E4.99218
G1 X167.869 Y118.015 E4.99226
G1 X168.609 Y118.074 E5.05161
G1 X169.358 Y118.192 E5.11222
G1 X170.071 Y118.363 E5.17084
G1 X170.786 Y118.595 E5.23094
G1 X171.476 Y118.88 E5.29062
G1 X172.137 Y119.218 E5.34997
G1 X172.764 Y119.602 E5.40875
G1 X173.376 Y120.046 E5.46919
G1 X173.939 Y120.526 E5.52834
G1 X174.474 Y121.061 E5.58883
G1 X174.954 Y121.624 E5.64797
G1 X175.398 Y122.236 E5.70842
G1 X175.782 Y122.863 E5.7672
G1 X176.12 Y123.524 E5.82655
G1 X176.405 Y124.214 E5.88623
G1 X176.637 Y124.929 E5.94633
G1 X176.808 Y125.642 E6.00495
G1 X176.926 Y126.391 E6.06556
G1 X176.985 Y127.143 E6.12587
G1 X177 Y127.517 E6.15579
G1 X177 Y143.999 E7.47344
G1 X176.988 Y144.333 E7.50016
G1 X176.93 Y145.088 E7.5607
G1 X176.82 Y145.794 E7.61782
G1 X176.655 Y146.504 E7.67609
G1 X176.436 Y147.2 E7.73442
G1 X176.16 Y147.883 E7.79331
G1 X175.857 Y148.499 E7.8482
G1 X175.474 Y149.148 E7.90844
G1 X175.063 Y149.736 E7.96579
G1 X174.593 Y150.309 E8.02504
G1 X174.113 Y150.811 E8.08057
G1 X173.569 Y151.298 E8.13894
G1 X172.983 Y151.748 E8.198
G1 X172.375 Y152.144 E8.25601
G1 X171.736 Y152.495 E8.3143
G1 X171.077 Y152.793 E8.37212
G1 X170.754 Y152.923 E8.39995
G1 X147.379 Y161.431 E10.3886
G1 X147.144 Y161.51 E10.40842
G1 X146.607 Y161.67 E10.45321
G1 X146.06 Y161.801 E10.49818
G1 X145.527 Y161.894 E10.54143
G1 X144.963 Y161.96 E10.58683
G1 X144.436 Y161.99 E10.62903
G1 X144.113 Y162 E10.65486
G1 X135.887 Y162 E11.31249
G1 X135.564 Y161.99 E11.33832
G1 X135.037 Y161.96 E11.38052
G1 X134.473 Y161.894 E11.42592
G1 X133.94 Y161.801 E11.46917
G1 X133.393 Y161.67 E11.51414
G1 X132.856 Y161.51 E11.55894
G1 X132.621 Y161.431 E11.57876
G1 X109.246 Y152.923 E13.5674
G1 X108.923 Y152.793 E13.59524
G1 X108.264 Y152.495 E13.65306
G1 X107.625 Y152.144 E13.71134
G1 X107.017 Y151.748 E13.76935
G1 X106.431 Y151.298 E13.82842
G1 X105.887 Y150.811 E13.88679
G1 X105.407 Y150.309 E13.94231
G1 X104.937 Y149.736 E14.00156
G1 X104.526 Y149.148 E14.05891
G1 X104.143 Y148.499 E14.11916
G1 X103.84 Y147.883 E14.17404
G1 X103.564 Y147.2 E14.23293
G1 X103.345 Y146.504 E14.29126
G1 X103.18 Y145.794 E14.34954
G1 X103.07 Y145.088 E14.40666
G1 X103.012 Y144.333 E14.46719
G1 X103 Y143.999 E14.49391
G1 X103 Y127.517 E15.81156
G1 X103.015 Y127.143 E15.84149
G1 X103.074 Y126.391 E15.90179
G1 X103.192 Y125.642 E15.96241
G1 X103.363 Y124.929 E16.02103
G1 X103.595 Y124.214 E16.08112
G1 X103.88 Y123.524 E16.1408
G1 X104.218 Y122.863 E16.20015
G1 X104.602 Y122.236 E16.25893
G1 X105.046 Y121.624 E16.31938
G1 X105.526 Y121.061 E16.37853
G1 X106.061 Y120.526 E16.43901
G0 F2625 X122.628 Y130
G1 F1350 X123.119 Y131.966 E16.60101
G1 X123.736 Y133.509 E16.73386
G1 X124.462 Y134.915 E16.86036
G1 X125.31 Y136.228 E16.98532
G1 X126.268 Y137.427 E17.10801
G1 X127.339 Y138.53 E17.23092
G1 X128.517 Y139.519 E17.35389
G1 X129.826 Y140.419 E17.48088
G1 X131.25 Y141.205 E17.61092
G1 X132.798 Y141.879 E17.74589
G1 X134.417 Y142.408 E17.88206
G1 X136.137 Y142.801 E18.02311
G1 X137.91 Y143.041 E18.16614
G1 X139.72 Y143.125 E18.311
G1 X141.523 Y143.052 E18.45526
G1 X143.308 Y142.821 E18.59915
G1 X145.023 Y142.448 E18.73946
G1 X146.692 Y141.929 E18.87919
G1 X148.24 Y141.292 E19.01301
G1 X149.701 Y140.534 E19.14459
G1 X151.05 Y139.67 E19.27266
G1 X152.35 Y138.652 E19.40466
G1 X152.538 Y138.488 E19.42461
G1 X153.652 Y137.386 E19.54988
G1 X154.623 Y136.221 E19.67112
G1 X155.463 Y134.991 E19.7902
G1 X156.198 Y133.661 E19.91168
G1 X156.81 Y132.246 E20.03493
G1 X157.545 Y130 E20.22386
G1 X122.628 Y130 E23.01529
G0 F2625 X124 Y130
G1 F1350 X124 Y118 E23.97463
G0 F2625 X122 Y118
G1 F1350 X122 Y157.565 E27.13765
G0 F2625 X124 Y158.293
G1 F1350 X124 Y134.021 E29.07807
G0 F2625 X126 Y137.092
G1 F1350 X126 Y159.021 E30.83118
G0 F2625 X128 Y159.749
G1 F1350 X128 Y139.085 E32.48316
G0 F2625 X130 Y140.516
G1 F1350 X130 Y160.477 E34.07894
G0 F2625 X132 Y161.204
G1 F1350 X132 Y141.532 E35.65162
G0 F2625 X134 Y142.272
G1 F1350 X134 Y161.811 E37.21366
G0 F2625 X136 Y162
G1 F1350 X136 Y142.77 E38.751
G0 F2625 X138 Y143.046
G1 F1350 X138 Y162 E40.26628
G0 F2625 X140 Y162
G1 F1350 X140 Y143.113 E41.77619
G0 F2625 X142 Y142.99
G1 F1350 X142 Y162 E43.29595
G0 F2625 X144 Y162
G1 F1350 X144 Y142.67 E44.84128
G0 F2625 X146 Y142.144
G1 F1350 X146 Y161.812 E46.41364
G0 F2625 X148 Y161.205
G1 F1350 X148 Y141.39 E47.99774
G0 F2625 X150 Y140.342
G1 F1350 X150 Y160.478 E49.60751
G0 F2625 X152 Y159.75
G1 F1350 X152 Y138.926 E51.27228
G0 F2625 X154 Y136.968
G1 F1350 X154 Y159.022 E53.03539
G0 F2625 X156 Y158.294
G1 F1350 X156 Y134.019 E54.97605
G0 F2625 X156.749 Y130.577
G0 X156 Y130
G1 F1350 X156 Y118 E55.93539
G0 F2625 X154 Y118
G1 F1350 X154 Y130 E56.89473
G0 F2625 X152 Y130
G1 F1350 X152 Y118 E57.85407
G0 F2625 X150 Y118
G1 F1350 X150 Y130 E58.8134
G0 F2625 X148 Y130
G1 F1350 X148 Y118 E59.77274
G0 F2625 X146 Y118
G1 F1350 X146 Y130 E60.73208
G0 F2625 X144 Y130
G1 F1350 X144 Y118 E61.69142
G0 F2625 X142 Y118
G1 F1350 X142 Y130 E62.65076
G0 F2625 X140 Y130
G1 F1350 X140 Y118 E63.6101
G0 F2625 X138 Y118
G1 F1350 X138 Y130 E64.56943
G0 F2625 X136 Y130
G1 F1350 X136 Y118 E65.52877
G0 F2625 X134 Y118
G1 F1350 X134 Y130 E66.48811
G0 F2625 X132 Y130
G1 F1350 X132 Y118 E67.44745
G0 F2625 X130 Y118
G1 F1350 X130 Y130 E68.40679
G0 F2625 X128 Y130
G1 F1350 X128 Y118 E69.36613
G0 F2625 X126 Y118
G1 F1350 X126 Y130 E70.32546
G0 F2625 X120 Y118
G1 F1350 X120 Y156.837 E73.43028
G0 F2625 X118 Y156.109
G1 F1350 X118 Y118 E76.4769
G0 F2625 X116 Y118
G1 F1350 X116 Y155.381 E79.46532
G0 F2625 X114 Y154.653
G1 F1350 X114 Y118 E82.39554
G0 F2625 X112 Y118.025
G1 F1350 X112 Y153.925 E85.26556
G0 F2625 X110 Y153.197
G1 F1350 X110 Y118.345 E88.0518
G0 F2625 X108 Y119.147
G1 F1350 X108 Y152.349 E90.70613
G0 F2625 X106 Y150.912
G1 F1350 X106 Y120.587 E93.13046
G0 F2625 X104 Y123.289
G1 F1350 X104 Y148.208 E95.1226
G0 F2625 X158 Y157.566
G1 F1350 X158 Y118 E98.2857
G0 F2625 X160 Y118
G1 F1350 X160 Y156.838 E101.3906
G0 F2625 X162 Y156.11
G1 F1350 X162 Y118 E104.4373
G0 F2625 X164 Y118
G1 F1350 X164 Y155.382 E107.4258
G0 F2625 X166 Y154.654
G1 F1350 X166 Y118 E110.3561
G0 F2625 X168 Y118.026
G1 F1350 X168 Y153.926 E113.22612
G0 F2625 X170 Y153.198
G1 F1350 X170 Y118.346 E116.01236
G0 F2625 X172 Y119.148
G1 F1350 X172 Y152.35 E118.66669
G0 F2625 X174 Y150.913
G1 F1350 X174 Y120.587 E121.09109
G0 F2625 X176 Y123.29
M104 S240
G1 F1350 X176 Y148.209 E123.08324
G0 F2625 X156.749 Y130.577
G0 X106.546 Y120.111
;TIME_ELAPSED:81.270677
;LAYER:-4
M140 S110
M221 S100
G0 X106.546 Y120.111 Z1.08
;TYPE:SUPPORT
G1 F1350 X106.623 Y120.044 E123.09236
G1 X107.235 Y119.601 E123.15986
G1 X107.543 Y119.413 E123.19211
G1 X148.978 Y160.847 E128.42778
G1 X150.221 Y160.395 E128.54595
G1 X130.761 Y140.934 E131.00499
G1 X131.249 Y141.204 E131.05482
G1 X132.797 Y141.878 E131.20567
G1 X133.692 Y142.17 E131.28979
G1 X151.464 Y159.942 E133.53546
G1 X152.707 Y159.49 E133.65364
G1 X135.982 Y142.765 E135.76702
G1 X136.136 Y142.8 E135.78113
G1 X137.909 Y143.04 E135.94099
G1 X137.955 Y143.042 E135.9451
G1 X153.951 Y159.038 E137.96636
G1 X155.194 Y158.585 E138.08457
G1 X139.732 Y143.124 E140.03829
G1 X141.362 Y143.058 E140.18405
G1 X156.437 Y158.133 E142.08893
G1 X157.68 Y157.68 E142.20713
G1 X142.876 Y142.876 E144.07777
G1 X143.307 Y142.82 E144.1166
G1 X144.3 Y142.605 E144.20738
G1 X158.923 Y157.228 E146.05515
G1 X160.166 Y156.775 E146.17336
G1 X145.645 Y142.254 E148.00823
G1 X146.69 Y141.929 E148.10602
G1 X146.921 Y141.835 E148.1283
G1 X161.409 Y156.322 E149.95894
G1 X162.653 Y155.871 E150.07717
G1 X148.123 Y141.34 E151.91325
G1 X148.239 Y141.292 E151.92447
G1 X149.247 Y140.769 E152.02593
G1 X163.896 Y155.418 E153.87698
G1 X165.139 Y154.965 E153.99519
G1 X150.315 Y140.141 E155.86835
G1 X151.049 Y139.67 E155.94628
G1 X151.325 Y139.455 E155.97754
G1 X166.382 Y154.513 E157.88021
G1 X167.626 Y154.06 E157.9985
G1 X152.275 Y138.71 E159.93819
G1 X152.348 Y138.652 E159.94652
G1 X152.537 Y138.488 E159.96888
G1 X153.146 Y137.885 E160.04546
G1 X168.869 Y153.608 E162.03222
G1 X170.112 Y153.155 E162.15042
G1 X153.964 Y137.008 E164.19083
G1 X154.622 Y136.22 E164.28255
G1 X154.723 Y136.071 E164.29864
G1 X171.329 Y152.677 E166.39697
G1 X171.735 Y152.494 E166.43676
G1 X172.374 Y152.143 E166.5019
G1 X172.444 Y152.097 E166.50939
G1 X155.411 Y135.063 E168.66175
G1 X155.461 Y134.99 E168.66965
G1 X156.021 Y133.978 E168.77299
G1 X173.439 Y151.396 E170.97394
G1 X173.567 Y151.298 E170.98834
G1 X174.112 Y150.81 E171.0537
G1 X174.326 Y150.587 E171.08132
G1 X156.56 Y132.821 E173.32623
G1 X156.809 Y132.245 E173.3823
G1 X157.023 Y131.589 E173.44396
G1 X175.107 Y149.672 E175.72899
G1 X175.473 Y149.147 E175.78617
G1 X175.772 Y148.642 E175.83861
G1 X157.442 Y130.312 E178.15479
G0 F2625 X157.129 Y129.999
G1 F1350 X155.434 Y129.999 E178.30624
G1 X143.434 Y117.999 E179.82256
G1 X141.738 Y117.999 E179.9741
G1 X153.738 Y129.999 E181.49042
G1 X152.042 Y129.999 E181.64196
G1 X140.043 Y117.999 E183.15822
G1 X138.347 Y117.999 E183.30976
G1 X150.347 Y129.999 E184.82608
G1 X148.651 Y129.999 E184.97762
G1 X136.651 Y117.999 E186.49394
G1 X134.956 Y117.999 E186.64539
G1 X146.955 Y129.999 E188.16165
G1 X145.26 Y129.999 E188.3131
G1 X133.26 Y117.999 E189.82942
G1 X131.564 Y117.999 E189.98096
G1 X143.564 Y129.999 E191.49728
G1 X141.868 Y129.999 E191.64882
G1 X129.869 Y117.999 E193.16508
G1 X128.173 Y117.999 E193.31662
G1 X140.173 Y129.999 E194.83294
G1 X138.476 Y129.998 E194.98456
G1 X126.478 Y117.999 E196.5007
G1 X124.782 Y117.999 E196.65223
G1 X136.781 Y129.998 E198.16843
G1 X135.085 Y129.998 E198.31997
G1 X123.086 Y117.999 E199.83616
G1 X121.391 Y117.999 E199.98761
G1 X133.39 Y129.998 E201.50381
G1 X131.694 Y129.998 E201.65535
G1 X119.695 Y117.999 E203.17154
G1 X117.999 Y117.999 E203.32308
G1 X129.998 Y129.998 E204.83928
G1 X128.303 Y129.998 E204.99072
G1 X116.304 Y117.999 E206.50692
G1 X114.608 Y117.999 E206.65846
G1 X126.607 Y129.998 E208.17465
G1 X124.911 Y129.998 E208.32619
G1 X112.912 Y117.999 E209.84239
G1 X112.517 Y117.999 E209.87768
G1 X112.13 Y118.015 E209.91229
G1 X112.13 Y118.014 E209.91238
G1 X111.391 Y118.073 E209.97862
G1 X111.304 Y118.087 E209.98649
G1 X123.216 Y129.998 E211.49163
G1 X122.627 Y129.998 E211.54426
G1 X122.996 Y131.475 E211.68028
G1 X109.895 Y118.373 E213.33579
G1 X109.214 Y118.594 E213.39976
G1 X108.652 Y118.826 E213.45409
G1 X124.165 Y134.338 E215.41425
G0 F2625 X103 Y133.521
G1 F1350 X103 Y131.825 E215.56579
G1 X132.594 Y161.42 E219.30536
G1 X132.621 Y161.43 E219.30793
G1 X132.856 Y161.509 E219.33008
G1 X133.393 Y161.669 E219.38015
G1 X133.94 Y161.8 E219.4304
G1 X134.473 Y161.893 E219.47875
G1 X134.801 Y161.931 E219.50825
G1 X103 Y130.13 E223.52663
G1 X103 Y128.434 E223.67817
G1 X136.564 Y161.998 E227.91932
G1 X138.259 Y161.998 E228.07077
G1 X103.043 Y126.782 E232.52067
G1 X103.074 Y126.39 E232.5558
G1 X103.192 Y125.641 E232.62355
G1 X103.27 Y125.313 E232.65368
G1 X139.955 Y161.998 E237.2892
G1 X141.651 Y161.998 E237.44074
G1 X103.673 Y124.021 E242.23958
G1 X103.879 Y123.523 E242.28773
G1 X104.214 Y122.866 E242.35363
G1 X143.346 Y161.998 E247.29835
G1 X144.112 Y161.999 E247.3668
G1 X144.435 Y161.988 E247.39567
G1 X144.963 Y161.959 E247.44292
G1 X144.998 Y161.955 E247.44607
G1 X104.885 Y121.842 E252.51476
G1 X105.045 Y121.623 E252.53899
G1 X105.526 Y121.06 E252.60515
G1 X105.662 Y120.923 E252.6224
G1 X146.446 Y161.707 E257.77587
G1 X146.606 Y161.669 E257.79057
G1 X147.143 Y161.509 E257.84063
G1 X147.378 Y161.43 E257.86279
G1 X147.735 Y161.3 E257.89673
G1 X106.546 Y120.111 E263.10138
G0 F2625 X103 Y133.521
G1 F1350 X129.928 Y160.45 E266.50407
G1 X127.262 Y159.479 E266.75759
G1 X103 Y135.217 E269.82334
G1 X103 Y136.912 E269.97479
G1 X124.596 Y158.509 E272.70372
G1 X121.93 Y157.539 E272.95721
G1 X103 Y138.608 E275.34927
G1 X103 Y140.304 E275.50081
G1 X119.264 Y156.568 E277.55593
G1 X116.598 Y155.598 E277.80942
G1 X103 Y141.999 E279.52772
G1 X103 Y143.695 E279.67926
G1 X113.932 Y154.627 E281.06063
G1 X111.266 Y153.657 E281.31412
G1 X103.138 Y145.529 E282.34117
G1 X103.18 Y145.793 E282.36506
G1 X103.344 Y146.503 E282.43017
G1 X103.563 Y147.199 E282.49536
G1 X103.84 Y147.882 E282.56121
G1 X103.882 Y147.969 E282.56985
G1 X108.526 Y152.612 E283.1566
G0 F2625 X123.365 Y130.576
G0 X145.13 Y117.999
G1 F1350 X146.825 Y117.999 E283.30805
G1 X176.317 Y147.491 E287.03466
G1 X176.435 Y147.2 E287.06272
G1 X176.653 Y146.504 E287.12789
G1 X176.724 Y146.202 E287.15561
G1 X148.521 Y117.999 E290.71934
G1 X150.217 Y117.999 E290.87088
G1 X176.956 Y144.739 E294.24969
G1 X176.987 Y144.333 E294.28607
G1 X176.999 Y143.998 E294.31602
G1 X176.999 Y143.086 E294.39751
G1 X151.912 Y117.999 E297.56751
G1 X153.608 Y117.999 E297.71904
G1 X176.999 Y141.39 E300.67474
G1 X176.999 Y139.695 E300.82618
G1 X155.303 Y117.999 E303.56769
G1 X156.999 Y117.999 E303.71923
G1 X176.999 Y137.999 E306.24644
G1 X176.999 Y136.304 E306.39788
G1 X158.695 Y117.999 E308.71084
G1 X160.39 Y117.999 E308.86229
G1 X176.999 Y134.608 E310.96101
G1 X176.999 Y132.912 E311.11255
G1 X162.086 Y117.999 E312.99696
G1 X163.782 Y117.999 E313.14849
G1 X176.999 Y131.217 E314.81866
G1 X176.999 Y129.521 E314.9702
G1 X165.477 Y117.999 E316.42612
G1 X167.173 Y117.999 E316.57766
G1 X176.999 Y127.825 E317.81927
G1 X176.999 Y127.517 E317.84679
G1 X176.983 Y127.142 E317.88033
G1 X176.925 Y126.391 E317.94763
G1 X176.862 Y125.993 E317.98364
G1 X169.006 Y118.137 E318.97632
G1 X169.357 Y118.192 E319.00807
G1 X170.07 Y118.362 E319.07356
G1 X170.785 Y118.595 E319.14075
G1 X171.424 Y118.859 E319.20253
G1 X176.14 Y123.575 E319.79844
G0 F2625 X157.129 Y129.999
G1 F1350 X145.13 Y117.999 E321.3147
