;Generated by Cura LulzBot Edition GCodeWriter Version: 2.6.69
;FLAVOR:RepRap
;TIME:648
;Filament used: 0.406621m
;Layer height: 0.38
;Generated with Cura_SteamEngine 2.6.69
;This G-Code has been generated specifically for the LulzBot TAZ 6 with standard extruder
G26 ; clear potential 'probe fail' condition
G21 ; set units to Millimetres
M107 ; disable fans
G90 ; absolute positioning
M82 ; set extruder to absolute mode
G92 E0 ; set extruder position to 0
M140 S110 ; start bed heating up
G28 XY ; home X and Y
G1 X-19 Y258 F1000 ; move to safe homing position
M109 R175 ; soften filament before homing Z
G28 Z ; home Z
G1 E-30 F100 ; retract filament
M109 R170 ; wait for extruder to reach wiping temp
G1 X-15 Y100 F3000 ; move above wiper pad
G1 Z1 ; push nozzle into wiper
G1 X-17 Y95 F1000 ; slow wipe
G1 X-17 Y90 F1000 ; slow wipe
G1 X-17 Y85 F1000 ; slow wipe
G1 X-15 Y90 F1000 ; slow wipe
G1 X-17 Y80 F1000 ; slow wipe
G1 X-15 Y95 F1000 ; slow wipe
G1 X-17 Y75 F2000 ; fast wipe
G1 X-15 Y65 F2000 ; fast wipe
G1 X-17 Y70 F2000 ; fast wipe
G1 X-15 Y60 F2000 ; fast wipe
G1 X-17 Y55 F2000 ; fast wipe
G1 X-15 Y50 F2000 ; fast wipe
G1 X-17 Y40 F2000 ; fast wipe
G1 X-15 Y45 F2000 ; fast wipe
G1 X-17 Y35 F2000 ; fast wipe
G1 X-15 Y40 F2000 ; fast wipe
G1 X-17 Y70 F2000 ; fast wipe
G1 X-15 Y30 Z2 F2000 ; fast wipe
G1 X-17 Y35 F2000 ; fast wipe
G1 X-15 Y25 F2000 ; fast wipe
G1 X-17 Y30 F2000 ; fast wipe
G1 X-15 Y25 Z1.5 F1000 ; slow wipe
G1 X-17 Y23 F1000 ; slow wipe
G1 Z10 ; raise extruder
M109 R170 ; wait for extruder to reach probe temp
G1 X-9 Y-9 ; move above first probe point
M204 S100 ; set probing acceleration
G29 ; start auto-leveling sequence
M204 S500 ; restore standard acceleration
G1 X0 Y0 Z15 F5000 ; move up off last probe point
G4 S1 ; pause
M400 ; wait for moves to finish
M117 Heating... ; progress indicator message on LCD
M109 R240 ; wait for extruder to reach printing temp
M190 S110 ; wait for bed to reach printing temp
G1 Z2 E0 F75 ; prime tiny bit of filament into the nozzle
M117 TAZ 6 Printing... ; progress indicator message on LCD

M221 S100
;LAYER_COUNT:6
;LAYER:0
M107
G0 F2625 X105.976 Y141.366 Z0.424
;TYPE:SKIRT
G1 F900 X106.583 Y140.925 E0.02499
G1 X107.25 Y140.517 E0.05104
G1 X107.91 Y140.181 E0.07571
G1 X108.636 Y139.88 E0.10189
G1 X109.346 Y139.649 E0.12676
G1 X110.108 Y139.466 E0.15286
G1 X110.849 Y139.349 E0.17785
G1 X111.633 Y139.288 E0.20404
G1 X112.001 Y139.274 E0.21631
G1 X167.999 Y139.274 E2.08163
G1 X168.367 Y139.288 E2.09389
G1 X169.151 Y139.349 E2.12009
G1 X169.892 Y139.466 E2.14508
G1 X170.654 Y139.649 E2.17118
G1 X171.363 Y139.88 E2.19602
G1 X172.087 Y140.18 E2.22212
G1 X172.747 Y140.515 E2.24678
G1 X173.416 Y140.924 E2.2729
G1 X174.023 Y141.365 E2.29789
G1 X174.62 Y141.875 E2.32404
G1 X175.149 Y142.404 E2.34896
G1 X175.66 Y143.003 E2.37519
G1 X176.095 Y143.603 E2.39988
G1 X176.504 Y144.27 E2.42594
G1 X176.843 Y144.935 E2.4508
G1 X177.143 Y145.659 E2.47691
G1 X177.374 Y146.369 E2.50178
G1 X177.557 Y147.132 E2.52792
G1 X177.673 Y147.865 E2.55264
G1 X177.735 Y148.648 E2.5788
G1 X177.75 Y149.023 E2.5913
G1 X177.75 Y165.522 E3.14089
G1 X177.736 Y165.883 E3.15292
G1 X177.678 Y166.645 E3.17838
G1 X177.568 Y167.364 E3.20261
G1 X177.395 Y168.105 E3.22795
G1 X177.176 Y168.798 E3.25216
G1 X176.89 Y169.509 E3.27769
G1 X176.572 Y170.153 E3.30162
G1 X176.186 Y170.806 E3.32688
G1 X175.769 Y171.402 E3.35111
G1 X175.285 Y171.992 E3.37653
G1 X174.783 Y172.516 E3.40071
G1 X174.215 Y173.025 E3.42611
G1 X173.644 Y173.464 E3.4501
G1 X173.003 Y173.883 E3.47561
G1 X172.364 Y174.234 E3.4999
G1 X171.671 Y174.548 E3.52524
G1 X171.33 Y174.687 E3.53751
G1 X147.418 Y183.354 E4.38473
G1 X146.826 Y183.526 E4.40527
G1 X146.354 Y183.605 E4.42121
G1 X145.199 Y183.741 E4.45995
G1 X144.628 Y183.774 E4.479
G1 X134.761 Y183.74 E4.80767
G1 X134.146 Y183.698 E4.82821
G1 X133.681 Y183.612 E4.84396
G1 X132.551 Y183.344 E4.88264
G1 X132.023 Y183.186 E4.901
G1 X108.665 Y174.685 E5.72899
G1 X108.329 Y174.548 E5.74108
G1 X107.636 Y174.234 E5.76642
G1 X106.997 Y173.883 E5.79071
G1 X106.356 Y173.464 E5.81622
G1 X105.785 Y173.025 E5.84021
G1 X105.217 Y172.516 E5.86561
G1 X104.715 Y171.992 E5.88979
G1 X104.231 Y171.402 E5.91521
G1 X103.814 Y170.806 E5.93944
G1 X103.428 Y170.153 E5.9647
G1 X103.11 Y169.509 E5.98863
G1 X102.824 Y168.798 E6.01416
G1 X102.605 Y168.105 E6.03837
G1 X102.432 Y167.364 E6.06371
G1 X102.322 Y166.645 E6.08794
G1 X102.264 Y165.885 E6.11333
G1 X102.25 Y165.524 E6.12537
G1 X102.25 Y149.025 E6.67495
G1 X102.265 Y148.651 E6.68742
G1 X102.327 Y147.866 E6.71365
G1 X102.443 Y147.134 E6.73834
G1 X102.625 Y146.374 E6.76437
G1 X102.855 Y145.664 E6.78923
G1 X103.155 Y144.939 E6.81537
G1 X103.494 Y144.273 E6.84026
G1 X103.904 Y143.604 E6.8664
G1 X104.339 Y143.004 E6.89108
G1 X104.848 Y142.407 E6.91722
G1 X105.377 Y141.878 E6.94214
G1 X105.976 Y141.366 E6.96838
G0 F2625 X106.301 Y141.746
G1 F900 X106.844 Y141.351 E6.99075
G1 X107.511 Y140.943 E7.0168
G1 X108.101 Y140.643 E7.03884
G1 X108.827 Y140.342 E7.06502
G1 X109.463 Y140.136 E7.08729
G1 X110.225 Y139.953 E7.1134
G1 X110.887 Y139.848 E7.13572
G1 X111.671 Y139.787 E7.16192
G1 X112.001 Y139.774 E7.17292
G1 X167.999 Y139.774 E9.03823
G1 X168.329 Y139.787 E9.04923
G1 X169.113 Y139.848 E9.07543
G1 X169.775 Y139.953 E9.09775
G1 X170.537 Y140.136 E9.12386
G1 X171.172 Y140.342 E9.1461
G1 X171.896 Y140.642 E9.1722
G1 X172.486 Y140.942 E9.19425
G1 X173.155 Y141.351 E9.22037
G1 X173.699 Y141.746 E9.24276
G1 X174.296 Y142.256 E9.26892
G1 X174.768 Y142.729 E9.29118
G1 X175.279 Y143.328 E9.3174
G1 X175.669 Y143.864 E9.33948
G1 X176.078 Y144.531 E9.36555
G1 X176.381 Y145.126 E9.38779
G1 X176.681 Y145.85 E9.41389
G1 X176.888 Y146.486 E9.43617
G1 X177.071 Y147.249 E9.46231
G1 X177.175 Y147.905 E9.48443
G1 X177.237 Y148.688 E9.5106
G1 X177.25 Y149.023 E9.52176
G1 X177.25 Y165.522 E10.07135
G1 X177.238 Y165.845 E10.08212
G1 X177.18 Y166.607 E10.10757
G1 X177.081 Y167.25 E10.12924
G1 X176.908 Y167.991 E10.15459
G1 X176.712 Y168.611 E10.17625
G1 X176.426 Y169.322 E10.20178
G1 X176.142 Y169.899 E10.2232
G1 X175.756 Y170.552 E10.24847
G1 X175.383 Y171.085 E10.27014
G1 X174.899 Y171.675 E10.29556
G1 X174.449 Y172.144 E10.31721
G1 X173.881 Y172.653 E10.34262
G1 X173.37 Y173.045 E10.36407
G1 X172.729 Y173.464 E10.38958
G1 X172.158 Y173.778 E10.41128
G1 X171.465 Y174.092 E10.43663
G1 X171.159 Y174.217 E10.44764
G1 X147.247 Y182.884 E11.29486
G1 X146.687 Y183.044 E11.31426
G1 X146.296 Y183.109 E11.32746
G1 X145.141 Y183.245 E11.3662
G1 X144.629 Y183.274 E11.38329
G1 X134.762 Y183.24 E11.71196
G1 X134.181 Y183.198 E11.73137
G1 X133.796 Y183.125 E11.74442
G1 X132.666 Y182.857 E11.7831
G1 X132.194 Y182.716 E11.79951
G1 X108.836 Y174.215 E12.6275
G1 X108.535 Y174.092 E12.63833
G1 X107.842 Y173.778 E12.66368
G1 X107.271 Y173.464 E12.68538
G1 X106.63 Y173.045 E12.71089
G1 X106.119 Y172.653 E12.73235
G1 X105.551 Y172.144 E12.75775
G1 X105.101 Y171.675 E12.7794
G1 X104.617 Y171.085 E12.80482
G1 X104.244 Y170.552 E12.82649
G1 X103.858 Y169.899 E12.85176
G1 X103.574 Y169.322 E12.87318
G1 X103.288 Y168.611 E12.89871
G1 X103.092 Y167.991 E12.92037
G1 X102.919 Y167.25 E12.94572
G1 X102.82 Y166.607 E12.96739
G1 X102.762 Y165.847 E12.99278
G1 X102.75 Y165.524 E13.00354
G1 X102.75 Y149.025 E13.55313
G1 X102.763 Y148.69 E13.5643
G1 X102.825 Y147.905 E13.59053
G1 X102.929 Y147.25 E13.61262
G1 X103.111 Y146.49 E13.63865
G1 X103.317 Y145.855 E13.66089
G1 X103.617 Y145.13 E13.68703
G1 X103.92 Y144.534 E13.7093
G1 X104.33 Y143.865 E13.73543
G1 X104.72 Y143.329 E13.75751
G1 X105.229 Y142.732 E13.78365
G1 X105.702 Y142.258 E13.80595
G1 X106.301 Y141.746 E13.8322
G0 F2625 X106.625 Y142.126
G1 F900 X107.105 Y141.778 E13.85195
G1 X107.772 Y141.37 E13.87799
G1 X108.293 Y141.105 E13.89747
G1 X109.019 Y140.804 E13.92364
G1 X109.579 Y140.622 E13.94326
G1 X110.341 Y140.439 E13.96936
G1 X110.926 Y140.346 E13.98909
G1 X111.71 Y140.285 E14.01529
G1 X112.001 Y140.274 E14.02499
G1 X167.999 Y140.274 E15.8903
G1 X168.29 Y140.285 E15.9
G1 X169.074 Y140.346 E15.9262
G1 X169.659 Y140.439 E15.94593
G1 X170.421 Y140.622 E15.97203
G1 X170.981 Y140.804 E15.99165
G1 X171.705 Y141.104 E16.01775
G1 X172.225 Y141.369 E16.03719
G1 X172.894 Y141.778 E16.06331
G1 X173.374 Y142.126 E16.08306
G1 X173.971 Y142.636 E16.10922
G1 X174.388 Y143.053 E16.12886
G1 X174.899 Y143.652 E16.15509
G1 X175.243 Y144.126 E16.1746
G1 X175.652 Y144.793 E16.20066
G1 X175.919 Y145.317 E16.22025
G1 X176.219 Y146.041 E16.24635
G1 X176.402 Y146.602 E16.26601
G1 X176.585 Y147.365 E16.29215
G1 X176.676 Y147.944 E16.31167
G1 X176.738 Y148.727 E16.33783
G1 X176.75 Y149.023 E16.3477
G1 X176.75 Y165.522 E16.89729
G1 X176.739 Y165.807 E16.90679
G1 X176.681 Y166.569 E16.93225
G1 X176.594 Y167.137 E16.95139
G1 X176.421 Y167.878 E16.97673
G1 X176.248 Y168.424 E16.99581
G1 X175.962 Y169.135 E17.02134
G1 X175.711 Y169.644 E17.04024
G1 X175.325 Y170.297 E17.06551
G1 X174.996 Y170.767 E17.08462
G1 X174.512 Y171.357 E17.11004
G1 X174.116 Y171.772 E17.12915
G1 X173.548 Y172.281 E17.15456
G1 X173.097 Y172.627 E17.17349
G1 X172.456 Y173.046 E17.199
G1 X171.952 Y173.323 E17.21816
G1 X171.259 Y173.637 E17.2435
G1 X170.989 Y173.747 E17.25321
G1 X147.077 Y182.414 E18.10043
G1 X146.55 Y182.562 E18.11867
G1 X146.238 Y182.612 E18.12919
G1 X145.083 Y182.748 E18.16793
G1 X144.631 Y182.774 E18.18301
G1 X134.764 Y182.74 E18.51169
G1 X134.218 Y182.698 E18.52993
G1 X133.912 Y182.639 E18.54031
G1 X132.782 Y182.371 E18.579
G1 X132.365 Y182.246 E18.5935
G1 X109.007 Y173.745 E19.42149
G1 X108.741 Y173.637 E19.43105
G1 X108.048 Y173.323 E19.45639
G1 X107.544 Y173.046 E19.47555
G1 X106.903 Y172.627 E19.50106
G1 X106.452 Y172.281 E19.51999
G1 X105.884 Y171.772 E19.5454
G1 X105.488 Y171.357 E19.56451
G1 X105.004 Y170.767 E19.58993
G1 X104.675 Y170.297 E19.60904
G1 X104.289 Y169.644 E19.63431
G1 X104.038 Y169.135 E19.65321
G1 X103.752 Y168.424 E19.67874
G1 X103.579 Y167.878 E19.69782
G1 X103.406 Y167.137 E19.72316
G1 X103.319 Y166.569 E19.7423
G1 X103.261 Y165.809 E19.76769
G1 X103.25 Y165.524 E19.77719
G1 X103.25 Y149.025 E20.32678
G1 X103.262 Y148.73 E20.33662
G1 X103.324 Y147.945 E20.36285
G1 X103.415 Y147.367 E20.38234
G1 X103.597 Y146.607 E20.40837
G1 X103.779 Y146.046 E20.42801
G1 X104.079 Y145.321 E20.45415
G1 X104.347 Y144.796 E20.47379
G1 X104.757 Y144.127 E20.49992
G1 X105.1 Y143.653 E20.51941
G1 X105.609 Y143.056 E20.54554
G1 X106.026 Y142.638 E20.56521
G1 X106.625 Y142.126 E20.59146
G0 F2625 X106.95 Y142.507
G1 F900 X107.366 Y142.205 E20.60858
G1 X108.033 Y141.797 E20.63463
G1 X108.484 Y141.567 E20.65149
G1 X109.21 Y141.266 E20.67767
G1 X109.696 Y141.108 E20.6947
G1 X110.458 Y140.925 E20.7208
G1 X110.965 Y140.845 E20.7379
G1 X111.749 Y140.784 E20.76409
G1 X112.001 Y140.774 E20.77249
G1 X167.999 Y140.774 E22.63781
G1 X168.251 Y140.784 E22.64621
G1 X169.035 Y140.845 E22.6724
G1 X169.542 Y140.925 E22.6895
G1 X170.304 Y141.108 E22.7156
G1 X170.789 Y141.266 E22.73259
G1 X171.513 Y141.566 E22.7587
G1 X171.964 Y141.795 E22.77555
G1 X172.633 Y142.204 E22.80167
G1 X173.049 Y142.506 E22.81879
G1 X173.646 Y143.016 E22.84494
G1 X174.008 Y143.378 E22.862
G1 X174.519 Y143.977 E22.88822
G1 X174.817 Y144.387 E22.90511
G1 X175.226 Y145.054 E22.93117
G1 X175.457 Y145.509 E22.94817
G1 X175.757 Y146.233 E22.97427
G1 X175.915 Y146.719 E22.9913
G1 X176.098 Y147.482 E23.01743
G1 X176.178 Y147.983 E23.03433
G1 X176.24 Y148.766 E23.0605
G1 X176.25 Y149.023 E23.06906
G1 X176.25 Y165.522 E23.61865
G1 X176.241 Y165.769 E23.62688
G1 X176.183 Y166.531 E23.65234
G1 X176.107 Y167.023 E23.66892
G1 X175.934 Y167.764 E23.69427
G1 X175.784 Y168.238 E23.71083
G1 X175.498 Y168.949 E23.73636
G1 X175.281 Y169.39 E23.75273
G1 X174.895 Y170.043 E23.778
G1 X174.61 Y170.45 E23.79455
G1 X174.126 Y171.04 E23.81997
G1 X173.782 Y171.399 E23.83653
G1 X173.214 Y171.908 E23.86194
G1 X172.823 Y172.208 E23.87835
G1 X172.182 Y172.627 E23.90386
G1 X171.745 Y172.867 E23.92047
G1 X171.052 Y173.181 E23.94581
G1 X170.818 Y173.276 E23.95423
G1 X146.906 Y181.943 E24.80145
G1 X146.179 Y182.116 E24.82634
G1 X145.024 Y182.252 E24.86508
G1 X144.633 Y182.274 E24.87813
G1 X134.766 Y182.24 E25.2068
G1 X134.027 Y182.152 E25.23159
G1 X132.897 Y181.884 E25.27028
G1 X132.536 Y181.776 E25.28283
G1 X109.178 Y173.275 E26.11082
G1 X108.948 Y173.181 E26.1191
G1 X108.255 Y172.867 E26.14444
G1 X107.818 Y172.627 E26.16105
G1 X107.177 Y172.208 E26.18655
G1 X106.786 Y171.908 E26.20297
G1 X106.218 Y171.399 E26.22838
G1 X105.874 Y171.04 E26.24494
G1 X105.39 Y170.45 E26.27036
G1 X105.105 Y170.043 E26.28691
G1 X104.719 Y169.39 E26.31218
G1 X104.502 Y168.949 E26.32855
G1 X104.216 Y168.238 E26.35408
G1 X104.066 Y167.764 E26.37064
G1 X103.893 Y167.023 E26.39598
G1 X103.817 Y166.531 E26.41257
G1 X103.759 Y165.771 E26.43796
G1 X103.75 Y165.524 E26.44619
G1 X103.75 Y149.025 E26.99578
G1 X103.76 Y148.769 E27.00431
G1 X103.822 Y147.984 E27.03054
G1 X103.901 Y147.483 E27.04744
G1 X104.083 Y146.723 E27.07347
G1 X104.241 Y146.237 E27.09049
G1 X104.541 Y145.512 E27.11663
G1 X104.773 Y145.057 E27.13364
G1 X105.183 Y144.388 E27.15978
G1 X105.481 Y143.977 E27.17669
G1 X105.99 Y143.38 E27.20282
G1 X106.351 Y143.019 E27.21983
G1 X106.95 Y142.507 E27.24607
G0 F2625 X107.275 Y142.887
G1 F900 X107.627 Y142.631 E27.26057
G1 X108.294 Y142.223 E27.28662
G1 X108.676 Y142.029 E27.30089
G1 X109.402 Y141.728 E27.32707
G1 X109.813 Y141.594 E27.34147
G1 X110.575 Y141.411 E27.36757
G1 X111.004 Y141.343 E27.38204
G1 X111.788 Y141.282 E27.40824
G1 X112.001 Y141.274 E27.41534
G1 X167.999 Y141.274 E29.28065
G1 X168.212 Y141.282 E29.28775
G1 X168.996 Y141.343 E29.31394
G1 X169.425 Y141.411 E29.32841
G1 X170.187 Y141.594 E29.35452
G1 X170.598 Y141.727 E29.36891
G1 X171.322 Y142.027 E29.39501
G1 X171.703 Y142.222 E29.40927
G1 X172.372 Y142.631 E29.43539
G1 X172.724 Y142.886 E29.44987
G1 X173.321 Y143.396 E29.47602
G1 X173.627 Y143.702 E29.49044
G1 X174.138 Y144.301 E29.51666
G1 X174.39 Y144.648 E29.53095
G1 X174.799 Y145.315 E29.55701
G1 X174.996 Y145.7 E29.57142
G1 X175.296 Y146.424 E29.59752
G1 X175.429 Y146.836 E29.61194
G1 X175.612 Y147.599 E29.63808
G1 X175.679 Y148.023 E29.65238
G1 X175.741 Y148.806 E29.67854
G1 X175.75 Y149.023 E29.68578
G1 X175.75 Y165.522 E30.23536
G1 X175.742 Y165.731 E30.24233
G1 X175.684 Y166.493 E30.26779
G1 X175.62 Y166.909 E30.28181
G1 X175.447 Y167.65 E30.30715
G1 X175.32 Y168.051 E30.32117
G1 X175.034 Y168.762 E30.34669
G1 X174.85 Y169.135 E30.36055
G1 X174.464 Y169.788 E30.38582
G1 X174.223 Y170.133 E30.39983
G1 X173.739 Y170.723 E30.42525
G1 X173.448 Y171.027 E30.43927
G1 X172.88 Y171.536 E30.46468
G1 X172.55 Y171.79 E30.47855
G1 X171.909 Y172.209 E30.50406
G1 X171.539 Y172.412 E30.51812
G1 X170.846 Y172.726 E30.54346
G1 X170.648 Y172.806 E30.55057
G1 X146.736 Y181.473 E31.3978
G1 X146.121 Y181.619 E31.41885
G1 X144.966 Y181.755 E31.45759
G1 X144.635 Y181.774 E31.46863
G1 X134.768 Y181.74 E31.79731
G1 X134.142 Y181.666 E31.81831
G1 X133.012 Y181.398 E31.85699
G1 X132.707 Y181.306 E31.8676
G1 X109.349 Y172.805 E32.69559
G1 X109.154 Y172.726 E32.7026
G1 X108.461 Y172.412 E32.72795
G1 X108.091 Y172.209 E32.742
G1 X107.45 Y171.79 E32.76751
G1 X107.12 Y171.536 E32.78138
G1 X106.552 Y171.027 E32.80679
G1 X106.261 Y170.723 E32.82081
G1 X105.777 Y170.133 E32.84623
G1 X105.536 Y169.788 E32.86025
G1 X105.15 Y169.135 E32.88551
G1 X104.966 Y168.762 E32.89937
G1 X104.68 Y168.051 E32.9249
G1 X104.553 Y167.65 E32.93891
G1 X104.38 Y166.909 E32.96425
G1 X104.316 Y166.493 E32.97827
G1 X104.258 Y165.733 E33.00366
G1 X104.25 Y165.524 E33.01063
G1 X104.25 Y149.025 E33.56022
G1 X104.259 Y148.808 E33.56745
G1 X104.321 Y148.023 E33.59368
G1 X104.388 Y147.6 E33.60795
G1 X104.57 Y146.84 E33.63398
G1 X104.703 Y146.429 E33.64837
G1 X105.003 Y145.704 E33.67451
G1 X105.199 Y145.318 E33.68893
G1 X105.609 Y144.649 E33.71506
G1 X105.861 Y144.302 E33.72935
G1 X106.37 Y143.705 E33.75548
G1 X106.676 Y143.399 E33.7699
G1 X107.275 Y142.887 E33.79614
G0 F2625 X107.6 Y143.267
G1 F900 X107.888 Y143.058 E33.808
G1 X108.555 Y142.65 E33.83404
G1 X108.867 Y142.491 E33.84571
G1 X109.593 Y142.19 E33.87189
