;Generated by Cura LulzBot Edition GCodeWriter Version: 2.6.69
;FLAVOR:RepRap
;TIME:4588
;Filament used: 1.66758m
;Layer height: 0.18
;Generated with Cura_SteamEngine 2.6.69
;This G-Code has been generated specifically for the LulzBot TAZ 6 with standard extruder
G26 ; clear potential 'probe fail' condition
G21 ; set units to Millimetres
M107 ; disable fans
G90 ; absolute positioning
M82 ; set extruder to absolute mode
G92 E0 ; set extruder position to 0
M140 S110 ; start bed heating up
G28 XY ; home X and Y
G1 X-19 Y258 F1000 ; move to safe homing position
M109 R175 ; soften filament before homing Z
G28 Z ; home Z
G1 E-30 F100 ; retract filament
M109 R170 ; wait for extruder to reach wiping temp
G1 X-15 Y100 F3000 ; move above wiper pad
G1 Z1 ; push nozzle into wiper
G1 X-17 Y95 F1000 ; slow wipe
G1 X-17 Y90 F1000 ; slow wipe
G1 X-17 Y85 F1000 ; slow wipe
G1 X-15 Y90 F1000 ; slow wipe
G1 X-17 Y80 F1000 ; slow wipe
G1 X-15 Y95 F1000 ; slow wipe
G1 X-17 Y75 F2000 ; fast wipe
G1 X-15 Y65 F2000 ; fast wipe
G1 X-17 Y70 F2000 ; fast wipe
G1 X-15 Y60 F2000 ; fast wipe
G1 X-17 Y55 F2000 ; fast wipe
G1 X-15 Y50 F2000 ; fast wipe
G1 X-17 Y40 F2000 ; fast wipe
G1 X-15 Y45 F2000 ; fast wipe
G1 X-17 Y35 F2000 ; fast wipe
G1 X-15 Y40 F2000 ; fast wipe
G1 X-17 Y70 F2000 ; fast wipe
G1 X-15 Y30 Z2 F2000 ; fast wipe
G1 X-17 Y35 F2000 ; fast wipe
G1 X-15 Y25 F2000 ; fast wipe
G1 X-17 Y30 F2000 ; fast wipe
G1 X-15 Y25 Z1.5 F1000 ; slow wipe
G1 X-17 Y23 F1000 ; slow wipe
G1 Z10 ; raise extruder
M109 R170 ; wait for extruder to reach probe temp
G1 X-9 Y-9 ; move above first probe point
M204 S100 ; set probing acceleration
G29 ; start auto-leveling sequence
M204 S500 ; restore standard acceleration
G1 X0 Y0 Z15 F5000 ; move up off last probe point
G4 S1 ; pause
M400 ; wait for moves to finish
M117 Heating... ; progress indicator message on LCD
M109 R240 ; wait for extruder to reach printing temp
M190 S110 ; wait for bed to reach printing temp
G1 Z2 E0 F75 ; prime tiny bit of filament into the nozzle
M117 TAZ 6 Printing... ; progress indicator message on LCD

M221 S100
;LAYER_COUNT:43
;LAYER:-6
M107
G0 F2625 X90.684 Y130.251 Z0.51
G1 F1350 X91.407 Y129.817 E0.06741
G1 X92.173 Y129.444 E0.13553
G1 X92.974 Y129.139 E0.20405
G1 X93.779 Y128.913 E0.27089
G1 X94.618 Y128.757 E0.33911
G1 X95.476 Y128.676 E0.40801
G1 X95.969 Y128.663 E0.44744
G1 X113.606 Y128.663 E1.85743
G1 X114.488 Y128.702 E1.92801
G1 X115.308 Y128.814 E1.99417
G1 X116.15 Y129.004 E2.06318
G1 X116.959 Y129.265 E2.13113
G1 X117.73 Y129.595 E2.19818
G1 X118.492 Y130.003 E2.26728
G1 X119.192 Y130.462 E2.3342
G1 X119.864 Y130.996 E2.40282
G1 X120.477 Y131.579 E2.47045
G1 X121.041 Y132.222 E2.53883
G1 X121.541 Y132.904 E2.60643
G1 X121.975 Y133.627 E2.67385
G1 X122.348 Y134.393 E2.74196
G1 X122.653 Y135.194 E2.81048
G1 X122.879 Y135.999 E2.87732
G1 X123.035 Y136.838 E2.94555
G1 X123.116 Y137.695 E3.01436
G1 X123.121 Y138.534 E3.08144
G1 X123.05 Y139.379 E3.14923
G1 X122.651 Y141.663 E3.33459
G1 X143.666 Y141.663 E5.01463
G1 X143.288 Y139.125 E5.21977
G1 X143.242 Y138.302 E5.28567
G1 X143.27 Y137.429 E5.3555
G1 X143.371 Y136.596 E5.42258
G1 X143.55 Y135.755 E5.49132
G1 X143.798 Y134.957 E5.55812
G1 X144.12 Y134.17 E5.6261
G1 X144.518 Y133.405 E5.69504
G1 X144.966 Y132.704 E5.76155
G1 X145.485 Y132.03 E5.82956
G1 X146.072 Y131.397 E5.89857
G1 X146.701 Y130.83 E5.96627
G1 X147.378 Y130.322 E6.03394
G1 X148.104 Y129.873 E6.10218
G1 X148.848 Y129.498 E6.16879
G1 X149.646 Y129.181 E6.23743
G1 X150.47 Y128.939 E6.30609
G1 X151.299 Y128.774 E6.37366
G1 X152.144 Y128.683 E6.44161
G1 X152.741 Y128.663 E6.48936
G1 X170.92 Y128.663 E7.94268
G1 X171.802 Y128.702 E8.01326
G1 X172.622 Y128.814 E8.07942
G1 X173.464 Y129.004 E8.14843
G1 X174.273 Y129.265 E8.21639
G1 X175.044 Y129.595 E8.28343
G1 X175.806 Y130.003 E8.35253
G1 X176.506 Y130.462 E8.41945
G1 X177.178 Y130.996 E8.48807
G1 X177.791 Y131.579 E8.5557
G1 X178.355 Y132.222 E8.62408
G1 X178.855 Y132.904 E8.69169
G1 X179.289 Y133.627 E8.7591
G1 X179.662 Y134.393 E8.82721
G1 X179.967 Y135.194 E8.89573
G1 X180.193 Y135.999 E8.96258
G1 X180.349 Y136.838 E9.0308
G1 X180.43 Y137.696 E9.0997
G1 X180.443 Y138.176 E9.13808
G1 X180.443 Y153.14 E10.33438
G1 X180.404 Y154.022 E10.40496
G1 X180.292 Y154.842 E10.47112
G1 X180.1 Y155.691 E10.54071
G1 X179.908 Y156.287 E10.59077
G1 X180.178 Y157.03 E10.65397
G1 X180.344 Y157.633 E10.70397
G1 X180.629 Y158.817 E10.80133
G1 X180.798 Y159.689 E10.87234
G1 X180.874 Y160.355 E10.92592
G1 X180.969 Y161.573 E11.02359
G1 X181 Y162.345 E11.08536
G1 X181 Y169.307 E11.64194
G1 X180.961 Y170.178 E11.71164
G1 X180.848 Y171.018 E11.7794
G1 X180.659 Y171.849 E11.84753
G1 X180.398 Y172.66 E11.91564
G1 X180.068 Y173.431 E11.98268
G1 X179.66 Y174.193 E12.05178
G1 X179.201 Y174.893 E12.1187
G1 X178.667 Y175.565 E12.18732
G1 X178.084 Y176.178 E12.25495
G1 X177.441 Y176.742 E12.32333
G1 X176.759 Y177.242 E12.39094
G1 X176.036 Y177.676 E12.45835
G1 X175.27 Y178.049 E12.52646
G1 X174.469 Y178.354 E12.59498
G1 X173.664 Y178.58 E12.66183
G1 X172.825 Y178.736 E12.73005
G1 X171.967 Y178.817 E12.79895
G1 X171.474 Y178.83 E12.83838
G1 X153.321 Y178.83 E14.28961
G1 X152.439 Y178.791 E14.36019
G1 X151.619 Y178.679 E14.42636
G1 X150.777 Y178.489 E14.49536
G1 X149.968 Y178.228 E14.56332
G1 X149.197 Y177.898 E14.63037
G1 X148.435 Y177.49 E14.69947
G1 X147.735 Y177.031 E14.76639
G1 X147.063 Y176.497 E14.83501
G1 X146.45 Y175.914 E14.90264
G1 X145.881 Y175.266 E14.97158
G1 X145.388 Y174.592 E15.03834
G1 X145.119 Y174.165 E15.07868
G1 X144.22 Y172.643 E15.22
G1 X143.474 Y171.61 E15.32187
G1 X142.65 Y170.662 E15.42228
G1 X141.872 Y169.911 E15.50873
G1 X140.903 Y169.128 E15.60833
G1 X139.885 Y168.45 E15.70611
G1 X138.799 Y167.864 E15.80476
G1 X137.691 Y167.394 E15.90098
G1 X136.523 Y167.02 E15.99903
G1 X135.316 Y166.756 E16.0978
G1 X134.1 Y166.607 E16.19574
G1 X133.03 Y166.574 E16.28132
G1 X131.832 Y166.649 E16.37728
G1 X130.709 Y166.83 E16.46822
G1 X129.624 Y167.116 E16.55792
G1 X128.594 Y167.499 E16.64577
G1 X127.626 Y167.977 E16.73208
G1 X126.724 Y168.541 E16.81713
G1 X125.878 Y169.196 E16.90266
G1 X125.104 Y169.931 E16.98799
G1 X124.357 Y170.795 E17.0793
G1 X123.677 Y171.757 E17.17348
G1 X122.984 Y172.966 E17.28489
G1 X122.722 Y173.498 E17.3323
G1 X122.307 Y174.259 E17.40159
G1 X121.846 Y174.951 E17.46807
G1 X121.312 Y175.613 E17.53606
G1 X120.714 Y176.231 E17.60481
G1 X120.08 Y176.78 E17.67186
G1 X119.39 Y177.278 E17.73989
G1 X118.649 Y177.717 E17.80874
G1 X117.904 Y178.072 E17.87472
G1 X117.078 Y178.379 E17.94517
G1 X116.285 Y178.596 E18.01089
G1 X115.444 Y178.746 E18.07919
G1 X114.166 Y178.83 E18.18158
G1 X96.523 Y178.83 E19.59205
G1 X95.641 Y178.791 E19.66263
G1 X94.821 Y178.679 E19.72879
G1 X93.979 Y178.489 E19.7978
G1 X93.17 Y178.228 E19.86575
G1 X92.399 Y177.898 E19.9328
G1 X91.637 Y177.49 E20.0019
G1 X90.937 Y177.031 E20.06882
G1 X90.265 Y176.497 E20.13744
G1 X89.652 Y175.914 E20.20507
G1 X89.088 Y175.271 E20.27345
G1 X88.588 Y174.589 E20.34105
G1 X88.154 Y173.866 E20.40847
G1 X87.781 Y173.1 E20.47658
G1 X87.476 Y172.299 E20.5451
G1 X87.25 Y171.494 E20.61194
G1 X87.094 Y170.655 E20.68017
G1 X87.013 Y169.797 E20.74906
G1 X87 Y169.317 E20.78745
G1 X87 Y162.345 E21.34483
G1 X87.03 Y161.588 E21.40539
G1 X87.125 Y160.365 E21.50346
G1 X87.231 Y159.491 E21.57384
G1 X87.362 Y158.855 E21.62576
G1 X87.626 Y157.759 E21.71588
G1 X87.222 Y156.928 E21.78975
G1 X86.919 Y156.132 E21.85784
G1 X86.693 Y155.327 E21.92469
G1 X86.537 Y154.488 E21.99291
G1 X86.456 Y153.63 E22.06181
G1 X86.443 Y153.15 E22.10019
G1 X86.443 Y138.186 E23.29649
G1 X86.482 Y137.304 E23.36707
G1 X86.594 Y136.484 E23.43323
G1 X86.784 Y135.642 E23.50224
G1 X87.045 Y134.833 E23.5702
G1 X87.375 Y134.062 E23.63724
G1 X87.783 Y133.3 E23.70634
G1 X88.242 Y132.6 E23.77326
G1 X88.776 Y131.928 E23.84188
G1 X89.359 Y131.315 E23.90951
G1 X90.002 Y130.751 E23.97789
G1 X90.684 Y130.251 E24.0455
G0 F2625 X90 Y130.752
G1 F1350 X90 Y176.244 E27.68235
G0 F2625 X92 Y177.684
G1 F1350 X92 Y129.528 E31.53217
G0 F2625 X94 Y128.871
G1 F1350 X94 Y178.493 E35.4992
G0 F2625 X96 Y178.806
G1 F1350 X96 Y128.663 E39.50787
G0 F2625 X98 Y128.663
G1 F1350 X98 Y178.83 E43.51847
G0 F2625 X100 Y178.83
G1 F1350 X100 Y128.663 E47.52906
G0 F2625 X102 Y128.663
G1 F1350 X102 Y178.83 E51.53965
G0 F2625 X104 Y178.83
G1 F1350 X104 Y128.663 E55.55025
G0 F2625 X106 Y128.663
G1 F1350 X106 Y178.83 E59.56084
G0 F2625 X108 Y178.83
G1 F1350 X108 Y128.663 E63.57144
G0 F2625 X110 Y128.663
G1 F1350 X110 Y178.83 E67.58203
G0 F2625 X112 Y178.83
G1 F1350 X112 Y128.663 E71.59262
G0 F2625 X114 Y128.681
G1 F1350 X114 Y178.83 E75.60178
G0 F2625 X116 Y178.647
G1 F1350 X116 Y128.971 E79.57312
G0 F2625 X118 Y129.74
G1 F1350 X118 Y178.027 E83.43342
G0 F2625 X120 Y176.838
G1 F1350 X120 Y131.126 E87.08786
G0 F2625 X122 Y133.679
G1 F1350 X122 Y174.72 E90.36887
G0 F2625 X124 Y171.301
G1 F1350 X124 Y141.663 E92.73828
G0 F2625 X126 Y141.663
G1 F1350 X126 Y169.102 E94.93189
G0 F2625 X128 Y167.793
G1 F1350 X128 Y141.663 E97.02085
G0 F2625 X130 Y141.663
G1 F1350 X130 Y167.017 E99.04777
G0 F2625 X132 Y166.639
G1 F1350 X132 Y141.663 E101.04447
G0 F2625 X134 Y141.663
G1 F1350 X134 Y166.603 E103.0383
G0 F2625 X136 Y166.905
G1 F1350 X136 Y141.663 E105.05627
G0 F2625 X138 Y141.663
G1 F1350 X138 Y167.525 E107.1238
G0 F2625 X140 Y168.526
G1 F1350 X140 Y141.663 E109.27136
G0 F2625 X142 Y141.663
G1 F1350 X142 Y170.034 E111.53947
G0 F2625 X144 Y172.338
G1 F1350 X144 Y134.463 E114.56739
G0 F2625 X146 Y131.474
G1 F1350 X146 Y175.401 E118.07912
G0 F2625 X148 Y177.204
G1 F1350 X148 Y129.937 E121.85788
G0 F2625 X150 Y129.077
G1 F1350 X150 Y178.238 E125.78805
G0 F2625 X152 Y178.731
G1 F1350 X152 Y128.698 E129.78793
G0 F2625 X154 Y128.663
G1 F1350 X154 Y178.83 E133.79852
G0 F2625 X156 Y178.83
G1 F1350 X156 Y128.663 E137.80912
G0 F2625 X158 Y128.663
G1 F1350 X158 Y178.83 E141.81971
G0 F2625 X160 Y178.83
G1 F1350 X160 Y128.663 E145.83031
G0 F2625 X162 Y128.663
G1 F1350 X162 Y178.83 E149.8409
G0 F2625 X164 Y178.83
G1 F1350 X164 Y128.663 E153.85149
G0 F2625 X166 Y128.663
G1 F1350 X166 Y178.83 E157.86209
G0 F2625 X168 Y178.83
G1 F1350 X168 Y128.663 E161.87268
G0 F2625 X170 Y128.663
G1 F1350 X170 Y178.83 E165.88328
G0 F2625 X172 Y178.814
G1 F1350 X172 Y128.73 E169.88723
G0 F2625 X174 Y129.177
G1 F1350 X174 Y178.486 E173.82924
G0 F2625 X176 Y177.694
G1 F1350 X176 Y130.131 E177.63165
G0 F2625 X178 Y131.818
G1 F1350 X178 Y176.252 E181.18392
G0 F2625 X180 Y173.558
G1 F1350 X180 Y156.541 E182.54434
G0 F2625 X180 Y156.002
G1 F1350 X180 Y135.312 E184.1984
G0 F2625 X143 Y141.089
G0 X123.335 Y141.088
G0 X88 Y132.969
M104 S240
G1 F1350 X88 Y173.549 E187.44257
G0 F2625 X90.683 Y130.25
;TIME_ELAPSED:115.687351
;LAYER:-5
M140 S110
M221 S100
G0 X90.683 Y130.25 Z0.78
;TYPE:SUPPORT
G1 F1350 X90.032 Y130.727 E187.47672
G1 X127.412 Y168.108 E189.71413
G1 X126.723 Y168.54 E189.74855
G1 X126.399 Y168.79 E189.76587
G1 X89.146 Y131.537 E191.99564
G1 X88.775 Y131.927 E192.01842
G1 X88.361 Y132.448 E192.04659
G1 X125.483 Y169.569 E194.26849
G1 X125.104 Y169.93 E194.29064
G1 X124.66 Y170.443 E194.31935
G1 X87.689 Y133.472 E196.53225
G1 X87.375 Y134.061 E196.5605
G1 X87.137 Y134.615 E196.58602
G1 X123.926 Y171.404 E198.78802
G1 X123.677 Y171.756 E198.80626
G1 X123.279 Y172.452 E198.8402
G1 X86.725 Y135.898 E201.02813
G1 X86.593 Y136.482 E201.05347
G1 X86.481 Y137.303 E201.08854
G1 X86.479 Y137.349 E201.09049
G1 X122.689 Y173.558 E203.2578
G1 X122.306 Y174.257 E203.29154
G1 X122.062 Y174.627 E203.3103
G1 X86.443 Y139.008 E205.44226
G1 X86.443 Y140.703 E205.514
G1 X121.33 Y175.59 E207.60216
G1 X121.311 Y175.612 E207.60339
G1 X120.713 Y176.23 E207.63979
G1 X120.477 Y176.433 E207.65296
G1 X86.443 Y142.399 E209.69006
G1 X86.443 Y144.094 E209.7618
G1 X119.525 Y177.177 E211.74195
G1 X119.39 Y177.276 E211.74903
G1 X118.648 Y177.716 E211.78554
G1 X118.458 Y177.806 E211.79444
G1 X86.443 Y145.79 E213.71072
G1 X86.443 Y147.486 E213.7825
G1 X117.265 Y178.308 E215.62735
G1 X117.077 Y178.378 E215.63584
G1 X116.285 Y178.595 E215.67059
G1 X115.92 Y178.659 E215.68628
G1 X86.443 Y149.181 E217.45065
G1 X86.443 Y150.877 E217.52243
G1 X114.38 Y178.814 E219.19459
G1 X114.165 Y178.829 E219.20372
G1 X112.698 Y178.828 E219.2658
G1 X86.443 Y152.573 E220.83729
G1 X86.443 Y153.148 E220.86163
G1 X86.455 Y153.629 E220.88199
G1 X86.523 Y154.349 E220.9126
G1 X111.003 Y178.828 E222.37782
G1 X109.307 Y178.828 E222.4496
G1 X87.109 Y156.63 E223.77826
G1 X87.222 Y156.927 E223.79171
G1 X87.626 Y157.758 E223.83081
G1 X87.414 Y158.631 E223.86884
G1 X107.611 Y178.828 E225.07772
G1 X105.916 Y178.828 E225.14946
G1 X87.16 Y160.072 E226.2721
G1 X87.124 Y160.364 E226.28455
G1 X87.029 Y161.587 E226.33647
G1 X87.027 Y161.636 E226.33855
G1 X104.22 Y178.828 E227.3676
G1 X102.524 Y178.828 E227.43938
G1 X87 Y163.304 E228.36857
G1 X87 Y164.999 E228.44031
G1 X100.829 Y178.828 E229.26804
G1 X99.133 Y178.828 E229.33982
G1 X87 Y166.695 E230.06604
G1 X87 Y168.391 E230.13782
G1 X97.437 Y178.828 E230.76252
G1 X96.522 Y178.828 E230.80125
G1 X95.706 Y178.792 E230.83582
G1 X87.044 Y170.13 E231.35428
G1 X87.094 Y170.654 E231.37656
G1 X87.249 Y171.493 E231.41267
G1 X87.46 Y172.242 E231.4456
G1 X93.575 Y178.357 E231.81162
G0 F2625 X128.529 Y167.529
G1 F1350 X91.037 Y130.037 E234.05569
G1 X90.683 Y130.25 E234.07318
G0 F2625 X92.15 Y129.454
G1 F1350 X129.771 Y167.075 E236.32498
G1 X129.623 Y167.114 E236.33146
G1 X128.594 Y167.498 E236.37794
G1 X128.529 Y167.529 E236.38099
G0 F2625 X131.149 Y166.757
G1 F1350 X93.408 Y129.017 E238.63994
G1 X92.973 Y129.138 E238.65905
G1 X92.172 Y129.442 E238.69531
G1 X92.15 Y129.454 E238.69637
G0 F2625 X94.823 Y128.736
G1 F1350 X132.682 Y166.595 E240.96241
G1 X131.831 Y166.648 E240.9985
G1 X131.149 Y166.757 E241.02773
G0 F2625 X134.428 Y166.645
G1 F1350 X96.445 Y128.662 E243.3012
G1 X95.968 Y128.662 E243.32139
G1 X95.476 Y128.675 E243.34222
G1 X94.823 Y128.736 E243.36998
G0 F2625 X98.14 Y128.662
G1 F1350 X136.489 Y167.011 E245.66535
G1 X135.316 Y166.755 E245.71616
G1 X134.428 Y166.645 E245.75403
G0 F2625 X139.317 Y168.142
G1 F1350 X99.836 Y128.662 E248.11713
G1 X98.14 Y128.662 E248.18891
G0 F2625 X101.532 Y128.662
G1 F1350 X151.526 Y178.656 E251.1813
G1 X150.777 Y178.488 E251.21378
G1 X149.968 Y178.226 E251.24977
G1 X149.197 Y177.897 E251.28525
G1 X148.925 Y177.751 E251.29832
G1 X144.801 Y173.627 E251.54516
G0 F2625 X153.394 Y178.829
G1 F1350 X155.09 Y178.829 E251.61694
G1 X104.923 Y128.662 E254.61968
G1 X106.618 Y128.662 E254.69142
G1 X156.786 Y178.829 E257.69418
G1 X158.481 Y178.829 E257.76592
G1 X108.314 Y128.662 E260.76866
G1 X110.01 Y128.662 E260.84044
G1 X122.704 Y141.357 E261.60027
G1 X122.956 Y139.913 E261.66231
G1 X111.705 Y128.662 E262.33573
G1 X113.401 Y128.662 E262.40751
G1 X123.12 Y138.381 E262.98924
G1 X123.116 Y137.694 E263.01832
G1 X123.034 Y136.837 E263.05476
G1 X122.98 Y136.545 E263.06732
G1 X115.239 Y128.804 E263.53066
G1 X115.307 Y128.813 E263.53356
G1 X116.15 Y129.003 E263.57014
G1 X116.958 Y129.264 E263.60608
G1 X117.721 Y129.59 E263.64119
G1 X122.181 Y134.051 E263.90818
G0 F2625 X123.011 Y141.663
G1 F1350 X160.177 Y178.829 E266.13274
G1 X161.873 Y178.829 E266.20452
G1 X124.706 Y141.663 E268.42911
G1 X126.402 Y141.663 E268.5009
G1 X163.568 Y178.829 E270.72546
G1 X165.264 Y178.829 E270.79724
G1 X128.098 Y141.663 E273.02181
G1 X129.793 Y141.663 E273.09354
G1 X166.959 Y178.829 E275.31811
G1 X168.655 Y178.829 E275.38989
G1 X131.489 Y141.663 E277.61445
G1 X133.184 Y141.663 E277.68619
G1 X170.351 Y178.829 E279.91079
G1 X171.474 Y178.829 E279.95832
G1 X171.966 Y178.815 E279.97915
G1 X172.027 Y178.809 E279.98174
G1 X134.88 Y141.663 E282.20514
G1 X136.576 Y141.663 E282.27692
G1 X173.519 Y178.605 E284.48811
G1 X173.664 Y178.579 E284.49434
G1 X174.468 Y178.353 E284.52969
G1 X174.825 Y178.217 E284.54586
G1 X138.271 Y141.663 E286.73379
G1 X139.967 Y141.663 E286.80557
G1 X175.998 Y177.693 E288.96217
G1 X176.036 Y177.675 E288.96395
G1 X176.759 Y177.241 E288.99964
G1 X177.036 Y177.036 E289.01423
G1 X141.663 Y141.663 E291.13147
G1 X143.358 Y141.663 E291.20321
G1 X177.971 Y176.276 E293.27497
