;Generated by Cura LulzBot Edition GCodeWriter Version: 2.6.69
;FLAVOR:RepRap
;TIME:970
;Filament used: 0.895577m
;Layer height: 0.38
;Generated with Cura_SteamEngine 2.6.69
;This G-Code has been generated specifically for the LulzBot TAZ 6 with standard extruder
G26 ; clear potential 'probe fail' condition
G21 ; set units to Millimetres
M107 ; disable fans
G90 ; absolute positioning
M82 ; set extruder to absolute mode
G92 E0 ; set extruder position to 0
M140 S110 ; start bed heating up
G28 XY ; home X and Y
G1 X-19 Y258 F1000 ; move to safe homing position
M109 R175 ; soften filament before homing Z
G28 Z ; home Z
G1 E-30 F100 ; retract filament
M109 R170 ; wait for extruder to reach wiping temp
G1 X-15 Y100 F3000 ; move above wiper pad
G1 Z1 ; push nozzle into wiper
G1 X-17 Y95 F1000 ; slow wipe
G1 X-17 Y90 F1000 ; slow wipe
G1 X-17 Y85 F1000 ; slow wipe
G1 X-15 Y90 F1000 ; slow wipe
G1 X-17 Y80 F1000 ; slow wipe
G1 X-15 Y95 F1000 ; slow wipe
G1 X-17 Y75 F2000 ; fast wipe
G1 X-15 Y65 F2000 ; fast wipe
G1 X-17 Y70 F2000 ; fast wipe
G1 X-15 Y60 F2000 ; fast wipe
G1 X-17 Y55 F2000 ; fast wipe
G1 X-15 Y50 F2000 ; fast wipe
G1 X-17 Y40 F2000 ; fast wipe
G1 X-15 Y45 F2000 ; fast wipe
G1 X-17 Y35 F2000 ; fast wipe
G1 X-15 Y40 F2000 ; fast wipe
G1 X-17 Y70 F2000 ; fast wipe
G1 X-15 Y30 Z2 F2000 ; fast wipe
G1 X-17 Y35 F2000 ; fast wipe
G1 X-15 Y25 F2000 ; fast wipe
G1 X-17 Y30 F2000 ; fast wipe
G1 X-15 Y25 Z1.5 F1000 ; slow wipe
G1 X-17 Y23 F1000 ; slow wipe
G1 Z10 ; raise extruder
M109 R170 ; wait for extruder to reach probe temp
G1 X-9 Y-9 ; move above first probe point
M204 S100 ; set probing acceleration
G29 ; start auto-leveling sequence
M204 S500 ; restore standard acceleration
G1 X0 Y0 Z15 F5000 ; move up off last probe point
G4 S1 ; pause
M400 ; wait for moves to finish
M117 Heating... ; progress indicator message on LCD
M109 R240 ; wait for extruder to reach printing temp
M190 S110 ; wait for bed to reach printing temp
G1 Z2 E0 F75 ; prime tiny bit of filament into the nozzle
M117 TAZ 6 Printing... ; progress indicator message on LCD

M221 S100
;LAYER_COUNT:6
;LAYER:-5
M107
G0 F2625 X106.948 Y123.897 Z0.51
G1 F1350 X107.86 Y123.12 E0.09578
G1 X108.459 Y122.683 E0.15506
G1 X109.507 Y122.042 E0.25327
G1 X110.163 Y121.707 E0.31216
G1 X111.284 Y121.243 E0.40915
G1 X112.001 Y121.01 E0.46942
G1 X113.175 Y120.729 E0.56593
G1 X113.909 Y120.611 E0.62536
G1 X115.149 Y120.515 E0.72479
G1 X115.516 Y120.5 E0.75415
G1 X164.484 Y120.5 E4.66889
G1 X164.851 Y120.515 E4.69826
G1 X166.091 Y120.611 E4.79768
G1 X166.825 Y120.729 E4.85712
G1 X167.999 Y121.01 E4.95362
G1 X168.716 Y121.243 E5.01389
G1 X169.837 Y121.707 E5.11089
G1 X170.493 Y122.042 E5.16977
G1 X171.541 Y122.683 E5.26798
G1 X172.14 Y123.12 E5.32726
G1 X173.052 Y123.897 E5.42304
G1 X173.603 Y124.448 E5.48534
G1 X174.38 Y125.36 E5.58112
G1 X174.817 Y125.959 E5.6404
G1 X175.458 Y127.007 E5.73861
G1 X175.793 Y127.663 E5.7975
G1 X176.257 Y128.784 E5.89449
G1 X176.49 Y129.501 E5.95476
G1 X176.771 Y130.675 E6.05127
G1 X176.889 Y131.409 E6.1107
G1 X176.987 Y132.669 E6.21173
G1 X177 Y133.015 E6.23941
G1 X177 Y146.985 E7.35624
G1 X176.987 Y147.331 E7.38392
G1 X176.889 Y148.591 E7.48496
G1 X176.771 Y149.325 E7.54439
G1 X176.49 Y150.499 E7.6409
G1 X176.257 Y151.216 E7.70117
G1 X175.793 Y152.337 E7.79816
G1 X175.458 Y152.993 E7.85705
G1 X174.817 Y154.041 E7.95526
G1 X174.38 Y154.64 E8.01453
G1 X173.603 Y155.552 E8.11032
G1 X173.055 Y156.1 E8.17227
G1 X172.14 Y156.88 E8.2684
G1 X171.541 Y157.317 E8.32767
G1 X170.493 Y157.958 E8.42588
G1 X169.837 Y158.293 E8.48477
G1 X168.716 Y158.757 E8.58176
G1 X167.999 Y158.99 E8.64203
G1 X166.825 Y159.271 E8.73854
G1 X166.091 Y159.389 E8.79797
G1 X164.851 Y159.485 E8.8974
G1 X164.484 Y159.5 E8.92676
G1 X115.516 Y159.5 E12.8415
G1 X115.149 Y159.485 E12.87087
G1 X113.909 Y159.389 E12.9703
G1 X113.175 Y159.271 E13.02973
G1 X112.001 Y158.99 E13.12624
G1 X111.284 Y158.757 E13.18651
G1 X110.163 Y158.293 E13.2835
G1 X109.507 Y157.958 E13.34239
G1 X108.459 Y157.317 E13.4406
G1 X107.86 Y156.88 E13.49987
G1 X106.945 Y156.1 E13.59599
G1 X106.397 Y155.552 E13.65795
G1 X105.62 Y154.64 E13.75373
G1 X105.183 Y154.041 E13.81301
G1 X104.542 Y152.993 E13.91122
G1 X104.207 Y152.337 E13.97011
G1 X103.743 Y151.216 E14.0671
G1 X103.51 Y150.499 E14.12737
G1 X103.229 Y149.325 E14.22388
G1 X103.111 Y148.591 E14.28331
G1 X103.013 Y147.331 E14.38434
G1 X103 Y146.985 E14.41202
G1 X103 Y133.015 E15.52885
G1 X103.013 Y132.669 E15.55654
G1 X103.111 Y131.409 E15.65757
G1 X103.229 Y130.675 E15.717
G1 X103.51 Y129.501 E15.81351
G1 X103.743 Y128.784 E15.87378
G1 X104.207 Y127.663 E15.97077
G1 X104.542 Y127.007 E16.02966
G1 X105.183 Y125.959 E16.12787
G1 X105.62 Y125.36 E16.18715
G1 X106.397 Y124.448 E16.28293
G1 X106.948 Y123.897 E16.34522
G0 F2625 X122.259 Y131.5
G1 F1350 X123.055 Y134.811 E16.61746
G1 X123.643 Y136.603 E16.76824
G1 X124.339 Y138.243 E16.91067
G1 X125.139 Y139.75 E17.04707
G1 X126.032 Y141.113 E17.17734
G1 X127.029 Y142.362 E17.3051
G1 X128.071 Y143.442 E17.42507
G1 X129.252 Y144.448 E17.5491
G1 X130.481 Y145.309 E17.66906
G1 X131.81 Y146.055 E17.7909
G1 X133.21 Y146.672 E17.91321
G1 X134.678 Y147.156 E18.03679
G1 X136.192 Y147.499 E18.16089
G1 X137.79 Y147.706 E18.28971
G1 X139.381 Y147.762 E18.41698
G1 X140.997 Y147.669 E18.54639
G1 X142.616 Y147.426 E18.67727
G1 X144.193 Y147.04 E18.80706
G1 X145.748 Y146.51 E18.9384
G1 X147.226 Y145.851 E19.06777
G1 X148.66 Y145.052 E19.19901
G1 X149.995 Y144.142 E19.32817
G1 X151.263 Y143.101 E19.45932
G1 X152.254 Y142.142 E19.56957
G1 X153.341 Y140.9 E19.70152
G1 X154.316 Y139.567 E19.83355
G1 X155.211 Y138.087 E19.97182
G1 X155.986 Y136.516 E20.11187
G1 X156.638 Y134.857 E20.25437
G1 X157.645 Y131.5 E20.53456
G1 X122.259 Y131.5 E23.36349
G0 F2625 X124 Y131.5
G1 F1350 X124 Y120.5 E24.24288
G0 F2625 X122 Y120.5
G1 F1350 X122 Y159.5 E27.36073
G0 F2625 X124 Y159.5
G1 F1350 X124 Y137.445 E29.12391
G0 F2625 X126 Y141.065
G1 F1350 X126 Y159.5 E30.5977
G0 F2625 X128 Y159.5
G1 F1350 X128 Y143.369 E31.88729
G0 F2625 X130 Y144.973
G1 F1350 X130 Y159.5 E33.04865
G0 F2625 X132 Y159.5
G1 F1350 X132 Y146.139 E34.11679
G0 F2625 X134 Y146.933
G1 F1350 X134 Y159.5 E35.12146
G0 F2625 X136 Y159.5
G1 F1350 X136 Y147.456 E36.08431
G0 F2625 X138 Y147.714
G1 F1350 X138 Y159.5 E37.02654
G0 F2625 X140 Y159.5
G1 F1350 X140 Y147.726 E37.96782
G0 F2625 X142 Y147.518
G1 F1350 X142 Y159.5 E38.92571
G0 F2625 X144 Y159.5
G1 F1350 X144 Y147.087 E39.91807
G0 F2625 X146 Y146.397
G1 F1350 X146 Y159.5 E40.96559
G0 F2625 X148 Y159.5
G1 F1350 X148 Y145.419 E42.09129
G0 F2625 X150 Y144.137
G1 F1350 X150 Y159.5 E43.31948
G0 F2625 X152 Y159.5
G1 F1350 X152 Y142.387 E44.68758
G0 F2625 X154 Y139.999
G1 F1350 X154 Y159.5 E46.24659
G0 F2625 X156 Y159.5
G1 F1350 X156 Y136.48 E48.08692
G0 F2625 X156.87 Y132.077
G0 X156 Y131.5
G1 F1350 X156 Y120.5 E48.96631
G0 F2625 X154 Y120.5
G1 F1350 X154 Y131.5 E49.8457
G0 F2625 X152 Y131.5
G1 F1350 X152 Y120.5 E50.7251
G0 F2625 X150 Y120.5
G1 F1350 X150 Y131.5 E51.60449
G0 F2625 X148 Y131.5
G1 F1350 X148 Y120.5 E52.48388
G0 F2625 X146 Y120.5
G1 F1350 X146 Y131.5 E53.36328
G0 F2625 X144 Y131.5
G1 F1350 X144 Y120.5 E54.24267
G0 F2625 X142 Y120.5
G1 F1350 X142 Y131.5 E55.12206
G0 F2625 X140 Y131.5
G1 F1350 X140 Y120.5 E56.00146
G0 F2625 X138 Y120.5
G1 F1350 X138 Y131.5 E56.88085
G0 F2625 X136 Y131.5
G1 F1350 X136 Y120.5 E57.76025
G0 F2625 X134 Y120.5
G1 F1350 X134 Y131.5 E58.63964
G0 F2625 X132 Y131.5
G1 F1350 X132 Y120.5 E59.51903
G0 F2625 X130 Y120.5
G1 F1350 X130 Y131.5 E60.39843
G0 F2625 X128 Y131.5
G1 F1350 X128 Y120.5 E61.27782
G0 F2625 X126 Y120.5
G1 F1350 X126 Y131.5 E62.15721
G0 F2625 X120 Y120.5
G1 F1350 X120 Y159.5 E65.27506
G0 F2625 X118 Y159.5
G1 F1350 X118 Y120.5 E68.39291
G0 F2625 X116 Y120.5
G1 F1350 X116 Y159.5 E71.51076
G0 F2625 X114 Y159.396
G1 F1350 X114 Y120.603 E74.61206
G0 F2625 X112 Y121.01
G1 F1350 X112 Y158.989 E77.64829
G0 F2625 X110 Y158.209
G1 F1350 X110 Y121.79 E80.5598
G0 F2625 X108 Y123.017
G1 F1350 X108 Y156.982 E83.27513
G0 F2625 X106 Y155.086
G1 F1350 X106 Y124.913 E85.68731
G0 F2625 X104 Y128.163
G1 F1350 X104 Y151.836 E87.57984
G0 F2625 X158 Y159.5
G1 F1350 X158 Y120.5 E90.69769
G0 F2625 X160 Y120.5
G1 F1350 X160 Y159.5 E93.81554
G0 F2625 X162 Y159.5
G1 F1350 X162 Y120.5 E96.93339
G0 F2625 X164 Y120.5
G1 F1350 X164 Y159.5 E100.05124
G0 F2625 X166 Y159.397
G1 F1350 X166 Y120.604 E103.15254
G0 F2625 X168 Y121.011
G1 F1350 X168 Y158.99 E106.18877
G0 F2625 X170 Y158.21
G1 F1350 X170 Y121.791 E109.10028
G0 F2625 X172 Y123.018
G1 F1350 X172 Y156.983 E111.81561
G0 F2625 X174 Y155.087
G1 F1350 X174 Y124.914 E114.22778
G0 F2625 X176 Y128.164
M104 S240
G1 F1350 X176 Y151.837 E116.12032
G0 F2625 X156.87 Y132.077
G0 X106.948 Y123.896
;TIME_ELAPSED:77.485366
;LAYER:-4
M140 S110
M221 S100
G0 X106.948 Y123.896 Z1.08
;TYPE:SUPPORT
G1 F1350 X106.944 Y123.9 E116.12082
G1 X142.542 Y159.499 E120.61906
G1 X140.847 Y159.499 E120.7705
G1 X106.119 Y124.771 E125.15874
G1 X105.619 Y125.359 E125.2277
G1 X105.363 Y125.71 E125.26652
G1 X139.151 Y159.499 E129.53604
G1 X137.455 Y159.499 E129.68758
G1 X104.701 Y126.744 E133.82645
G1 X104.541 Y127.006 E133.85388
G1 X104.207 Y127.661 E133.91957
G1 X104.123 Y127.862 E133.93903
G1 X135.76 Y159.499 E137.93669
G1 X134.064 Y159.499 E138.08823
G1 X103.645 Y129.08 E141.93198
G1 X103.509 Y129.5 E141.97142
G1 X103.289 Y130.42 E142.05594
G1 X132.368 Y159.499 E145.73037
G1 X130.673 Y159.499 E145.88182
G1 X103.072 Y131.898 E149.36949
G1 X103.013 Y132.668 E149.43849
G1 X103 Y133.013 E149.46934
G1 X103 Y133.521 E149.51473
G1 X128.977 Y159.499 E152.79725
G1 X127.282 Y159.499 E152.9487
G1 X103 Y135.217 E156.01698
G1 X103 Y136.912 E156.16842
G1 X125.586 Y159.499 E159.02246
G1 X123.89 Y159.499 E159.174
G1 X103 Y138.608 E161.81372
G1 X103 Y140.304 E161.96526
G1 X122.195 Y159.499 E164.39074
G1 X120.499 Y159.499 E164.54228
G1 X103 Y141.999 E166.75352
G1 X103 Y143.695 E166.90506
G1 X118.803 Y159.499 E168.90199
G1 X117.108 Y159.499 E169.05344
G1 X103 Y145.391 E170.83613
G1 X103 Y146.984 E170.97847
G1 X103.003 Y147.09 E170.98794
G1 X115.407 Y159.494 E172.55531
G1 X115.148 Y159.484 E172.57847
G1 X113.908 Y159.388 E172.6896
G1 X113.547 Y159.329 E172.72228
G1 X103.169 Y148.951 E174.03365
G1 X103.229 Y149.323 E174.06732
G1 X103.509 Y150.498 E174.17524
G1 X103.743 Y151.215 E174.24263
G1 X103.746 Y151.224 E174.24348
G1 X111.273 Y158.751 E175.19459
G0 F2625 X126.745 Y142.006
G1 F1350 X126.032 Y141.112 E175.29676
G1 X125.138 Y139.749 E175.44241
G1 X124.339 Y138.242 E175.59481
G1 X124.09 Y137.655 E175.65179
G1 X108.867 Y122.432 E177.57537
G1 X109.506 Y122.04 E177.64235
G1 X109.947 Y121.816 E177.68654
G1 X123.111 Y134.981 E179.35001
G1 X123.054 Y134.809 E179.3662
G1 X122.554 Y132.728 E179.55743
G1 X111.131 Y121.305 E181.00084
G1 X111.283 Y121.242 E181.01555
G1 X112 Y121.009 E181.08291
G1 X112.429 Y120.907 E181.12231
G1 X123.021 Y131.499 E182.46071
G1 X124.716 Y131.499 E182.61216
G1 X113.839 Y120.621 E183.98665
G1 X113.908 Y120.61 E183.99289
G1 X115.148 Y120.514 E184.10401
G1 X115.416 Y120.503 E184.12798
G1 X126.412 Y131.499 E185.51744
G1 X128.107 Y131.499 E185.66889
G1 X117.108 Y120.5 E187.05872
G1 X118.804 Y120.5 E187.21026
G1 X129.803 Y131.499 E188.60009
G1 X131.499 Y131.499 E188.75163
G1 X120.5 Y120.5 E190.14147
G1 X122.195 Y120.5 E190.29292
G1 X133.194 Y131.499 E191.68275
G1 X134.89 Y131.499 E191.83429
G1 X123.891 Y120.5 E193.22413
G1 X125.587 Y120.5 E193.37566
G1 X136.586 Y131.499 E194.7655
G1 X138.281 Y131.499 E194.91695
G1 X127.282 Y120.5 E196.30678
G1 X128.978 Y120.5 E196.45832
G1 X139.977 Y131.499 E197.84816
G1 X141.673 Y131.499 E197.99969
G1 X130.674 Y120.5 E199.38953
G1 X132.369 Y120.5 E199.54098
G1 X143.368 Y131.499 E200.93081
G1 X145.064 Y131.499 E201.08235
G1 X134.065 Y120.5 E202.47219
G1 X135.76 Y120.5 E202.62364
G1 X146.76 Y131.499 E204.01354
G1 X148.455 Y131.499 E204.16498
G1 X137.456 Y120.5 E205.55482
G1 X139.152 Y120.5 E205.70636
G1 X150.151 Y131.499 E207.09619
G1 X151.846 Y131.499 E207.24764
G1 X140.847 Y120.5 E208.63748
G1 X142.543 Y120.5 E208.78902
G1 X153.542 Y131.499 E210.17885
G1 X155.238 Y131.499 E210.33039
G1 X144.239 Y120.5 E211.72022
G1 X145.934 Y120.5 E211.87167
G1 X156.933 Y131.499 E213.26151
G0 F2625 X157.48 Y132.045
G1 F1350 X157.089 Y133.35 E213.38323
G1 X175.875 Y152.136 E215.75703
G1 X175.791 Y152.336 E215.77642
G1 X175.457 Y152.992 E215.84219
G1 X175.297 Y153.254 E215.86962
G1 X156.697 Y134.654 E218.21992
G1 X156.637 Y134.857 E218.23883
G1 X156.233 Y135.885 E218.33752
G1 X174.636 Y154.288 E220.66293
G1 X174.379 Y154.64 E220.70187
G1 X173.879 Y155.227 E220.77077
G1 X155.715 Y137.063 E223.06597
G1 X155.21 Y138.087 E223.16799
G1 X155.147 Y138.191 E223.17885
G1 X173.055 Y156.098 E225.44165
G0 F2625 X173.053 Y156.1
G1 F1350 X172.14 Y156.879 E225.54889
G1 X154.507 Y139.247 E227.77693
G1 X154.315 Y139.566 E227.8102
G1 X153.814 Y140.249 E227.88588
G1 X171.131 Y157.566 E230.07406
G1 X170.491 Y157.957 E230.14107
G1 X170.051 Y158.181 E230.18519
G1 X153.073 Y141.203 E232.33053
G1 X152.282 Y142.108 E232.43793
G1 X168.866 Y158.693 E234.53355
G1 X168.715 Y158.756 E234.54817
G1 X167.998 Y158.99 E234.61556
G1 X167.57 Y159.091 E234.65485
G1 X151.423 Y142.945 E236.69512
G1 X151.262 Y143.1 E236.71509
G1 X150.505 Y143.722 E236.80263
G1 X166.16 Y159.377 E238.7808
G1 X166.09 Y159.388 E238.78713
G1 X164.85 Y159.485 E238.89827
G1 X164.582 Y159.495 E238.92223
G1 X149.539 Y144.452 E240.82306
G1 X148.659 Y145.051 E240.91818
G1 X148.52 Y145.129 E240.93242
G1 X162.89 Y159.499 E242.74822
G1 X161.194 Y159.499 E242.89975
G1 X147.431 Y145.736 E244.63885
G1 X147.225 Y145.85 E244.65989
G1 X146.274 Y146.274 E244.75292
G1 X159.499 Y159.499 E246.42403
G1 X157.803 Y159.499 E246.57557
G1 X145.051 Y146.747 E248.18692
G1 X144.192 Y147.039 E248.26798
G1 X143.755 Y147.146 E248.30818
G1 X156.107 Y159.499 E249.86905
G1 X154.412 Y159.499 E250.02049
G1 X142.375 Y147.462 E251.54149
G1 X140.997 Y147.667 E251.66597
G1 X140.891 Y147.674 E251.67546
G1 X152.716 Y159.499 E253.16967
G1 X151.021 Y159.499 E253.32112
G1 X139.279 Y147.757 E254.80484
G1 X137.79 Y147.705 E254.93797
G1 X137.493 Y147.667 E254.96472
G1 X149.325 Y159.499 E256.45981
G1 X147.629 Y159.499 E256.61135
G1 X135.463 Y147.333 E258.14865
G1 X134.677 Y147.155 E258.22066
G1 X133.209 Y146.671 E258.35877
G1 X133.025 Y146.59 E258.37673
G1 X145.934 Y159.499 E260.00791
G1 X144.238 Y159.499 E260.15945
G1 X128.81 Y144.071 E262.10894
G0 F2625 X126.745 Y142.006
G1 F1350 X107.859 Y123.12 E264.49538
G1 X106.948 Y123.896 E264.6023
G0 F2625 X147.63 Y120.5
G1 F1350 X149.326 Y120.5 E264.75384
G1 X176.926 Y148.1 E268.24138
G1 X176.985 Y147.331 E268.31029
G1 X176.998 Y146.984 E268.34132
G1 X176.999 Y146.477 E268.38662
G1 X151.021 Y120.5 E271.66914
G1 X152.717 Y120.5 E271.82068
G1 X176.999 Y144.782 E274.88896
G1 X176.999 Y143.086 E275.04049
G1 X154.413 Y120.5 E277.89447
G1 X156.108 Y120.5 E278.04591
G1 X176.999 Y141.39 E280.68564
G1 X176.999 Y139.695 E280.83709
G1 X157.804 Y120.5 E283.26257
G1 X159.499 Y120.5 E283.41402
G1 X176.999 Y137.999 E285.62526
G1 X176.999 Y136.304 E285.77671
G1 X161.195 Y120.5 E287.77371
G1 X162.891 Y120.5 E287.92524
G1 X176.999 Y134.608 E289.70793
G1 X176.999 Y133.014 E289.85036
G1 X176.995 Y132.909 E289.85975
G1 X164.591 Y120.505 E291.42712
G1 X164.85 Y120.515 E291.45028
G1 X166.09 Y120.61 E291.5614
G1 X166.451 Y120.669 E291.59408
G1 X176.83 Y131.048 E292.90557
G1 X176.77 Y130.675 E292.93933
G1 X176.489 Y129.5 E293.04728
G1 X176.256 Y128.783 E293.11464
G1 X176.252 Y128.774 E293.11552
G1 X168.724 Y121.246 E294.06676
G0 F2625 X157.48 Y132.045
G1 F1350 X176.353 Y150.919 E296.45162
G1 X176.489 Y150.499 E296.49106
G1 X176.709 Y149.579 E296.57558
G1 X147.63 Y120.5 E300.25001
G0 F2625 X156.87 Y132.077
G0 X173.055 Y156.098
G1 F1350 X173.053 Y156.1 E300.25026
G0 F2625 X156.87 Y132.077
G0 X106.77 Y123.719
;TIME_ELAPSED:175.250737
;LAYER:-3
G0 X106.77 Y123.719 Z1.46
G1 F1800 X106.489 Y124 E300.2621
G1 X173.509 Y124 E302.25818
G1 X173.779 Y124.27 E302.26955
G1 X173.976 Y124.5 E302.27857
G1 X106.023 Y124.5 E304.30244
G1 X105.596 Y125 E304.32202
