;Generated by Cura LulzBot Edition GCodeWriter Version: 2.6.69
;FLAVOR:RepRap
;TIME:738
;Filament used: 0.455638m
;Layer height: 0.38
;Generated with Cura_SteamEngine 2.6.69
;This G-Code has been generated specifically for the LulzBot TAZ 6 with standard extruder
G26 ; clear potential 'probe fail' condition
G21 ; set units to Millimetres
M107 ; disable fans
G90 ; absolute positioning
M82 ; set extruder to absolute mode
G92 E0 ; set extruder position to 0
M140 S110 ; start bed heating up
G28 XY ; home X and Y
G1 X-19 Y258 F1000 ; move to safe homing position
M109 R175 ; soften filament before homing Z
G28 Z ; home Z
G1 E-30 F100 ; retract filament
M109 R170 ; wait for extruder to reach wiping temp
G1 X-15 Y100 F3000 ; move above wiper pad
G1 Z1 ; push nozzle into wiper
G1 X-17 Y95 F1000 ; slow wipe
G1 X-17 Y90 F1000 ; slow wipe
G1 X-17 Y85 F1000 ; slow wipe
G1 X-15 Y90 F1000 ; slow wipe
G1 X-17 Y80 F1000 ; slow wipe
G1 X-15 Y95 F1000 ; slow wipe
G1 X-17 Y75 F2000 ; fast wipe
G1 X-15 Y65 F2000 ; fast wipe
G1 X-17 Y70 F2000 ; fast wipe
G1 X-15 Y60 F2000 ; fast wipe
G1 X-17 Y55 F2000 ; fast wipe
G1 X-15 Y50 F2000 ; fast wipe
G1 X-17 Y40 F2000 ; fast wipe
G1 X-15 Y45 F2000 ; fast wipe
G1 X-17 Y35 F2000 ; fast wipe
G1 X-15 Y40 F2000 ; fast wipe
G1 X-17 Y70 F2000 ; fast wipe
G1 X-15 Y30 Z2 F2000 ; fast wipe
G1 X-17 Y35 F2000 ; fast wipe
G1 X-15 Y25 F2000 ; fast wipe
G1 X-17 Y30 F2000 ; fast wipe
G1 X-15 Y25 Z1.5 F1000 ; slow wipe
G1 X-17 Y23 F1000 ; slow wipe
G1 Z10 ; raise extruder
M109 R170 ; wait for extruder to reach probe temp
G1 X-9 Y-9 ; move above first probe point
M204 S100 ; set probing acceleration
G29 ; start auto-leveling sequence
M204 S500 ; restore standard acceleration
G1 X0 Y0 Z15 F5000 ; move up off last probe point
G4 S1 ; pause
M400 ; wait for moves to finish
M117 Heating... ; progress indicator message on LCD
M109 R240 ; wait for extruder to reach printing temp
M190 S110 ; wait for bed to reach printing temp
G1 Z2 E0 F75 ; prime tiny bit of filament into the nozzle
M117 TAZ 6 Printing... ; progress indicator message on LCD

M221 S100
;LAYER_COUNT:6
;LAYER:0
M107
G0 F2625 X104.117 Y126.636 Z0.424
;TYPE:SKIRT
G1 F900 X104.988 Y125.966 E0.0366
G1 X105.629 Y125.547 E0.06211
G1 X106.612 Y125.009 E0.09944
G1 X107.305 Y124.696 E0.12477
G1 X107.818 Y124.487 E0.14322
G1 X131.73 Y115.82 E0.99045
G1 X132.459 Y115.598 E1.01583
G1 X133.353 Y115.436 E1.04609
G1 X134.508 Y115.3 E1.08483
G1 X135.381 Y115.25 E1.11396
G1 X145.248 Y115.284 E1.44264
G1 X146.008 Y115.327 E1.46799
G1 X146.896 Y115.48 E1.49801
G1 X148.026 Y115.748 E1.53669
G1 X148.832 Y115.989 E1.56472
G1 X172.19 Y124.49 E2.39271
G1 X172.695 Y124.696 E2.41087
G1 X173.388 Y125.009 E2.4362
G1 X174.371 Y125.547 E2.47353
G1 X175.012 Y125.966 E2.49904
G1 X175.882 Y126.635 E2.5356
G1 X176.448 Y127.142 E2.56091
G1 X177.216 Y127.944 E2.5979
G1 X177.7 Y128.534 E2.62332
G1 X178.335 Y129.441 E2.6602
G1 X178.723 Y130.097 E2.68559
G1 X179.209 Y131.082 E2.72217
G1 X179.495 Y131.793 E2.7477
G1 X179.829 Y132.849 E2.78459
G1 X180.002 Y133.589 E2.80991
G1 X180.171 Y134.688 E2.84695
G1 X180.229 Y135.449 E2.87237
G1 X180.25 Y136 E2.89074
G1 X180.25 Y152.499 E3.44032
G1 X180.227 Y153.071 E3.45939
G1 X180.165 Y153.855 E3.48559
G1 X179.989 Y154.971 E3.52322
G1 X179.807 Y155.731 E3.54926
G1 X179.456 Y156.812 E3.58711
G1 X179.156 Y157.538 E3.61328
G1 X178.829 Y158.225 E3.63863
G1 X178.637 Y158.557 E3.6514
G1 X178.227 Y159.226 E3.67754
G1 X177.563 Y160.142 E3.71522
G1 X177.054 Y160.739 E3.74136
G1 X176.53 Y161.291 E3.76671
G1 X176.242 Y161.551 E3.77963
G1 X175.644 Y162.061 E3.80581
G1 X174.731 Y162.724 E3.8434
G1 X174.063 Y163.134 E3.86951
G1 X173.395 Y163.498 E3.89485
G1 X173.04 Y163.655 E3.90778
G1 X172.314 Y163.955 E3.93394
G1 X171.238 Y164.305 E3.97163
G1 X170.476 Y164.488 E3.99774
G1 X169.355 Y164.665 E4.03554
G1 X168.571 Y164.727 E4.06174
G1 X167.999 Y164.75 E4.08081
G1 X112.001 Y164.75 E5.94612
G1 X111.429 Y164.727 E5.96519
G1 X110.645 Y164.665 E5.99139
G1 X109.524 Y164.488 E6.02919
G1 X108.762 Y164.305 E6.05529
G1 X107.686 Y163.955 E6.09299
G1 X106.96 Y163.655 E6.11915
G1 X106.273 Y163.328 E6.1445
G1 X105.937 Y163.134 E6.15742
G1 X105.269 Y162.724 E6.18353
G1 X104.356 Y162.061 E6.22111
G1 X103.758 Y161.551 E6.24729
G1 X103.206 Y161.028 E6.27262
G1 X102.946 Y160.739 E6.28557
G1 X102.437 Y160.142 E6.31171
G1 X101.773 Y159.226 E6.34939
G1 X101.363 Y158.557 E6.37553
G1 X100.999 Y157.888 E6.4009
G1 X100.844 Y157.538 E6.41365
G1 X100.544 Y156.812 E6.43982
G1 X100.193 Y155.731 E6.47767
G1 X100.011 Y154.971 E6.50371
G1 X99.835 Y153.856 E6.54131
G1 X99.773 Y153.074 E6.56744
G1 X99.75 Y152.501 E6.58654
G1 X99.75 Y136.002 E7.13613
G1 X99.771 Y135.452 E7.15446
G1 X99.829 Y134.689 E7.17995
G1 X99.998 Y133.589 E7.21702
G1 X100.171 Y132.849 E7.24234
G1 X100.505 Y131.793 E7.27923
G1 X100.791 Y131.082 E7.30476
G1 X101.276 Y130.099 E7.34127
G1 X101.662 Y129.446 E7.36654
G1 X102.294 Y128.541 E7.40331
G1 X102.778 Y127.95 E7.42875
G1 X103.549 Y127.145 E7.46588
G1 X104.117 Y126.636 E7.49129
G0 F2625 X104.45 Y127.008
G1 F900 X105.262 Y126.385 E7.52538
G1 X105.903 Y125.966 E7.55089
G1 X106.818 Y125.464 E7.58565
G1 X107.511 Y125.151 E7.61098
G1 X107.989 Y124.957 E7.62817
G1 X131.901 Y116.29 E8.47539
G1 X132.604 Y116.078 E8.49985
G1 X133.412 Y115.932 E8.5272
G1 X134.567 Y115.796 E8.56594
G1 X135.379 Y115.75 E8.59303
G1 X145.246 Y115.784 E8.92171
G1 X145.98 Y115.827 E8.9462
G1 X146.781 Y115.966 E8.97328
G1 X147.911 Y116.234 E9.01196
G1 X148.661 Y116.459 E9.03805
G1 X172.019 Y124.96 E9.86604
G1 X172.489 Y125.151 E9.88294
G1 X173.182 Y125.464 E9.90826
G1 X174.097 Y125.966 E9.94303
G1 X174.738 Y126.385 E9.96854
G1 X175.549 Y127.007 E10.00258
G1 X176.115 Y127.514 E10.0279
G1 X176.83 Y128.261 E10.06234
G1 X177.314 Y128.851 E10.08776
G1 X177.905 Y129.696 E10.12211
G1 X178.293 Y130.352 E10.1475
G1 X178.745 Y131.269 E10.18155
G1 X179.031 Y131.98 E10.20708
G1 X179.342 Y132.962 E10.24139
G1 X179.515 Y133.702 E10.2667
G1 X179.672 Y134.726 E10.30121
G1 X179.73 Y135.487 E10.32664
G1 X179.75 Y136 E10.34374
G1 X179.75 Y152.499 E10.89332
G1 X179.729 Y153.031 E10.91106
G1 X179.667 Y153.815 E10.93726
G1 X179.502 Y154.855 E10.97233
G1 X179.32 Y155.615 E10.99836
G1 X178.994 Y156.621 E11.03359
G1 X178.694 Y157.347 E11.05976
G1 X178.211 Y158.296 E11.09523
G1 X177.801 Y158.965 E11.12136
G1 X177.183 Y159.817 E11.15642
G1 X176.674 Y160.414 E11.18256
G1 X175.917 Y161.171 E11.21822
G1 X175.319 Y161.681 E11.2444
G1 X174.47 Y162.298 E11.27936
G1 X173.802 Y162.708 E11.30547
G1 X172.849 Y163.193 E11.34108
G1 X172.123 Y163.493 E11.36725
G1 X171.121 Y163.818 E11.40234
G1 X170.359 Y164.001 E11.42844
G1 X169.315 Y164.167 E11.46366
G1 X168.531 Y164.229 E11.48985
G1 X167.999 Y164.25 E11.50759
G1 X112.001 Y164.25 E13.3729
G1 X111.469 Y164.229 E13.39064
G1 X110.685 Y164.167 E13.41683
G1 X109.641 Y164.001 E13.45205
G1 X108.879 Y163.818 E13.47815
G1 X107.877 Y163.493 E13.51324
G1 X107.151 Y163.193 E13.53941
G1 X106.198 Y162.708 E13.57503
G1 X105.53 Y162.298 E13.60113
G1 X104.681 Y161.681 E13.63609
G1 X104.083 Y161.171 E13.66227
G1 X103.326 Y160.414 E13.69793
G1 X102.817 Y159.817 E13.72407
G1 X102.199 Y158.965 E13.75913
G1 X101.789 Y158.296 E13.78526
G1 X101.306 Y157.347 E13.82074
G1 X101.006 Y156.621 E13.8469
G1 X100.68 Y155.615 E13.88213
G1 X100.498 Y154.855 E13.90816
G1 X100.333 Y153.816 E13.9432
G1 X100.271 Y153.034 E13.96933
G1 X100.25 Y152.501 E13.9871
G1 X100.25 Y136.002 E14.53669
G1 X100.269 Y135.49 E14.55376
G1 X100.327 Y134.727 E14.57924
G1 X100.485 Y133.702 E14.61379
G1 X100.658 Y132.962 E14.63911
G1 X100.969 Y131.98 E14.67342
G1 X101.255 Y131.269 E14.69895
G1 X101.706 Y130.353 E14.73296
G1 X102.092 Y129.7 E14.75822
G1 X102.681 Y128.858 E14.79245
G1 X103.165 Y128.267 E14.8179
G1 X103.882 Y127.517 E14.85246
G1 X104.45 Y127.008 E14.87787
G0 F2625 X104.784 Y127.38
G1 F900 X105.535 Y126.804 E14.90939
G1 X106.176 Y126.385 E14.9349
G1 X107.023 Y125.92 E14.96709
G1 X107.716 Y125.607 E14.99242
G1 X108.159 Y125.427 E15.00834
G1 X132.071 Y116.76 E15.85557
G1 X132.748 Y116.557 E15.87911
G1 X133.47 Y116.429 E15.90354
G1 X134.625 Y116.293 E15.94228
G1 X135.378 Y116.25 E15.9674
G1 X145.245 Y116.284 E16.29607
G1 X145.95 Y116.326 E16.3196
G1 X146.665 Y116.453 E16.34379
G1 X147.795 Y116.721 E16.38247
G1 X148.49 Y116.929 E16.40664
G1 X171.848 Y125.43 E17.23463
G1 X172.284 Y125.607 E17.2503
G1 X172.977 Y125.92 E17.27563
G1 X173.824 Y126.385 E17.30782
G1 X174.465 Y126.804 E17.33333
G1 X175.215 Y127.38 E17.36483
G1 X175.781 Y127.887 E17.39014
G1 X176.443 Y128.578 E17.42202
G1 X176.927 Y129.168 E17.44744
G1 X177.474 Y129.95 E17.47923
G1 X177.862 Y130.606 E17.50461
G1 X178.281 Y131.456 E17.53618
G1 X178.567 Y132.167 E17.56171
G1 X178.855 Y133.076 E17.59347
G1 X179.028 Y133.816 E17.61879
G1 X179.174 Y134.764 E17.65074
G1 X179.232 Y135.525 E17.67616
G1 X179.25 Y136 E17.69199
G1 X179.25 Y152.499 E18.24158
G1 X179.231 Y152.992 E18.25801
G1 X179.169 Y153.776 E18.28421
G1 X179.016 Y154.739 E18.31669
G1 X178.834 Y155.499 E18.34272
G1 X178.532 Y156.43 E18.37533
G1 X178.232 Y157.156 E18.40149
G1 X177.785 Y158.035 E18.43434
G1 X177.375 Y158.704 E18.46048
G1 X176.802 Y159.493 E18.49296
G1 X176.293 Y160.09 E18.51909
G1 X175.593 Y160.79 E18.55207
G1 X174.995 Y161.3 E18.57825
G1 X174.208 Y161.872 E18.61066
G1 X173.54 Y162.282 E18.63676
G1 X172.658 Y162.731 E18.66973
G1 X171.932 Y163.031 E18.6959
G1 X171.004 Y163.332 E18.7284
G1 X170.242 Y163.515 E18.7545
G1 X169.276 Y163.669 E18.78708
G1 X168.492 Y163.731 E18.81328
G1 X167.999 Y163.75 E18.82971
G1 X112.001 Y163.75 E20.69503
G1 X111.508 Y163.731 E20.71146
G1 X110.724 Y163.669 E20.73766
G1 X109.758 Y163.515 E20.77024
G1 X108.996 Y163.332 E20.79635
G1 X108.068 Y163.031 E20.82884
G1 X107.342 Y162.731 E20.85501
G1 X106.46 Y162.282 E20.88798
G1 X105.792 Y161.872 E20.91409
G1 X105.005 Y161.3 E20.9465
G1 X104.407 Y160.79 E20.97268
G1 X103.707 Y160.09 E21.00565
G1 X103.198 Y159.493 E21.03178
G1 X102.625 Y158.704 E21.06427
G1 X102.215 Y158.035 E21.0904
G1 X101.768 Y157.156 E21.12325
G1 X101.468 Y156.43 E21.14942
G1 X101.166 Y155.499 E21.18202
G1 X100.984 Y154.739 E21.20805
G1 X100.832 Y153.777 E21.24049
G1 X100.77 Y152.995 E21.26662
G1 X100.75 Y152.501 E21.28309
G1 X100.75 Y136.002 E21.83268
G1 X100.768 Y135.528 E21.84848
G1 X100.826 Y134.765 E21.87397
G1 X100.972 Y133.816 E21.90595
G1 X101.145 Y133.076 E21.93127
G1 X101.433 Y132.167 E21.96303
G1 X101.719 Y131.456 E21.98856
G1 X102.137 Y130.608 E22.02005
G1 X102.523 Y129.955 E22.04532
G1 X103.068 Y129.175 E22.07701
G1 X103.552 Y128.584 E22.10246
G1 X104.216 Y127.889 E22.13448
G1 X104.784 Y127.38 E22.15988
G0 F2625 X105.118 Y127.753
G1 F900 X105.809 Y127.222 E22.18891
G1 X106.45 Y126.803 E22.21442
G1 X107.229 Y126.376 E22.24401
G1 X107.922 Y126.063 E22.26934
G1 X108.33 Y125.897 E22.28401
G1 X132.242 Y117.23 E23.13124
G1 X132.891 Y117.037 E23.15379
G1 X133.529 Y116.925 E23.17537
G1 X134.684 Y116.789 E23.21411
G1 X135.376 Y116.75 E23.2372
G1 X145.243 Y116.784 E23.56587
G1 X145.919 Y116.826 E23.58843
G1 X146.55 Y116.939 E23.60979
G1 X147.68 Y117.207 E23.64847
G1 X148.319 Y117.399 E23.6707
G1 X171.677 Y125.9 E24.49869
G1 X172.078 Y126.063 E24.51311
G1 X172.771 Y126.376 E24.53844
G1 X173.55 Y126.803 E24.56803
G1 X174.191 Y127.222 E24.59354
G1 X174.882 Y127.752 E24.62254
G1 X175.448 Y128.259 E24.64786
G1 X176.057 Y128.895 E24.67719
G1 X176.541 Y129.485 E24.70261
G1 X177.044 Y130.205 E24.73186
G1 X177.432 Y130.861 E24.75725
G1 X177.818 Y131.642 E24.78627
G1 X178.104 Y132.353 E24.8118
G1 X178.368 Y133.19 E24.84103
G1 X178.541 Y133.93 E24.86635
G1 X178.675 Y134.802 E24.89574
G1 X178.733 Y135.563 E24.92116
G1 X178.75 Y136 E24.93573
G1 X178.75 Y152.499 E25.48531
G1 X178.732 Y152.952 E25.50041
G1 X178.67 Y153.736 E25.52661
G1 X178.53 Y154.622 E25.55649
G1 X178.348 Y155.382 E25.58252
G1 X178.07 Y156.239 E25.61253
G1 X177.77 Y156.965 E25.6387
G1 X177.359 Y157.774 E25.66893
G1 X176.949 Y158.443 E25.69506
G1 X176.422 Y159.169 E25.72495
G1 X175.913 Y159.766 E25.75108
G1 X175.268 Y160.41 E25.78144
G1 X174.67 Y160.92 E25.80762
G1 X173.947 Y161.446 E25.8374
G1 X173.279 Y161.856 E25.86351
G1 X172.467 Y162.269 E25.89386
G1 X171.741 Y162.569 E25.92002
G1 X170.888 Y162.846 E25.9499
G1 X170.126 Y163.029 E25.976
G1 X169.236 Y163.17 E26.00602
G1 X168.452 Y163.232 E26.03221
G1 X167.999 Y163.25 E26.04732
G1 X112.001 Y163.25 E27.91263
G1 X111.548 Y163.232 E27.92773
G1 X110.764 Y163.17 E27.95393
G1 X109.874 Y163.029 E27.98394
G1 X109.112 Y162.846 E28.01005
G1 X108.259 Y162.569 E28.03992
G1 X107.533 Y162.269 E28.06609
G1 X106.721 Y161.856 E28.09644
G1 X106.053 Y161.446 E28.12254
G1 X105.33 Y160.92 E28.15233
G1 X104.732 Y160.41 E28.17851
G1 X104.087 Y159.766 E28.20887
G1 X103.578 Y159.169 E28.235
G1 X103.051 Y158.443 E28.26488
G1 X102.641 Y157.774 E28.29102
G1 X102.23 Y156.965 E28.32125
G1 X101.93 Y156.239 E28.34741
G1 X101.652 Y155.382 E28.37742
G1 X101.47 Y154.622 E28.40346
G1 X101.33 Y153.737 E28.4333
G1 X101.268 Y152.955 E28.45943
G1 X101.25 Y152.501 E28.47457
G1 X101.25 Y136.002 E29.02415
G1 X101.267 Y135.566 E29.03869
G1 X101.325 Y134.803 E29.06418
G1 X101.459 Y133.93 E29.0936
G1 X101.632 Y133.19 E29.11891
G1 X101.896 Y132.353 E29.14815
G1 X102.182 Y131.642 E29.17368
G1 X102.567 Y130.862 E29.20265
G1 X102.953 Y130.209 E29.22792
G1 X103.454 Y129.492 E29.25705
G1 X103.938 Y128.901 E29.2825
G1 X104.55 Y128.262 E29.31197
G1 X105.118 Y127.753 E29.33738
G0 F2625 X105.451 Y128.125
G1 F900 X106.082 Y127.641 E29.36387
G1 X106.723 Y127.222 E29.38938
G1 X107.435 Y126.831 E29.41644
G1 X108.128 Y126.518 E29.44177
G1 X108.5 Y126.367 E29.45514
G1 X132.412 Y117.7 E30.30236
G1 X133.033 Y117.517 E30.32393
G1 X133.587 Y117.422 E30.34265
G1 X134.742 Y117.286 E30.38139
G1 X135.374 Y117.25 E30.40248
G1 X145.241 Y117.284 E30.73115
G1 X145.887 Y117.326 E30.75272
G1 X146.435 Y117.426 E30.77127
G1 X147.565 Y117.694 E30.80996
G1 X148.148 Y117.869 E30.83023
G1 X171.506 Y126.37 E31.65822
G1 X171.872 Y126.518 E31.67137
G1 X172.565 Y126.831 E31.6967
G1 X173.277 Y127.222 E31.72376
G1 X173.918 Y127.641 E31.74927
G1 X174.548 Y128.124 E31.77571
G1 X175.114 Y128.631 E31.80102
G1 X175.67 Y129.212 E31.82781
G1 X176.154 Y129.802 E31.85323
G1 X176.614 Y130.459 E31.87995
G1 X177.002 Y131.115 E31.90534
G1 X177.354 Y131.829 E31.93185
G1 X177.64 Y132.54 E31.95738
G1 X177.881 Y133.304 E31.98407
G1 X178.054 Y134.044 E32.00938
G1 X178.177 Y134.84 E32.03621
G1 X178.235 Y135.601 E32.06163
G1 X178.25 Y136 E32.07493
G1 X178.25 Y152.499 E32.62452
G1 X178.234 Y152.913 E32.63832
G1 X178.172 Y153.697 E32.66452
G1 X178.044 Y154.506 E32.6918
G1 X177.862 Y155.266 E32.71783
G1 X177.608 Y156.048 E32.74522
G1 X177.308 Y156.774 E32.77139
G1 X176.932 Y157.512 E32.79898
G1 X176.522 Y158.181 E32.82511
G1 X176.041 Y158.844 E32.8524
G1 X175.532 Y159.441 E32.87853
G1 X174.944 Y160.03 E32.90625
G1 X174.346 Y160.54 E32.93243
G1 X173.685 Y161.019 E32.95963
G1 X173.017 Y161.429 E32.98573
G1 X172.276 Y161.807 E33.01344
G1 X171.55 Y162.107 E33.03961
G1 X170.771 Y162.36 E33.06689
G1 X170.009 Y162.543 E33.093
G1 X169.197 Y162.672 E33.12038
G1 X168.413 Y162.734 E33.14658
G1 X167.999 Y162.75 E33.16038
G1 X112.001 Y162.75 E35.0257
G1 X111.587 Y162.734 E35.0395
G1 X110.803 Y162.672 E35.06569
G1 X109.991 Y162.543 E35.09308
G1 X109.229 Y162.36 E35.11918
G1 X108.45 Y162.107 E35.14647
G1 X107.724 Y161.807 E35.17263
G1 X106.983 Y161.429 E35.20034
G1 X106.315 Y161.019 E35.22645
G1 X105.654 Y160.54 E35.25364
G1 X105.056 Y160.03 E35.27982
G1 X104.468 Y159.441 E35.30755
G1 X103.959 Y158.844 E35.33368
G1 X103.478 Y158.181 E35.36096
G1 X103.068 Y157.512 E35.3871
G1 X102.692 Y156.774 E35.41469
G1 X102.392 Y156.048 E35.44086
G1 X102.138 Y155.266 E35.46825
G1 X101.956 Y154.506 E35.49428
G1 X101.828 Y153.698 E35.52153
G1 X101.766 Y152.916 E35.54766
G1 X101.75 Y152.501 E35.56149
G1 X101.75 Y136.002 E36.11108
G1 X101.765 Y135.604 E36.12435
G1 X101.823 Y134.841 E36.14984
G1 X101.946 Y134.044 E36.1767
G1 X102.119 Y133.304 E36.20201
G1 X102.36 Y132.54 E36.2287
G1 X102.646 Y131.829 E36.25423
G1 X102.998 Y131.116 E36.28071
G1 X103.384 Y130.463 E36.30598
